;FLAVOR:Marlin
;TIME:14575
;Filament used: 10.4614m
;Layer height: 0.2
;MINX:49.335
;MINY:49.335
;MINZ:0.24
;MAXX:170.462
;MAXY:170.665
;MAXZ:26.09
;Generated with Cura_SteamEngine 4.9.1
M140 S60
M105
M190 S60
M104 S200
M105
M109 S200
M82 ;absolute extrusion mode
; Ender 3 Custom Start G-code
G92 E0 ; Reset Extruder
G28 ; Home all axes
G1 Z2.0 F3000 ; Move Z Axis up little to prevent scratching of Heat Bed
G1 X0.1 Y20 Z0.3 F5000.0 ; Move to start position
G1 X0.1 Y200.0 Z0.3 F1500.0 E15 ; Draw the first line
G1 X0.4 Y200.0 Z0.3 F5000.0 ; Move to side a little
G1 X0.4 Y20 Z0.3 F1500.0 E30 ; Draw the second line
G92 E0 ; Reset Extruder
G1 Z2.0 F3000 ; Move Z Axis up little to prevent scratching of Heat Bed
G1 X5 Y20 Z0.3 F5000.0 ; Move over to prevent blob squish
G92 E0
G92 E0
G1 F1500 E-6.5
;LAYER_COUNT:125
;LAYER:-6
M107
G0 F9000 X58.009 Y57.229 Z0.24
;TYPE:SUPPORT-INTERFACE
G1 F1500 E0
G1 F1125 X58.099 Y57.142 E0.00999
G1 X58.784 Y56.506 E0.08461
G1 X58.889 Y56.414 E0.09575
G1 X59.371 Y56.018 E0.14555
G1 X60.338 Y55.262 E0.24353
G1 X61.126 Y54.69 E0.32125
G1 X61.252 Y54.604 E0.33343
G1 X61.824 Y54.242 E0.38746
G1 X62.76 Y53.676 E0.47478
G1 X62.866 Y53.615 E0.48454
G1 X63.656 Y53.176 E0.55668
G1 X63.807 Y53.097 E0.57029
G1 X64.406 Y52.811 E0.62327
G1 X65.437 Y52.348 E0.71349
G1 X66.417 Y51.95 E0.79792
G1 X66.525 Y51.909 E0.80714
G1 X67.171 Y51.693 E0.86152
G1 X68.316 Y51.338 E0.95721
G1 X69.243 Y51.086 E1.03389
G1 X69.363 Y51.058 E1.04373
G1 X69.998 Y50.925 E1.09551
G1 X71.13 Y50.719 E1.18736
G1 X72.145 Y50.571 E1.26924
G1 X72.323 Y50.55 E1.28355
G1 X72.948 Y50.497 E1.33362
G1 X74.059 Y50.431 E1.42246
G1 X74.965 Y50.401 E1.49482
G1 X144.932 Y50.4 E7.07989
G1 X145.885 Y50.427 E7.15599
G1 X147.065 Y50.498 E7.25035
G1 X148.073 Y50.597 E7.3312
G1 X148.265 Y50.622 E7.34666
G1 X148.886 Y50.721 E7.39685
G1 X150.056 Y50.937 E7.49183
G1 X150.997 Y51.146 E7.56877
G1 X151.163 Y51.187 E7.58242
G1 X151.792 Y51.369 E7.63469
G1 X152.85 Y51.699 E7.72316
G1 X153.842 Y52.048 E7.8071
G1 X153.97 Y52.097 E7.81804
G1 X154.572 Y52.352 E7.87023
G1 X155.577 Y52.804 E7.95819
G1 X155.675 Y52.85 E7.96683
G1 X156.538 Y53.276 E8.04366
G1 X156.646 Y53.333 E8.05341
G1 X157.22 Y53.662 E8.10622
G1 X158.27 Y54.299 E8.20425
G1 X159.097 Y54.842 E8.28322
G1 X159.176 Y54.897 E8.29091
G1 X159.7 Y55.289 E8.34315
G1 X160.61 Y56.003 E8.43548
G1 X161.405 Y56.673 E8.51847
G1 X161.529 Y56.785 E8.53181
G1 X161.929 Y57.167 E8.57596
G1 X162.776 Y58.014 E8.67157
G1 X162.867 Y58.108 E8.68202
G1 X163.494 Y58.784 E8.75562
G1 X163.586 Y58.889 E8.76676
G1 X163.982 Y59.371 E8.81655
G1 X164.733 Y60.331 E8.91385
G1 X165.31 Y61.126 E8.99226
G1 X165.396 Y61.252 E9.00444
G1 X165.756 Y61.82 E9.05812
G1 X166.317 Y62.747 E9.14461
G1 X166.824 Y63.656 E9.2277
G1 X166.903 Y63.807 E9.2413
G1 X167.178 Y64.381 E9.29211
G1 X167.645 Y65.421 E9.38311
G1 X167.696 Y65.541 E9.39352
G1 X168.05 Y66.417 E9.46894
G1 X168.091 Y66.525 E9.47816
G1 X168.306 Y67.167 E9.5322
G1 X168.652 Y68.28 E9.62524
G1 X168.914 Y69.243 E9.70491
G1 X168.942 Y69.363 E9.71474
G1 X169.075 Y69.998 E9.76653
G1 X169.281 Y71.13 E9.85838
G1 X169.298 Y71.236 E9.86694
G1 X169.428 Y72.135 E9.93945
G1 X169.45 Y72.323 E9.95456
G1 X169.5 Y72.913 E10.00183
G1 X169.568 Y74.036 E10.09163
G1 X169.599 Y74.956 E10.16511
G1 X169.6 Y144.932 E15.7509
G1 X169.572 Y145.909 E15.82892
G1 X169.501 Y147.065 E15.92137
G1 X169.403 Y148.073 E16.00222
G1 X169.378 Y148.265 E16.01767
G1 X169.286 Y148.848 E16.06478
G1 X169.064 Y150.048 E16.1622
G1 X168.857 Y150.985 E16.2388
G1 X168.813 Y151.163 E16.25343
G1 X168.631 Y151.792 E16.3057
G1 X168.307 Y152.83 E16.3925
G1 X168.265 Y152.956 E16.40311
G1 X167.952 Y153.842 E16.47811
G1 X167.908 Y153.958 E16.48802
G1 X167.648 Y154.572 E16.54124
G1 X167.206 Y155.557 E16.62742
G1 X167.158 Y155.659 E16.63642
G1 X166.724 Y156.538 E16.71467
G1 X166.667 Y156.646 E16.72442
G1 X166.34 Y157.216 E16.77688
G1 X165.707 Y158.261 E16.8744
G1 X165.158 Y159.097 E16.95424
G1 X165.095 Y159.187 E16.96301
G1 X164.711 Y159.7 E17.01416
G1 X163.998 Y160.609 E17.10638
G1 X163.327 Y161.404 E17.18942
G1 X163.215 Y161.529 E17.20282
G1 X162.833 Y161.929 E17.24697
G1 X161.991 Y162.771 E17.34202
G1 X161.901 Y162.858 E17.35201
G1 X161.216 Y163.494 E17.42663
G1 X161.111 Y163.586 E17.43777
G1 X160.629 Y163.982 E17.48757
G1 X159.669 Y164.733 E17.58486
G1 X158.874 Y165.31 E17.66327
G1 X158.748 Y165.396 E17.67545
G1 X158.176 Y165.758 E17.72949
G1 X157.253 Y166.317 E17.81562
G1 X156.344 Y166.824 E17.89871
G1 X156.193 Y166.903 E17.91231
G1 X155.594 Y167.189 E17.9653
G1 X154.554 Y167.656 E18.0563
G1 X153.583 Y168.05 E18.13995
G1 X153.475 Y168.091 E18.14917
G1 X152.829 Y168.307 E18.20354
G1 X151.684 Y168.662 E18.29923
G1 X150.757 Y168.914 E18.37591
G1 X150.637 Y168.942 E18.38575
G1 X149.976 Y169.079 E18.43964
G1 X148.87 Y169.281 E18.52938
G1 X147.855 Y169.429 E18.61126
G1 X147.677 Y169.45 E18.62557
G1 X147.052 Y169.503 E18.67564
G1 X145.941 Y169.569 E18.76448
G1 X145.035 Y169.599 E18.83684
G1 X75.068 Y169.6 E24.42191
G1 X74.115 Y169.573 E24.49801
G1 X72.935 Y169.502 E24.59237
G1 X71.927 Y169.403 E24.67322
G1 X71.735 Y169.378 E24.68868
G1 X71.114 Y169.279 E24.73888
G1 X69.997 Y169.073 E24.82954
G1 X69.003 Y168.854 E24.91079
G1 X68.837 Y168.813 E24.92444
G1 X68.287 Y168.654 E24.97014
G1 X67.15 Y168.301 E25.06518
G1 X66.158 Y167.952 E25.14912
G1 X66.03 Y167.903 E25.16006
G1 X65.426 Y167.647 E25.21243
G1 X64.423 Y167.196 E25.30021
G1 X64.325 Y167.15 E25.30885
G1 X63.462 Y166.724 E25.38568
G1 X63.35 Y166.665 E25.39578
G1 X62.766 Y166.329 E25.44956
G1 X61.726 Y165.699 E25.54663
G1 X60.903 Y165.158 E25.62524
G1 X60.813 Y165.095 E25.63401
G1 X60.3 Y164.711 E25.68516
G1 X59.393 Y163.999 E25.77721
G1 X58.595 Y163.327 E25.86049
G1 X58.471 Y163.215 E25.87382
G1 X58.068 Y162.83 E25.91831
G1 X57.224 Y161.986 E26.01359
G1 X57.128 Y161.887 E26.0246
G1 X56.506 Y161.216 E26.09763
G1 X56.414 Y161.111 E26.10878
G1 X56.002 Y160.609 E26.16062
G1 X55.26 Y159.66 E26.25678
G1 X54.69 Y158.874 E26.33428
G1 X54.604 Y158.748 E26.34646
G1 X54.242 Y158.176 E26.40049
G1 X53.672 Y157.235 E26.48831
G1 X53.171 Y156.335 E26.57054
G1 X53.091 Y156.181 E26.58439
G1 X52.812 Y155.596 E26.63613
G1 X52.337 Y154.537 E26.72877
G1 X51.95 Y153.583 E26.81095
G1 X51.909 Y153.475 E26.82017
G1 X51.693 Y152.83 E26.87447
G1 X51.364 Y151.773 E26.96284
G1 X51.338 Y151.684 E26.97024
G1 X51.086 Y150.757 E27.04692
G1 X51.058 Y150.637 E27.05676
G1 X50.926 Y150.002 E27.10853
G1 X50.716 Y148.848 E27.20216
G1 X50.701 Y148.757 E27.20952
G1 X50.571 Y147.855 E27.28227
G1 X50.55 Y147.677 E27.29658
G1 X50.498 Y147.054 E27.34648
G1 X50.429 Y145.908 E27.43812
G1 X50.401 Y145.036 E27.50777
G1 X50.4 Y75.069 E33.09283
G1 X50.401 Y74.964 E33.10122
G1 X50.431 Y74.042 E33.17485
G1 X50.5 Y72.913 E33.26514
G1 X50.598 Y71.915 E33.34519
G1 X50.616 Y71.772 E33.3567
G1 X50.725 Y71.091 E33.41175
G1 X50.927 Y69.997 E33.50055
G1 X51.15 Y68.989 E33.58296
G1 X51.187 Y68.837 E33.59545
G1 X51.378 Y68.179 E33.65014
G1 X51.706 Y67.131 E33.7378
G1 X51.738 Y67.034 E33.74595
G1 X52.048 Y66.158 E33.82013
G1 X52.092 Y66.043 E33.82996
G1 X52.352 Y65.428 E33.88325
G1 X52.794 Y64.444 E33.96936
G1 X52.85 Y64.325 E33.97986
G1 X53.277 Y63.46 E34.05686
G1 X53.339 Y63.344 E34.06736
G1 X53.657 Y62.788 E34.11849
G1 X54.297 Y61.733 E34.21699
G1 X54.842 Y60.903 E34.29625
G1 X54.897 Y60.824 E34.30393
G1 X55.289 Y60.3 E34.35617
G1 X56.007 Y59.385 E34.44901
G1 X56.673 Y58.595 E34.53149
G1 X56.785 Y58.471 E34.54483
G1 X57.167 Y58.071 E34.58898
G1 X58.009 Y57.229 E34.68404
G1 F1500 E28.18404
G0 F9000 X57.256 Y56.476
G0 X85.018 Y84.855
G0 X84.283 Y84.082
G1 F1500 E34.68404
G1 F1125 X83.819 Y84.582 E34.73849
G1 X83.42 Y85.138 E34.79311
G1 X83.096 Y85.738 E34.84755
G1 X82.85 Y86.374 E34.90198
G1 X82.684 Y87.043 E34.957
G1 X82.6 Y87.982 E35.03226
G1 X82.6 Y132.013 E38.547
G1 X82.642 Y132.681 E38.60043
G1 X82.771 Y133.352 E38.65497
G1 X82.984 Y134.001 E38.7095
G1 X83.276 Y134.618 E38.76398
G1 X83.644 Y135.193 E38.81848
G1 X84.082 Y135.717 E38.87299
G1 X84.582 Y136.181 E38.92744
G1 X85.138 Y136.58 E38.98207
G1 X85.738 Y136.904 E39.0365
G1 X86.374 Y137.15 E39.09094
G1 X87.043 Y137.316 E39.14596
G1 X87.982 Y137.4 E39.22121
G1 X132.013 Y137.4 E42.73596
G1 X132.681 Y137.358 E42.78939
G1 X133.352 Y137.229 E42.84393
G1 X134.001 Y137.016 E42.89845
G1 X134.618 Y136.724 E42.95294
G1 X135.193 Y136.356 E43.00744
G1 X135.717 Y135.918 E43.06195
G1 X136.181 Y135.418 E43.1164
G1 X136.58 Y134.862 E43.17103
G1 X136.904 Y134.262 E43.22546
G1 X137.15 Y133.626 E43.2799
G1 X137.316 Y132.957 E43.33492
G1 X137.4 Y132.018 E43.41017
G1 X137.4 Y87.987 E46.92492
G1 X137.358 Y87.319 E46.97835
G1 X137.229 Y86.648 E47.03289
G1 X137.016 Y85.999 E47.08741
G1 X136.724 Y85.382 E47.1419
G1 X136.356 Y84.807 E47.1964
G1 X135.918 Y84.283 E47.25091
G1 X135.418 Y83.819 E47.30536
G1 X134.862 Y83.42 E47.35999
G1 X134.262 Y83.096 E47.41442
G1 X133.626 Y82.85 E47.46886
G1 X132.957 Y82.684 E47.52388
G1 X132.018 Y82.6 E47.59913
G1 X87.987 Y82.6 E51.11388
G1 X87.319 Y82.642 E51.1673
G1 X86.648 Y82.771 E51.22185
G1 X85.999 Y82.984 E51.27637
G1 X85.382 Y83.276 E51.33086
G1 X84.807 Y83.644 E51.38536
G1 X84.283 Y84.082 E51.43987
G0 F9000 X84.8 Y83.65
G1 F1125 X84.8 Y50.4 E54.09403
G0 F9000 X83.2 Y50.4
G1 F1125 X83.2 Y85.546 E56.89954
G0 F9000 X86.4 Y82.853
G1 F1125 X86.4 Y50.4 E59.49007
G0 F9000 X88 Y50.4
G1 F1125 X88 Y82.6 E62.06042
G0 F9000 X89.6 Y82.6
G1 F1125 X89.6 Y50.4 E64.63076
G0 F9000 X91.2 Y50.4
G1 F1125 X91.2 Y82.6 E67.2011
G0 F9000 X92.8 Y82.6
G1 F1125 X92.8 Y50.4 E69.77145
G0 F9000 X94.4 Y50.4
G1 F1125 X94.4 Y82.6 E72.34179
G0 F9000 X96 Y82.6
G1 F1125 X96 Y50.4 E74.91213
G0 F9000 X97.6 Y50.4
G1 F1125 X97.6 Y82.6 E77.48248
G0 F9000 X99.2 Y82.6
G1 F1125 X99.2 Y50.4 E80.05282
G0 F9000 X100.8 Y50.4
G1 F1125 X100.8 Y82.6 E82.62316
G0 F9000 X102.4 Y82.6
G1 F1125 X102.4 Y50.4 E85.19351
G0 F9000 X104 Y50.4
G1 F1125 X104 Y82.6 E87.76385
G0 F9000 X105.6 Y82.6
G1 F1125 X105.6 Y50.4 E90.33419
G0 F9000 X107.2 Y50.4
G1 F1125 X107.2 Y82.6 E92.90454
G0 F9000 X108.8 Y82.6
G1 F1125 X108.8 Y50.4 E95.47488
G0 F9000 X110.4 Y50.4
G1 F1125 X110.4 Y82.6 E98.04522
G0 F9000 X112 Y82.6
G1 F1125 X112 Y50.4 E100.61557
G0 F9000 X113.6 Y50.4
G1 F1125 X113.6 Y82.6 E103.18591
G0 F9000 X115.2 Y82.6
G1 F1125 X115.2 Y50.4 E105.75625
G0 F9000 X116.8 Y50.4
G1 F1125 X116.8 Y82.6 E108.3266
G0 F9000 X118.4 Y82.6
G1 F1125 X118.4 Y50.4 E110.89694
G0 F9000 X120 Y50.4
G1 F1125 X120 Y82.6 E113.46728
G0 F9000 X121.6 Y82.6
G1 F1125 X121.6 Y50.4 E116.03763
G0 F9000 X123.2 Y50.4
G1 F1125 X123.2 Y82.6 E118.60797
G0 F9000 X124.8 Y82.6
G1 F1125 X124.8 Y50.4 E121.17831
G0 F9000 X126.4 Y50.4
G1 F1125 X126.4 Y82.6 E123.74866
G0 F9000 X128 Y82.6
G1 F1125 X128 Y50.4 E126.319
G0 F9000 X129.6 Y50.4
G1 F1125 X129.6 Y82.6 E128.88934
G0 F9000 X131.2 Y82.6
G1 F1125 X131.2 Y50.4 E131.45969
G0 F9000 X132.8 Y50.4
G1 F1125 X132.8 Y82.669 E134.03554
G0 F9000 X134.4 Y83.17
G1 F1125 X134.4 Y50.4 E136.65138
G0 F9000 X136 Y50.4
G1 F1125 X136 Y84.381 E139.36389
G1 F1500 E132.86389
G0 F9000 X135.145 Y85.018
G0 X137.6 Y49.335
G0 X137.6 Y50.4
G1 F1500 E139.36389
G1 F1125 X137.6 Y169.6 E148.87895
G0 F9000 X136 Y169.6
G1 F1125 X136 Y135.613 E151.59194
G0 F9000 X134.4 Y136.827
G1 F1125 X134.4 Y169.6 E154.20802
G0 F9000 X132.8 Y169.6
G1 F1125 X132.8 Y137.335 E156.78355
G0 F9000 X131.2 Y137.4
G1 F1125 X131.2 Y169.6 E159.3539
G0 F9000 X129.6 Y169.6
G1 F1125 X129.6 Y137.4 E161.92424
G0 F9000 X128 Y137.4
G1 F1125 X128 Y169.6 E164.49458
G0 F9000 X126.4 Y169.6
G1 F1125 X126.4 Y137.4 E167.06493
G0 F9000 X124.8 Y137.4
G1 F1125 X124.8 Y169.6 E169.63527
G0 F9000 X123.2 Y169.6
G1 F1125 X123.2 Y137.4 E172.20561
G0 F9000 X121.6 Y137.4
G1 F1125 X121.6 Y169.6 E174.77596
G0 F9000 X120 Y169.6
G1 F1125 X120 Y137.4 E177.3463
G0 F9000 X118.4 Y137.4
G1 F1125 X118.4 Y169.6 E179.91664
G0 F9000 X116.8 Y169.6
G1 F1125 X116.8 Y137.4 E182.48699
G0 F9000 X115.2 Y137.4
G1 F1125 X115.2 Y169.6 E185.05733
G0 F9000 X113.6 Y169.6
G1 F1125 X113.6 Y137.4 E187.62767
G0 F9000 X112 Y137.4
G1 F1125 X112 Y169.6 E190.19802
G0 F9000 X110.4 Y169.6
G1 F1125 X110.4 Y137.4 E192.76836
G0 F9000 X108.8 Y137.4
G1 F1125 X108.8 Y169.6 E195.3387
G0 F9000 X107.2 Y169.6
G1 F1125 X107.2 Y137.4 E197.90905
G0 F9000 X105.6 Y137.4
G1 F1125 X105.6 Y169.6 E200.47939
G0 F9000 X104 Y169.6
G1 F1125 X104 Y137.4 E203.04973
G0 F9000 X102.4 Y137.4
G1 F1125 X102.4 Y169.6 E205.62007
G0 F9000 X100.8 Y169.6
G1 F1125 X100.8 Y137.4 E208.19042
G0 F9000 X99.2 Y137.4
G1 F1125 X99.2 Y169.6 E210.76076
G0 F9000 X97.6 Y169.6
G1 F1125 X97.6 Y137.4 E213.3311
G0 F9000 X96 Y137.4
G1 F1125 X96 Y169.6 E215.90145
G0 F9000 X94.4 Y169.6
G1 F1125 X94.4 Y137.4 E218.47179
G0 F9000 X92.8 Y137.4
G1 F1125 X92.8 Y169.6 E221.04213
G0 F9000 X91.2 Y169.6
G1 F1125 X91.2 Y137.4 E223.61248
G0 F9000 X89.6 Y137.4
G1 F1125 X89.6 Y169.6 E226.18282
G0 F9000 X88 Y169.6
G1 F1125 X88 Y137.4 E228.75316
G0 F9000 X86.4 Y137.157
G1 F1125 X86.4 Y169.6 E231.3429
G0 F9000 X84.8 Y169.6
G1 F1125 X84.8 Y136.338 E233.99802
G0 F9000 X83.2 Y134.458
G1 F1125 X83.2 Y169.6 E236.80321
G0 F9000 X81.6 Y169.6
G1 F1125 X81.6 Y50.4 E246.31827
G0 F9000 X80 Y50.4
G1 F1125 X80 Y169.6 E255.83333
G0 F9000 X78.4 Y169.6
G1 F1125 X78.4 Y50.4 E265.34839
G0 F9000 X76.8 Y50.4
G1 F1125 X76.8 Y169.6 E274.86345
G0 F9000 X75.2 Y169.6
G1 F1125 X75.2 Y50.4 E284.3785
G0 F9000 X73.6 Y50.458
G1 F1125 X73.6 Y169.542 E293.8843
G0 F9000 X72 Y169.41
G1 F1125 X72 Y50.592 E303.36887
G0 F9000 X70.4 Y50.851
G1 F1125 X70.4 Y169.147 E312.81177
G0 F9000 X68.8 Y168.802
G1 F1125 X68.8 Y51.206 E322.19879
G0 F9000 X67.2 Y51.684
G1 F1125 X67.2 Y168.316 E331.50886
G0 F9000 X65.6 Y167.72
G1 F1125 X65.6 Y52.281 E340.7237
G0 F9000 X64 Y53.004
G1 F1125 X64 Y166.989 E349.82248
G0 F9000 X62.4 Y166.107
G1 F1125 X62.4 Y53.893 E358.77988
G0 F9000 X60.8 Y54.926
G1 F1125 X60.8 Y165.085 E367.57325
G0 F9000 X59.2 Y163.836
G1 F1125 X59.2 Y56.158 E376.16857
G0 F9000 X57.6 Y57.638
G1 F1125 X57.6 Y162.362 E384.5281
G0 F9000 X56 Y160.606
G1 F1125 X56 Y59.393 E392.60736
G0 F9000 X54.4 Y61.576
G1 F1125 X54.4 Y158.425 E400.33826
G0 F9000 X52.8 Y155.569
G1 F1125 X52.8 Y64.431 E407.61329
G1 F1500 E401.11329
G0 F9000 X51.828 Y63.996
G0 X51.198 Y65.445
G0 X50.324 Y67.989
G0 X51.2 Y68.792
G1 F1500 E407.61329
G1 F1125 X51.2 Y151.176 E414.18954
G1 F1500 E407.68954
G0 F9000 X50.173 Y151.456
G0 X50.96 Y153.974
G0 X52.236 Y156.843
G0 X53.814 Y159.478
G0 X55.712 Y161.925
G0 X57.9 Y164.134
G0 X60.301 Y166.036
G0 X62.982 Y167.674
G0 X65.786 Y168.95
G0 X68.764 Y169.891
G0 X71.8 Y170.46
G0 X74.73 Y170.644
G0 X139.2 Y170.665
G0 X139.2 Y169.6
G1 F1500 E414.18954
G1 F1125 X139.2 Y50.4 E423.7046
G0 F9000 X140.8 Y50.4
G1 F1125 X140.8 Y169.6 E433.21966
G0 F9000 X142.4 Y169.6
G1 F1125 X142.4 Y50.4 E442.73472
G0 F9000 X144 Y50.4
G1 F1125 X144 Y169.6 E452.24978
G0 F9000 X145.6 Y169.581
G1 F1125 X145.6 Y50.419 E461.7618
G0 F9000 X147.2 Y50.512
G1 F1125 X147.2 Y169.491 E471.25922
G0 F9000 X148.8 Y169.292
G1 F1125 X148.8 Y50.708 E480.72511
G0 F9000 X150.4 Y51.014
G1 F1125 X150.4 Y168.992 E490.14262
G0 F9000 X152 Y168.565
G1 F1125 X152 Y51.434 E499.49253
G0 F9000 X153.6 Y51.963
G1 F1125 X153.6 Y168.044 E508.75861
G0 F9000 X155.2 Y167.366
G1 F1125 X155.2 Y52.635 E517.91694
G0 F9000 X156.8 Y53.422
G1 F1125 X156.8 Y166.57 E526.9489
G0 F9000 X158.4 Y165.617
G1 F1125 X158.4 Y54.385 E535.82792
G0 F9000 X160 Y55.525
G1 F1125 X160 Y164.475 E544.52478
G0 F9000 X161.6 Y163.138
G1 F1125 X161.6 Y56.853 E553.00891
G0 F9000 X163.2 Y58.468
G1 F1125 X163.2 Y161.545 E561.23696
G0 F9000 X164.8 Y159.582
G1 F1125 X164.8 Y60.424 E569.15218
G0 F9000 X166.4 Y62.896
G1 F1125 X166.4 Y157.112 E576.67291
G0 F9000 X168 Y153.707
G1 F1125 X168 Y66.294 E583.65059
G1 F1500 E577.15059
G0 F300 X168 Y66.294 Z0.54
G0 F9000 X168.68 Y65.137
G0 X167.764 Y63.157
G0 X166.344 Y60.785
G0 X164.815 Y58.708
G0 X163.584 Y58.889
;TIME_ELAPSED:413.290641
;LAYER:-5
;TYPE:SUPPORT
G1 F1500 E583.65059
G1 F1125 X163.493 Y58.783 E583.66453
G1 X162.865 Y58.107 E583.7566
G1 X162.775 Y58.014 E583.76951
G1 X161.928 Y57.167 E583.88903
G1 X161.528 Y56.784 E583.94429
G1 X161.404 Y56.673 E583.9609
G1 X160.898 Y56.246 E584.02696
