;FLAVOR:Marlin
;TIME:6401
;Filament used: 5.00121m
;Layer height: 0.2
;MINX:68.371
;MINY:68.085
;MINZ:0.2
;MAXX:151.629
;MAXY:151.629
;MAXZ:3
;Generated with Cura_SteamEngine 4.9.1
M140 S60
M105
M190 S60
M104 S200
M105
M109 S200
M82 ;absolute extrusion mode
; Ender 3 Custom Start G-code
G92 E0 ; Reset Extruder
G28 ; Home all axes
G1 Z2.0 F3000 ; Move Z Axis up little to prevent scratching of Heat Bed
G1 X0.1 Y20 Z0.3 F5000.0 ; Move to start position
G1 X0.1 Y200.0 Z0.3 F1500.0 E15 ; Draw the first line
G1 X0.4 Y200.0 Z0.3 F5000.0 ; Move to side a little
G1 X0.4 Y20 Z0.3 F1500.0 E30 ; Draw the second line
G92 E0 ; Reset Extruder
G1 Z2.0 F3000 ; Move Z Axis up little to prevent scratching of Heat Bed
G1 X5 Y20 Z0.3 F5000.0 ; Move over to prevent blob squish
G92 E0
G92 E0
G1 F1500 E-6.5
;LAYER_COUNT:15
;LAYER:0
M107
;MESH:Level3.stl
G0 F6000 X123.063 Y119.773 Z0.2
;TYPE:WALL-INNER
G1 F1500 E0
G1 F1200 X124.25 Y119.851 E0.03956
G1 X125.437 Y119.773 E0.07913
G1 X126.606 Y119.541 E0.11877
G1 X127.733 Y119.158 E0.15836
G1 X128.8 Y118.632 E0.19793
G1 X129.79 Y117.971 E0.23752
G1 X130.685 Y117.185 E0.27714
G1 X131.471 Y116.29 E0.31675
G1 X132.132 Y115.3 E0.35635
G1 X132.658 Y114.233 E0.39591
G1 X133.041 Y113.106 E0.4355
G1 X133.273 Y111.937 E0.47514
G1 X133.351 Y110.75 E0.51471
G1 X133.273 Y109.563 E0.55427
G1 X133.041 Y108.394 E0.59391
G1 X132.658 Y107.267 E0.6335
G1 X132.132 Y106.2 E0.67307
G1 X131.471 Y105.21 E0.71266
G1 X130.685 Y104.315 E0.75228
G1 X129.79 Y103.529 E0.79189
G1 X128.8 Y102.868 E0.83149
G1 X127.733 Y102.342 E0.87105
G1 X126.606 Y101.959 E0.91064
G1 X125.437 Y101.727 E0.95028
G1 X124.25 Y101.649 E0.98985
G1 X123.063 Y101.727 E1.02941
G1 X121.894 Y101.959 E1.06905
G1 X120.767 Y102.342 E1.10864
G1 X119.7 Y102.868 E1.14821
G1 X118.71 Y103.529 E1.1878
G1 X117.815 Y104.315 E1.22742
G1 X117.029 Y105.21 E1.26703
G1 X116.368 Y106.2 E1.30663
G1 X115.842 Y107.267 E1.34619
G1 X115.459 Y108.394 E1.38578
G1 X115.227 Y109.563 E1.42542
G1 X115.149 Y110.75 E1.46499
G1 X115.227 Y111.937 E1.50455
G1 X115.459 Y113.106 E1.54419
G1 X115.842 Y114.233 E1.58378
G1 X116.368 Y115.3 E1.62335
G1 X117.029 Y116.29 E1.66294
G1 X117.815 Y117.185 E1.70256
G1 X118.71 Y117.971 E1.74218
G1 X119.7 Y118.632 E1.78177
G1 X120.767 Y119.158 E1.82133
G1 X121.894 Y119.541 E1.86092
G1 X123.063 Y119.773 E1.90056
G0 F6000 X123.115 Y119.376
;TYPE:WALL-OUTER
G1 F1200 X124.25 Y119.45 E1.93839
G1 X125.385 Y119.376 E1.97622
G1 X126.502 Y119.154 E2.0141
G1 X127.58 Y118.788 E2.05197
G1 X128.6 Y118.285 E2.08979
G1 X129.546 Y117.653 E2.12763
G1 X130.402 Y116.902 E2.16551
G1 X131.153 Y116.046 E2.20338
G1 X131.785 Y115.1 E2.24122
G1 X132.288 Y114.08 E2.27905
G1 X132.654 Y113.002 E2.31691
G1 X132.876 Y111.885 E2.35479
G1 X132.95 Y110.75 E2.39262
G1 X132.876 Y109.615 E2.43045
G1 X132.654 Y108.498 E2.46833
G1 X132.288 Y107.42 E2.50619
G1 X131.785 Y106.4 E2.54402
G1 X131.153 Y105.454 E2.58186
G1 X130.402 Y104.598 E2.61974
G1 X129.546 Y103.847 E2.65761
G1 X128.6 Y103.215 E2.69545
G1 X127.58 Y102.712 E2.73328
G1 X126.502 Y102.346 E2.77114
G1 X125.385 Y102.124 E2.80902
G1 X124.25 Y102.05 E2.84685
G1 X123.115 Y102.124 E2.88468
G1 X121.998 Y102.346 E2.92256
G1 X120.92 Y102.712 E2.96042
G1 X119.9 Y103.215 E2.99825
G1 X118.954 Y103.847 E3.03609
G1 X118.098 Y104.598 E3.07396
G1 X117.347 Y105.454 E3.11184
G1 X116.715 Y106.4 E3.14968
G1 X116.212 Y107.42 E3.1875
G1 X115.846 Y108.498 E3.22537
G1 X115.624 Y109.615 E3.26325
G1 X115.55 Y110.75 E3.30108
G1 X115.624 Y111.885 E3.33891
G1 X115.846 Y113.002 E3.37679
G1 X116.212 Y114.08 E3.41465
G1 X116.715 Y115.1 E3.45248
G1 X117.347 Y116.046 E3.49032
G1 X118.098 Y116.902 E3.52819
G1 X118.954 Y117.653 E3.56607
G1 X119.9 Y118.285 E3.60391
G1 X120.92 Y118.788 E3.64173
G1 X121.998 Y119.154 E3.6796
G1 X123.115 Y119.376 E3.71747
G0 F6000 X123.058 Y119.812
G1 F1500 E-2.78253
G0 F6000 X119.604 Y118.797
G0 X120.336 Y117.536
G0 X100.709 Y117.756
G0 X101.349 Y119.066
G0 X97.853 Y119.802
;TYPE:WALL-INNER
G1 F1500 E3.71747
G1 F1200 X99.026 Y119.649 E3.75682
G1 X100.17 Y119.344 E3.7962
G1 X101.264 Y118.894 E3.83554
G1 X102.292 Y118.305 E3.87495
G1 X103.233 Y117.588 E3.9143
G1 X104.073 Y116.756 E3.95362
G1 X104.799 Y115.821 E3.99299
G1 X105.396 Y114.8 E4.03233
G1 X105.858 Y113.71 E4.0717
G1 X106.173 Y112.568 E4.11111
G1 X106.337 Y111.397 E4.15043
G1 X106.348 Y110.213 E4.18982
G1 X106.205 Y109.038 E4.22918
G1 X105.912 Y107.892 E4.26853
G1 X105.472 Y106.794 E4.30787
G1 X104.892 Y105.762 E4.34724
G1 X104.184 Y104.813 E4.38662
G1 X103.359 Y103.964 E4.426
G1 X102.431 Y103.23 E4.46535
G1 X101.416 Y102.622 E4.5047
G1 X100.33 Y102.152 E4.54406
G1 X99.192 Y101.826 E4.58343
G1 X98.016 Y101.65 E4.62298
G1 X96.506 Y101.65 E4.67321
G1 X95.33 Y101.826 E4.71276
G1 X94.192 Y102.152 E4.75213
G1 X93.107 Y102.622 E4.79146
G1 X92.09 Y103.23 E4.83086
G1 X91.163 Y103.965 E4.87021
G1 X90.338 Y104.813 E4.90956
G1 X89.63 Y105.762 E4.94894
G1 X89.05 Y106.794 E4.98832
G1 X88.611 Y107.892 E5.02765
G1 X88.316 Y109.038 E5.06701
G1 X88.174 Y110.213 E5.10637
G1 X88.184 Y111.397 E5.14575
G1 X88.35 Y112.568 E5.18509
G1 X88.664 Y113.71 E5.22448
G1 X89.125 Y114.8 E5.26384
G1 X89.723 Y115.821 E5.3032
G1 X90.449 Y116.756 E5.34257
G1 X91.289 Y117.588 E5.38189
G1 X92.23 Y118.305 E5.42124
G1 X93.258 Y118.894 E5.46065
G1 X94.352 Y119.344 E5.49999
G1 X95.495 Y119.649 E5.53934
G1 X96.669 Y119.802 E5.57872
G1 X97.853 Y119.802 E5.6181
G0 F6000 X97.827 Y119.402
;TYPE:WALL-OUTER
G1 F1200 X98.948 Y119.256 E5.6557
G1 X100.042 Y118.964 E5.69336
G1 X101.088 Y118.534 E5.73097
G1 X102.07 Y117.971 E5.76862
G1 X102.97 Y117.286 E5.80624
G1 X103.773 Y116.49 E5.84385
G1 X104.467 Y115.596 E5.88149
G1 X105.038 Y114.62 E5.9191
G1 X105.479 Y113.578 E5.95673
G1 X105.78 Y112.487 E5.99437
G1 X105.937 Y111.367 E6.03199
G1 X105.948 Y110.235 E6.06964
G1 X105.811 Y109.112 E6.10727
G1 X105.531 Y108.017 E6.14486
G1 X105.11 Y106.967 E6.18249
G1 X104.556 Y105.98 E6.22013
G1 X103.879 Y105.073 E6.25778
G1 X103.09 Y104.262 E6.29541
G1 X102.203 Y103.56 E6.33303
G1 X101.233 Y102.979 E6.37064
G1 X100.195 Y102.529 E6.40827
G1 X99.107 Y102.218 E6.4459
G1 X97.986 Y102.05 E6.4836
G1 X96.536 Y102.05 E6.53183
G1 X95.415 Y102.218 E6.56953
G1 X94.327 Y102.529 E6.60717
G1 X93.29 Y102.979 E6.64477
G1 X92.318 Y103.56 E6.68243
G1 X91.432 Y104.262 E6.72003
G1 X90.643 Y105.073 E6.75766
G1 X89.966 Y105.98 E6.79531
G1 X89.412 Y106.967 E6.83295
G1 X88.992 Y108.017 E6.87056
G1 X88.71 Y109.112 E6.90817
G1 X88.574 Y110.235 E6.9458
G1 X88.584 Y111.367 E6.98345
G1 X88.742 Y112.487 E7.02107
G1 X89.043 Y113.578 E7.05871
G1 X89.483 Y114.62 E7.09633
G1 X90.055 Y115.596 E7.13396
G1 X90.749 Y116.49 E7.1716
G1 X91.552 Y117.286 E7.20921
G1 X92.452 Y117.971 E7.24682
G1 X93.434 Y118.534 E7.28447
G1 X94.48 Y118.964 E7.32209
G1 X95.573 Y119.256 E7.35972
G1 X96.695 Y119.402 E7.39735
G1 X97.827 Y119.402 E7.435
G0 F6000 X97.855 Y119.841
G1 F1500 E0.935
G0 F6000 X99.064 Y119.836
G0 X98.782 Y118.405
G0 X100.403 Y146.903
G0 X99.064 Y145.44
G0 X122.178 Y145.822
G0 X122.35 Y150.65
;TYPE:WALL-INNER
G1 F1500 E7.435
G1 F1200 X122.35 Y145.65 E7.6013
G1 X99.15 Y145.65 E8.37294
G1 X99.15 Y150.65 E8.53924
G1 X75.764 Y150.65 E9.31706
G1 X74.842 Y150.584 E9.3478
G1 X73.948 Y150.389 E9.37824
G1 X73.095 Y150.071 E9.40851
G1 X72.288 Y149.63 E9.4391
G1 X71.558 Y149.084 E9.46942
G1 X70.916 Y148.442 E9.49962
G1 X70.37 Y147.712 E9.52994
G1 X69.929 Y146.905 E9.56053
G1 X69.611 Y146.052 E9.5908
G1 X69.416 Y145.158 E9.62124
G1 X69.35 Y144.236 E9.65198
G1 X69.35 Y75.764 E11.92937
G1 X69.416 Y74.842 E11.96011
G1 X69.611 Y73.948 E11.99055
G1 X69.929 Y73.095 E12.02083
G1 X70.37 Y72.288 E12.05141
G1 X70.916 Y71.558 E12.08173
G1 X71.558 Y70.916 E12.11193
G1 X72.288 Y70.37 E12.14225
G1 X73.095 Y69.929 E12.17284
G1 X73.948 Y69.611 E12.20312
G1 X74.842 Y69.416 E12.23355
G1 X75.764 Y69.35 E12.26429
G1 X105.15 Y69.35 E13.24168
G1 X105.15 Y73.85 E13.39135
G1 X116.35 Y73.85 E13.76386
G1 X116.35 Y69.35 E13.91353
G1 X144.236 Y69.35 E14.84102
G1 X145.158 Y69.416 E14.87177
G1 X146.052 Y69.611 E14.9022
G1 X146.905 Y69.929 E14.93248
G1 X147.712 Y70.37 E14.96307
G1 X148.442 Y70.916 E14.99339
G1 X149.084 Y71.558 E15.02358
G1 X149.63 Y72.288 E15.0539
G1 X150.071 Y73.095 E15.08449
G1 X150.389 Y73.948 E15.11477
G1 X150.584 Y74.842 E15.1452
G1 X150.65 Y75.764 E15.17595
G1 X150.65 Y144.236 E17.45334
G1 X150.584 Y145.158 E17.48408
G1 X150.389 Y146.052 E17.51451
G1 X150.071 Y146.905 E17.54479
G1 X149.63 Y147.712 E17.57538
G1 X149.084 Y148.442 E17.6057
G1 X148.442 Y149.084 E17.6359
G1 X147.712 Y149.63 E17.66622
G1 X146.905 Y150.071 E17.6968
G1 X146.052 Y150.389 E17.72708
G1 X145.158 Y150.584 E17.75752
G1 X144.236 Y150.65 E17.78826
G1 X122.35 Y150.65 E18.51619
G0 F6000 X121.95 Y151.05
;TYPE:WALL-OUTER
G1 F1200 X121.95 Y146.05 E18.68249
G1 X99.55 Y146.05 E19.42752
G1 X99.55 Y151.05 E19.59382
G1 X75.75 Y151.05 E20.38541
G1 X74.784 Y150.981 E20.41762
G1 X73.834 Y150.774 E20.44996
G1 X72.93 Y150.437 E20.48205
G1 X72.072 Y149.968 E20.51457
G1 X71.294 Y149.386 E20.54689
G1 X70.614 Y148.706 E20.57887
G1 X70.032 Y147.928 E20.61119
G1 X69.563 Y147.07 E20.64371
G1 X69.226 Y146.166 E20.6758
G1 X69.019 Y145.216 E20.70814
G1 X68.95 Y144.25 E20.74035
G1 X68.95 Y75.75 E23.01867
G1 X69.019 Y74.784 E23.05088
G1 X69.226 Y73.834 E23.08322
G1 X69.563 Y72.93 E23.11531
G1 X70.032 Y72.072 E23.14783
G1 X70.614 Y71.294 E23.18014
G1 X71.294 Y70.614 E23.21213
G1 X72.072 Y70.032 E23.24444
G1 X72.93 Y69.563 E23.27697
G1 X73.834 Y69.226 E23.30906
G1 X74.784 Y69.019 E23.34139
G1 X75.75 Y68.95 E23.37361
G1 X105.55 Y68.95 E24.36476
G1 X105.55 Y73.45 E24.51443
G1 X115.95 Y73.45 E24.86033
G1 X115.95 Y68.95 E25.01
G1 X144.25 Y68.95 E25.95127
G1 X145.216 Y69.019 E25.98348
G1 X146.166 Y69.226 E26.01582
G1 X147.07 Y69.563 E26.0479
G1 X147.928 Y70.032 E26.08043
G1 X148.706 Y70.614 E26.11274
G1 X149.386 Y71.294 E26.14473
G1 X149.968 Y72.072 E26.17704
G1 X150.437 Y72.93 E26.20956
G1 X150.774 Y73.834 E26.24165
G1 X150.981 Y74.784 E26.27399
G1 X151.05 Y75.75 E26.3062
G1 X151.05 Y144.25 E28.58452
G1 X150.981 Y145.216 E28.61673
G1 X150.774 Y146.166 E28.64907
G1 X150.437 Y147.07 E28.68116
G1 X149.968 Y147.928 E28.71368
G1 X149.386 Y148.706 E28.746
G1 X148.706 Y149.386 E28.77798
G1 X147.928 Y149.968 E28.8103
G1 X147.07 Y150.437 E28.84282
G1 X146.166 Y150.774 E28.87491
G1 X145.216 Y150.981 E28.90725
G1 X144.25 Y151.05 E28.93946
G1 X121.95 Y151.05 E29.68116
G0 F6000 X122.22 Y150.78
G0 X122.46 Y150.26
G0 X122.74 Y150.26
;TYPE:SKIN
G1 F1200 X122.74 Y145.26 E29.84746
G1 X98.76 Y145.26 E30.64504
G1 X98.76 Y150.26 E30.81134
G1 X75.778 Y150.26 E31.57572
G1 X74.897 Y150.197 E31.6051
G1 X74.055 Y150.013 E31.63377
G1 X73.264 Y149.719 E31.66183
G1 X72.496 Y149.298 E31.69096
G1 X71.808 Y148.784 E31.71953
G1 X71.216 Y148.192 E31.74737
G1 X70.702 Y147.504 E31.77594
G1 X70.281 Y146.736 E31.80507
G1 X69.987 Y145.945 E31.83313
G1 X69.803 Y145.103 E31.8618
G1 X69.74 Y144.222 E31.89118
G1 X69.74 Y75.778 E34.16763
G1 X69.803 Y74.897 E34.19701
G1 X69.987 Y74.055 E34.22568
G1 X70.281 Y73.264 E34.25374
G1 X70.702 Y72.496 E34.28287
G1 X71.216 Y71.808 E34.31144
G1 X71.808 Y71.216 E34.33928
G1 X72.496 Y70.702 E34.36785
G1 X73.264 Y70.281 E34.39698
G1 X74.055 Y69.987 E34.42505
G1 X74.897 Y69.803 E34.45371
G1 X75.778 Y69.74 E34.48309
G1 X104.76 Y69.74 E35.44703
G1 X104.76 Y74.24 E35.5967
G1 X116.74 Y74.24 E35.99516
G1 X116.74 Y69.74 E36.14483
G1 X144.222 Y69.74 E37.05889
G1 X145.103 Y69.803 E37.08826
G1 X145.945 Y69.987 E37.11693
G1 X146.736 Y70.281 E37.145
G1 X147.504 Y70.702 E37.17413
G1 X148.192 Y71.216 E37.20269
G1 X148.784 Y71.808 E37.23054
G1 X149.298 Y72.496 E37.2591
G1 X149.719 Y73.264 E37.28823
G1 X150.013 Y74.055 E37.3163
G1 X150.197 Y74.897 E37.34496
G1 X150.26 Y75.778 E37.37434
G1 X150.26 Y144.222 E39.6508
G1 X150.197 Y145.103 E39.68017
G1 X150.013 Y145.945 E39.70884
G1 X149.719 Y146.736 E39.73691
G1 X149.298 Y147.504 E39.76604
G1 X148.784 Y148.192 E39.7946
G1 X148.192 Y148.784 E39.82245
G1 X147.504 Y149.298 E39.85101
G1 X146.736 Y149.719 E39.88014
G1 X145.945 Y150.013 E39.90821
G1 X145.103 Y150.197 E39.93687
G1 X144.222 Y150.26 E39.96625
G1 X122.74 Y150.26 E40.68074
G1 F1500 E34.18074
G0 F6000 X122.46 Y150.26
G0 X122.52 Y147.577
G0 X121.085 Y147.577
G0 X124.25 Y118.583
G0 X124.214 Y120.04
G0 X124.25 Y120.241
G1 F1500 E40.68074
G1 F1200 X125.488 Y120.161 E40.72201
G1 X126.707 Y119.919 E40.76334
G1 X127.883 Y119.519 E40.80466
G1 X128.995 Y118.971 E40.84589
G1 X130.028 Y118.281 E40.88721
G1 X130.962 Y117.462 E40.92852
G1 X131.781 Y116.528 E40.96984
G1 X132.471 Y115.495 E41.01116
G1 X133.019 Y114.383 E41.05239
G1 X133.419 Y113.207 E41.0937
G1 X133.661 Y111.988 E41.13504
G1 X133.741 Y110.75 E41.1763
G1 X133.661 Y109.512 E41.21756
G1 X133.419 Y108.293 E41.2589
G1 X133.019 Y107.117 E41.30021
G1 X132.471 Y106.005 E41.34145
G1 X131.781 Y104.972 E41.38276
G1 X130.962 Y104.038 E41.42408
G1 X130.028 Y103.219 E41.4654
G1 X128.995 Y102.529 E41.50671
G1 X127.883 Y101.981 E41.54795
G1 X126.707 Y101.581 E41.58926
G1 X125.488 Y101.339 E41.6306
G1 X124.25 Y101.259 E41.67186
G1 X123.012 Y101.339 E41.71312
G1 X121.793 Y101.581 E41.75446
G1 X120.617 Y101.981 E41.79577
G1 X119.505 Y102.529 E41.837
G1 X118.472 Y103.219 E41.87832
G1 X117.538 Y104.038 E41.91964
G1 X116.719 Y104.972 E41.96095
G1 X116.029 Y106.005 E42.00227
G1 X115.481 Y107.117 E42.0435
G1 X115.081 Y108.293 E42.08482
G1 X114.839 Y109.512 E42.12615
G1 X114.759 Y110.75 E42.16741
G1 X114.839 Y111.988 E42.20868
G1 X115.081 Y113.207 E42.25001
G1 X115.481 Y114.383 E42.29133
G1 X116.029 Y115.495 E42.33256
G1 X116.719 Y116.528 E42.37388
G1 X117.538 Y117.462 E42.41519
G1 X118.472 Y118.281 E42.45651
G1 X119.505 Y118.971 E42.49783
G1 X120.617 Y119.519 E42.53906
G1 X121.793 Y119.919 E42.58037
G1 X123.012 Y120.161 E42.62171
G1 X124.25 Y120.241 E42.66297
G1 F1500 E36.16297
G0 F6000 X124.251 Y119.961
G0 X119.604 Y118.797
G0 X120.336 Y117.536
G0 X102.401 Y116.633
G0 X103.358 Y117.732
G0 X102.354 Y118.397
G0 X102.508 Y118.631
G1 F1500 E42.66297
G1 F1200 X103.49 Y117.883 E42.70403
G1 X104.366 Y117.015 E42.74505
G1 X105.123 Y116.04 E42.7861
G1 X105.745 Y114.975 E42.82712
G1 X106.227 Y113.839 E42.86817
G1 X106.555 Y112.648 E42.90925
G1 X106.727 Y111.426 E42.9503
G1 X106.738 Y110.191 E42.99138
G1 X106.589 Y108.966 E43.03242
G1 X106.284 Y107.771 E43.07344
G1 X105.825 Y106.625 E43.1145
G1 X105.22 Y105.549 E43.15556
G1 X104.482 Y104.559 E43.19663
G1 X103.621 Y103.674 E43.23769
G1 X102.653 Y102.908 E43.27875
G1 X101.594 Y102.275 E43.31978
G1 X100.462 Y101.784 E43.36082
G1 X99.275 Y101.444 E43.40189
G1 X98.045 Y101.26 E43.44326
G1 X96.477 Y101.26 E43.49541
G1 X95.247 Y101.444 E43.53677
G1 X94.06 Y101.784 E43.57784
G1 X92.929 Y102.275 E43.61885
G1 X91.868 Y102.908 E43.65994
G1 X90.901 Y103.675 E43.70099
G1 X90.041 Y104.559 E43.74201
G1 X89.302 Y105.549 E43.7831
G1 X88.697 Y106.626 E43.82419
G1 X88.24 Y107.771 E43.86519
G1 X87.932 Y108.966 E43.90624
G1 X87.784 Y110.191 E43.94728
G1 X87.794 Y111.426 E43.98836
G1 X87.968 Y112.648 E44.02941
G1 X88.295 Y113.838 E44.07046
G1 X88.776 Y114.975 E44.11152
G1 X89.399 Y116.04 E44.15256
G1 X90.156 Y117.015 E44.19361
G1 X91.032 Y117.883 E44.23463
G1 X92.014 Y118.631 E44.27569
G1 X93.086 Y119.245 E44.31677
G1 X94.227 Y119.714 E44.35781
G1 X95.419 Y120.033 E44.39885
G1 X96.644 Y120.192 E44.43993
G1 X97.878 Y120.192 E44.48098
G1 X99.102 Y120.033 E44.52203
G1 X100.295 Y119.714 E44.5631
G1 X101.436 Y119.245 E44.60413
G1 X102.508 Y118.631 E44.64522
G1 F1500 E38.14522
G0 F6000 X102.354 Y118.397
G0 X100.231 Y119.525
G0 X99.766 Y118.143
G0 X73.696 Y151.629
G0 X74.009 Y150.187
G0 X72.839 Y149.805
G0 X73.052 Y149.42
G1 F1500 E44.64522
G1 F1200 X70.578 Y146.945 E44.76161
G0 F6000 X70.192 Y147.156
G0 X69.755 Y146.12
G0 X70.166 Y145.968
G1 F1200 X74.029 Y149.831 E44.94332
G0 F6000 X74.768 Y150.004
G1 F1200 X69.994 Y145.23 E45.16787
G0 F6000 X69.926 Y144.596
G1 F1200 X75.401 Y150.072 E45.42542
G0 F6000 X75.994 Y150.098
G1 F1200 X69.899 Y144.004 E45.71209
G0 F6000 X69.899 Y143.438
G1 F1200 X76.559 Y150.098 E46.02536
G0 F6000 X77.125 Y150.098
G1 F1200 X69.899 Y142.873 E46.36522
G0 F6000 X69.899 Y142.307
