;FLAVOR:Marlin
;TIME:11925
;Filament used: 7.79894m
;Layer height: 0.2
;MINX:49.336
;MINY:48.335
;MINZ:0.24
;MAXX:170.631
;MAXY:82.509
;MAXZ:91.09
;Generated with Cura_SteamEngine 4.9.1
M140 S60
M105
M190 S60
M104 S200
M105
M109 S200
M82 ;absolute extrusion mode
; Ender 3 Custom Start G-code
G92 E0 ; Reset Extruder
G28 ; Home all axes
G1 Z2.0 F3000 ; Move Z Axis up little to prevent scratching of Heat Bed
G1 X0.1 Y20 Z0.3 F5000.0 ; Move to start position
G1 X0.1 Y200.0 Z0.3 F1500.0 E15 ; Draw the first line
G1 X0.4 Y200.0 Z0.3 F5000.0 ; Move to side a little
G1 X0.4 Y20 Z0.3 F1500.0 E30 ; Draw the second line
G92 E0 ; Reset Extruder
G1 Z2.0 F3000 ; Move Z Axis up little to prevent scratching of Heat Bed
G1 X5 Y20 Z0.3 F5000.0 ; Move over to prevent blob squish
G92 E0
G92 E0
G1 F1500 E-6.5
;LAYER_COUNT:450
;LAYER:-6
M107
G0 F9000 X54.655 Y53.814 Z0.24
;TYPE:SUPPORT-INTERFACE
G1 F1500 E0
G1 F1125 X54.812 Y53.658 E0.01767
G1 X55.508 Y53.012 E0.09347
G1 X55.647 Y52.893 E0.10807
G1 X56.338 Y52.339 E0.17877
G1 X56.477 Y52.235 E0.19263
G1 X57.192 Y51.743 E0.26191
G1 X57.376 Y51.626 E0.27932
G1 X58.132 Y51.183 E0.34926
G1 X58.274 Y51.106 E0.36216
G1 X59.106 Y50.697 E0.43616
G1 X59.219 Y50.647 E0.44602
G1 X60.069 Y50.304 E0.51919
G1 X60.242 Y50.242 E0.53386
G1 X61.08 Y49.973 E0.60411
G1 X61.244 Y49.927 E0.61771
G1 X62.116 Y49.715 E0.68935
G1 X62.278 Y49.682 E0.70254
G1 X63.171 Y49.534 E0.7748
G1 X63.348 Y49.511 E0.78905
G1 X64.242 Y49.428 E0.86072
G1 X64.384 Y49.421 E0.87206
G1 X65.125 Y49.4 E0.93124
G1 X72.708 Y49.401 E1.53655
G1 X73 Y49.411 E1.55987
G1 X73.328 Y49.412 E1.58605
G1 X73.769 Y49.4 E1.62127
G1 X146.248 Y49.401 E7.40685
G1 X146.625 Y49.414 E7.43697
G1 X147.048 Y49.412 E7.47073
G1 X147.376 Y49.4 E7.49693
G1 X154.886 Y49.401 E8.09641
G1 X155.887 Y49.437 E8.17637
G1 X156.01 Y49.446 E8.18621
G1 X156.927 Y49.548 E8.25986
G1 X157.102 Y49.573 E8.27397
G1 X157.991 Y49.737 E8.34613
G1 X158.114 Y49.765 E8.3562
G1 X159.008 Y49.999 E8.42997
G1 X159.171 Y50.048 E8.44356
G1 X160.013 Y50.334 E8.51454
G1 X160.179 Y50.398 E8.52874
G1 X160.982 Y50.739 E8.59838
G1 X161.171 Y50.827 E8.61502
G1 X161.965 Y51.235 E8.68628
G1 X162.082 Y51.302 E8.69705
G1 X162.861 Y51.776 E8.76983
G1 X163.012 Y51.876 E8.78429
G1 X163.726 Y52.387 E8.85438
G1 X163.874 Y52.5 E8.86924
G1 X164.566 Y53.077 E8.94116
G1 X164.674 Y53.173 E8.9527
G1 X165.186 Y53.655 E9.00883
G1 X165.342 Y53.812 E9.0265
G1 X165.988 Y54.508 E9.1023
G1 X166.107 Y54.647 E9.1169
G1 X166.661 Y55.338 E9.1876
G1 X166.765 Y55.477 E9.20146
G1 X167.257 Y56.192 E9.27074
G1 X167.374 Y56.376 E9.28815
G1 X167.814 Y57.125 E9.35749
G1 X167.887 Y57.259 E9.36967
G1 X168.292 Y58.082 E9.44289
G1 X168.353 Y58.219 E9.45486
G1 X168.695 Y59.064 E9.52763
G1 X168.754 Y59.23 E9.54169
G1 X169.025 Y60.072 E9.6123
G1 X169.072 Y60.238 E9.62607
G1 X169.283 Y61.107 E9.69745
G1 X169.317 Y61.27 E9.71074
G1 X169.465 Y62.162 E9.78292
G1 X169.489 Y62.348 E9.79789
G1 X169.57 Y63.232 E9.86875
G1 X169.579 Y63.384 E9.8809
G1 X169.6 Y64.117 E9.93944
G1 X169.6 Y66.869 E10.15912
G1 X169.564 Y67.875 E10.23947
G1 X169.554 Y68.01 E10.25028
G1 X169.452 Y68.927 E10.32393
G1 X169.427 Y69.102 E10.33804
G1 X169.265 Y69.98 E10.40931
G1 X169.235 Y70.114 E10.42027
G1 X169.004 Y70.999 E10.49328
G1 X168.952 Y71.171 E10.50762
G1 X168.666 Y72.013 E10.57861
G1 X168.602 Y72.179 E10.59281
G1 X168.261 Y72.982 E10.66245
G1 X168.18 Y73.157 E10.67784
G1 X167.776 Y73.943 E10.74838
G1 X167.698 Y74.082 E10.76111
G1 X167.224 Y74.861 E10.8339
G1 X167.124 Y75.012 E10.84835
G1 X166.613 Y75.726 E10.91844
G1 X166.5 Y75.874 E10.93331
G1 X165.923 Y76.566 E11.00523
G1 X165.827 Y76.674 E11.01676
G1 X165.345 Y77.186 E11.07289
G1 X165.188 Y77.342 E11.09056
G1 X164.503 Y77.978 E11.16517
G1 X164.355 Y78.105 E11.18074
G1 X163.662 Y78.661 E11.25166
G1 X163.523 Y78.765 E11.26552
G1 X162.808 Y79.257 E11.3348
G1 X162.624 Y79.374 E11.35221
G1 X161.868 Y79.817 E11.42215
G1 X161.726 Y79.894 E11.43505
G1 X160.898 Y80.301 E11.50869
G1 X160.781 Y80.353 E11.51891
G1 X159.926 Y80.698 E11.59251
G1 X159.763 Y80.756 E11.60632
G1 X158.92 Y81.027 E11.67701
G1 X158.756 Y81.073 E11.6906
G1 X157.884 Y81.285 E11.76224
G1 X157.722 Y81.318 E11.77543
G1 X156.829 Y81.466 E11.84769
G1 X156.652 Y81.489 E11.86194
G1 X155.758 Y81.572 E11.93361
G1 X155.616 Y81.579 E11.94495
G1 X154.875 Y81.6 E12.00413
G1 X147.292 Y81.599 E12.60944
G1 X147 Y81.589 E12.63276
G1 X146.672 Y81.588 E12.65894
G1 X146.231 Y81.6 E12.69416
G1 X73.753 Y81.599 E18.47966
G1 X73.376 Y81.586 E18.50978
G1 X72.953 Y81.588 E18.54354
G1 X72.625 Y81.6 E18.56974
G1 X65.114 Y81.599 E19.1693
G1 X64.113 Y81.563 E19.24926
G1 X63.99 Y81.554 E19.2591
G1 X63.073 Y81.452 E19.33275
G1 X62.898 Y81.427 E19.34686
G1 X62.009 Y81.263 E19.41903
G1 X61.886 Y81.235 E19.42909
G1 X60.992 Y81.001 E19.50286
G1 X60.829 Y80.952 E19.51645
G1 X59.987 Y80.666 E19.58743
G1 X59.821 Y80.602 E19.60163
G1 X59.018 Y80.261 E19.67127
G1 X58.829 Y80.173 E19.68791
G1 X58.035 Y79.765 E19.75917
G1 X57.918 Y79.698 E19.76994
G1 X57.139 Y79.224 E19.84273
G1 X56.988 Y79.124 E19.85718
G1 X56.274 Y78.613 E19.92727
G1 X56.126 Y78.5 E19.94213
G1 X55.434 Y77.923 E20.01405
G1 X55.326 Y77.827 E20.02559
G1 X54.814 Y77.345 E20.08172
G1 X54.654 Y77.184 E20.09984
G1 X54.01 Y76.49 E20.17541
G1 X53.893 Y76.353 E20.1898
G1 X53.343 Y75.667 E20.25998
G1 X53.227 Y75.511 E20.2755
G1 X52.743 Y74.808 E20.34363
G1 X52.626 Y74.624 E20.36104
G1 X52.183 Y73.868 E20.43098
G1 X52.106 Y73.726 E20.44387
G1 X51.697 Y72.894 E20.51788
G1 X51.647 Y72.781 E20.52774
G1 X51.298 Y71.917 E20.60213
G1 X51.242 Y71.759 E20.61551
G1 X50.97 Y70.911 E20.68659
G1 X50.928 Y70.761 E20.69903
G1 X50.712 Y69.873 E20.77198
G1 X50.683 Y69.73 E20.78363
G1 X50.533 Y68.824 E20.85693
G1 X50.511 Y68.652 E20.87077
G1 X50.428 Y67.753 E20.94284
G1 X50.421 Y67.616 E20.95379
G1 X50.4 Y66.883 E21.01233
G1 X50.4 Y64.131 E21.232
G1 X50.436 Y63.125 E21.31236
G1 X50.446 Y62.99 E21.32316
G1 X50.547 Y62.075 E21.39665
G1 X50.573 Y61.9 E21.41077
G1 X50.735 Y61.02 E21.48219
G1 X50.765 Y60.886 E21.49316
G1 X50.996 Y60 E21.56624
G1 X51.048 Y59.829 E21.58051
G1 X51.334 Y58.987 E21.6515
G1 X51.398 Y58.821 E21.6657
G1 X51.739 Y58.018 E21.73534
G1 X51.82 Y57.843 E21.75073
G1 X52.235 Y57.035 E21.82324
G1 X52.302 Y56.918 E21.834
G1 X52.776 Y56.139 E21.90679
G1 X52.876 Y55.988 E21.92125
G1 X53.392 Y55.267 E21.99202
G1 X53.5 Y55.126 E22.0062
G1 X54.077 Y54.434 E22.07812
G1 X54.173 Y54.326 E22.08965
G1 X54.655 Y53.814 E22.14578
G0 F9000 X54.4 Y54.084
G1 F1125 X54.4 Y76.91 E23.96785
G0 F9000 X56 Y78.394
G1 F1125 X56 Y52.609 E26.02612
G0 F9000 X57.6 Y51.494
G1 F1125 X57.6 Y79.504 E28.262
G0 F9000 X59.2 Y80.338
G1 F1125 X59.2 Y50.655 E30.63143
G0 F9000 X60.8 Y50.062
G1 F1125 X60.8 Y80.942 E33.0964
G0 F9000 X62.4 Y81.335
G1 F1125 X62.4 Y49.661 E35.62476
G0 F9000 X64 Y49.45
G1 F1125 X64 Y81.554 E38.18744
G0 F9000 X65.6 Y81.599
G1 F1125 X65.6 Y49.401 E40.75762
G0 F9000 X67.2 Y49.401
G1 F1125 X67.2 Y81.599 E43.32781
G0 F9000 X68.8 Y81.599
G1 F1125 X68.8 Y49.401 E45.89799
G0 F9000 X70.4 Y49.401
G1 F1125 X70.4 Y81.599 E48.46817
G0 F9000 X72 Y81.599
G1 F1125 X72 Y49.401 E51.03836
G0 F9000 X73.6 Y49.404
G1 F1125 X73.6 Y81.593 E53.60782
G0 F9000 X75.2 Y81.599
G1 F1125 X75.2 Y49.401 E56.17801
G0 F9000 X76.8 Y49.401
G1 F1125 X76.8 Y81.599 E58.74819
G0 F9000 X78.4 Y81.599
G1 F1125 X78.4 Y49.401 E61.31837
G0 F9000 X80 Y49.401
G1 F1125 X80 Y81.599 E63.88856
G0 F9000 X81.6 Y81.599
G1 F1125 X81.6 Y49.401 E66.45874
G0 F9000 X83.2 Y49.401
G1 F1125 X83.2 Y81.599 E69.02893
G0 F9000 X84.8 Y81.599
G1 F1125 X84.8 Y49.401 E71.59911
G0 F9000 X86.4 Y49.401
G1 F1125 X86.4 Y81.599 E74.16929
G0 F9000 X88 Y81.599
G1 F1125 X88 Y49.401 E76.73948
G0 F9000 X89.6 Y49.401
G1 F1125 X89.6 Y81.599 E79.30966
G0 F9000 X91.2 Y81.599
G1 F1125 X91.2 Y49.401 E81.87984
G0 F9000 X92.8 Y49.401
G1 F1125 X92.8 Y81.599 E84.45003
G0 F9000 X94.4 Y81.599
G1 F1125 X94.4 Y49.401 E87.02021
G0 F9000 X96 Y49.401
G1 F1125 X96 Y81.599 E89.59039
G0 F9000 X97.6 Y81.599
G1 F1125 X97.6 Y49.401 E92.16058
G0 F9000 X99.2 Y49.401
G1 F1125 X99.2 Y81.599 E94.73076
G0 F9000 X100.8 Y81.599
G1 F1125 X100.8 Y49.401 E97.30094
G0 F9000 X102.4 Y49.401
G1 F1125 X102.4 Y81.599 E99.87113
G0 F9000 X104 Y81.599
G1 F1125 X104 Y49.401 E102.44131
G0 F9000 X105.6 Y49.401
G1 F1125 X105.6 Y81.599 E105.0115
G0 F9000 X107.2 Y81.599
G1 F1125 X107.2 Y49.401 E107.58168
G0 F9000 X108.8 Y49.401
G1 F1125 X108.8 Y81.599 E110.15186
G0 F9000 X110.4 Y81.599
G1 F1125 X110.4 Y49.401 E112.72205
G0 F9000 X112 Y49.401
G1 F1125 X112 Y81.599 E115.29223
G0 F9000 X113.6 Y81.599
G1 F1125 X113.6 Y49.401 E117.86241
G0 F9000 X115.2 Y49.401
G1 F1125 X115.2 Y81.599 E120.4326
G0 F9000 X116.8 Y81.599
G1 F1125 X116.8 Y49.401 E123.00278
G0 F9000 X118.4 Y49.401
G1 F1125 X118.4 Y81.599 E125.57296
G0 F9000 X120 Y81.599
G1 F1125 X120 Y49.401 E128.14315
G0 F9000 X121.6 Y49.401
G1 F1125 X121.6 Y81.599 E130.71333
G0 F9000 X123.2 Y81.599
G1 F1125 X123.2 Y49.401 E133.28351
G0 F9000 X124.8 Y49.401
G1 F1125 X124.8 Y81.599 E135.8537
G0 F9000 X126.4 Y81.599
G1 F1125 X126.4 Y49.401 E138.42388
G0 F9000 X128 Y49.401
G1 F1125 X128 Y81.599 E140.99407
G0 F9000 X129.6 Y81.599
G1 F1125 X129.6 Y49.401 E143.56425
G0 F9000 X131.2 Y49.401
G1 F1125 X131.2 Y81.599 E146.13443
G0 F9000 X132.8 Y81.599
G1 F1125 X132.8 Y49.401 E148.70462
G0 F9000 X134.4 Y49.401
G1 F1125 X134.4 Y81.599 E151.2748
G0 F9000 X136 Y81.599
G1 F1125 X136 Y49.401 E153.84498
G0 F9000 X137.6 Y49.401
G1 F1125 X137.6 Y81.599 E156.41517
G0 F9000 X139.2 Y81.599
G1 F1125 X139.2 Y49.401 E158.98535
G0 F9000 X140.8 Y49.401
G1 F1125 X140.8 Y81.599 E161.55553
G0 F9000 X142.4 Y81.599
G1 F1125 X142.4 Y49.401 E164.12572
G0 F9000 X144 Y49.401
G1 F1125 X144 Y81.599 E166.6959
G0 F9000 X145.6 Y81.599
G1 F1125 X145.6 Y49.401 E169.26609
G0 F9000 X147.2 Y49.406
G1 F1125 X147.2 Y81.595 E171.83555
G0 F9000 X148.8 Y81.599
G1 F1125 X148.8 Y49.401 E174.40573
G0 F9000 X150.4 Y49.401
G1 F1125 X150.4 Y81.599 E176.97592
G0 F9000 X152 Y81.599
G1 F1125 X152 Y49.401 E179.5461
G0 F9000 X153.6 Y49.401
G1 F1125 X153.6 Y81.599 E182.11628
G0 F9000 X155.2 Y81.591
G1 F1125 X155.2 Y49.413 E184.68487
G0 F9000 X156.8 Y49.534
G1 F1125 X156.8 Y81.47 E187.23414
G0 F9000 X158.4 Y81.16
G1 F1125 X158.4 Y49.84 E189.73424
G0 F9000 X160 Y50.33
G1 F1125 X160 Y80.669 E192.15603
G0 F9000 X161.6 Y79.956
G1 F1125 X161.6 Y51.048 E194.46359
G0 F9000 X163.2 Y52.011
G1 F1125 X163.2 Y78.988 E196.61701
G0 F9000 X164.8 Y77.703
G1 F1125 X164.8 Y53.292 E198.5656
G0 F9000 X166.4 Y55.013
G1 F1125 X166.4 Y75.994 E200.2404
G0 F9000 X168 Y73.508
G1 F1125 X168 Y57.489 E201.5191
G1 F1500 E195.0191
G0 F9000 X168.836 Y56.778
G0 X168.149 Y55.61
G0 X166.922 Y53.963
G0 X165.398 Y52.392
G0 X164.364 Y51.534
G0 X162.626 Y50.387
G0 X161.421 Y49.769
G0 X159.503 Y49.036
G0 X158.199 Y48.694
G0 X156.114 Y48.387
G0 X154.87 Y48.336
G0 X64.161 Y48.368
G0 X62.084 Y48.634
G0 X60.775 Y48.953
G0 X58.81 Y49.665
G0 X57.615 Y50.253
G0 X55.863 Y51.366
G0 X54.806 Y52.212
G0 X53.274 Y53.734
G0 X52.004 Y55.378
G0 X52.8 Y56.102
G1 F1500 E201.5191
G1 F1125 X52.8 Y74.89 E203.01884
G0 F9000 X51.2 Y71.628
G1 F1125 X51.2 Y59.381 E203.99645
G1 F1500 E197.49645
G0 F300 X51.2 Y59.381 Z0.54
G0 F9000 X50.331 Y58.632
G0 X50.868 Y57.368
G0 X51.874 Y55.574
G0 X52.663 Y54.469
G0 X54.085 Y52.881
G0 X55.681 Y51.502
G0 X56.475 Y52.234
;TIME_ELAPSED:152.267064
;LAYER:-5
;TYPE:SUPPORT
G1 F1500 E203.99645
G1 F1125 X56.337 Y52.339 E204.01375
G1 X55.688 Y52.859 E204.09673
G1 X84.426 Y81.598 E208.15205
G1 X83.012 Y81.598 E208.29314
G1 X54.946 Y53.532 E212.25355
G1 X54.811 Y53.657 E212.27191
G1 X54.654 Y53.814 E212.29406
G1 X54.246 Y54.246 E212.35335
G1 X81.598 Y81.598 E216.21302
G1 X80.183 Y81.598 E216.35421
G1 X53.595 Y55.01 E220.10606
G1 X53.5 Y55.125 E220.12094
G1 X53.392 Y55.266 E220.13867
G1 X52.993 Y55.821 E220.20687
G1 X78.769 Y81.598 E223.84421
G1 X77.355 Y81.598 E223.9853
G1 X52.442 Y56.685 E227.5008
G1 X52.301 Y56.917 E227.52788
G1 X52.234 Y57.034 E227.54134
G1 X51.943 Y57.6 E227.60484
G1 X75.941 Y81.598 E230.99122
G1 X74.526 Y81.598 E231.13241
G1 X51.502 Y58.573 E234.38141
G1 X51.398 Y58.819 E234.40806
G1 X51.333 Y58.986 E234.42594
G1 X51.122 Y59.607 E234.49139
G1 X73.1 Y81.585 E237.59272
G1 X72.952 Y81.586 E237.60749
G1 X72.624 Y81.599 E237.64024
G1 X71.699 Y81.598 E237.73254
G1 X50.81 Y60.71 E240.68013
G1 X50.765 Y60.885 E240.69816
G1 X50.734 Y61.019 E240.71188
G1 X50.574 Y61.888 E240.80005
G1 X70.284 Y81.598 E243.58134
G1 X68.87 Y81.598 E243.72243
G1 X50.434 Y63.162 E246.32395
G1 X50.399 Y64.13 E246.4206
G1 X50.399 Y64.541 E246.46161
G1 X67.455 Y81.598 E248.86847
G1 X66.041 Y81.598 E249.00956
G1 X50.399 Y65.956 E251.21681
G1 X50.399 Y66.882 E251.30921
G1 X50.413 Y67.384 E251.35932
G1 X64.609 Y81.579 E253.36246
G1 X64.112 Y81.562 E253.41208
G1 X63.99 Y81.553 E253.42428
G1 X63.073 Y81.45 E253.51636
G1 X63.064 Y81.449 E253.51726
G1 X50.551 Y68.936 E255.28298
G1 X50.682 Y69.729 E255.36318
G1 X50.712 Y69.872 E255.37776
G1 X50.916 Y70.715 E255.4643
G1 X61.275 Y81.074 E256.92607
G1 X60.992 Y81 E256.95526
G1 X60.828 Y80.951 E256.97233
G1 X59.986 Y80.665 E257.06106
G1 X59.821 Y80.601 E257.07872
G1 X59.068 Y80.282 E257.16032
G1 X59.017 Y80.26 E257.16586
G1 X58.829 Y80.172 E257.18658
G1 X58.035 Y79.764 E257.27565
G1 X57.918 Y79.697 E257.2891
G1 X57.139 Y79.223 E257.38009
G1 X56.987 Y79.123 E257.39824
G1 X56.273 Y78.612 E257.48585
G1 X56.125 Y78.498 E257.50449
G1 X55.433 Y77.922 E257.59433
G1 X55.326 Y77.826 E257.60867
G1 X54.814 Y77.344 E257.67884
G1 X54.653 Y77.183 E257.70156
G1 X54.01 Y76.489 E257.79596
G1 X53.892 Y76.351 E257.81408
G1 X53.342 Y75.666 E257.90173
G1 X53.226 Y75.51 E257.92113
G1 X52.743 Y74.807 E258.00623
G1 X52.626 Y74.623 E258.02799
G1 X52.183 Y73.867 E258.11542
G1 X52.105 Y73.725 E258.13159
G0 F9000 X51.713 Y72.926
G1 F1125 X59.068 Y80.282 E259.16953
G1 F1500 E252.66953
G0 F9000 X58.368 Y81.132
G0 X56.574 Y80.126
G0 X55.469 Y79.338
G0 X53.881 Y77.915
G0 X52.496 Y76.312
G0 X51.72 Y75.185
G0 X50.736 Y73.351
G0 X50.236 Y72.105
G0 X49.674 Y70.112
G0 X49.454 Y68.776
G0 X49.336 Y66.892
G0 X49.387 Y62.886
G0 X49.694 Y60.801
G0 X50.036 Y59.496
G0 X50.769 Y57.579
G0 X51.387 Y56.374
G0 X52.54 Y54.629
G0 X53.94 Y53.024
G0 X54.229 Y52.757
G0 X55.681 Y51.502
G0 X56.477 Y52.234
G1 F1500 E259.16953
G1 F1125 X85.84 Y81.598 E263.31304
G1 X87.254 Y81.598 E263.45412
G1 X57.319 Y51.662 E267.67835
G1 X57.375 Y51.626 E267.68499
G1 X58.131 Y51.183 E267.77242
G1 X58.211 Y51.14 E267.78148
G1 X88.669 Y81.598 E272.07944
G1 X90.083 Y81.598 E272.22053
G1 X59.158 Y50.673 E276.58438
G1 X59.218 Y50.646 E276.59094
G1 X60.068 Y50.304 E276.68236
G1 X60.167 Y50.268 E276.69287
G1 X91.497 Y81.598 E281.11388
G1 X92.911 Y81.598 E281.25497
G1 X61.241 Y49.927 E285.72402
G0 F9000 X61.243 Y49.926
G1 F1125 X62.115 Y49.715 E285.81353
G1 X62.277 Y49.682 E285.83003
G1 X62.391 Y49.663 E285.84156
G1 X94.325 Y81.598 E290.34787
G1 X95.74 Y81.598 E290.48906
G1 X63.627 Y49.485 E295.02055
G1 X64.241 Y49.427 E295.08208
G1 X64.383 Y49.421 E295.09627
G1 X64.961 Y49.404 E295.15396
G1 X97.154 Y81.598 E299.69681
G1 X98.568 Y81.598 E299.8379
G1 X66.371 Y49.4 E304.38132
G1 X67.785 Y49.4 E304.52241
G1 X99.982 Y81.598 E309.06582
G1 X101.396 Y81.598 E309.20691
G1 X69.2 Y49.401 E313.75019
G1 X70.614 Y49.401 E313.89128
G1 X102.811 Y81.598 E318.43462
G1 X104.225 Y81.598 E318.57571
G1 X72.028 Y49.401 E323.11905
G1 X72.707 Y49.401 E323.18681
G1 X72.998 Y49.411 E323.21586
G1 X73.327 Y49.411 E323.24869
G1 X73.45 Y49.409 E323.26096
G1 X105.639 Y81.598 E327.80318
G1 X107.053 Y81.598 E327.94427
G1 X74.856 Y49.4 E332.48768
G1 X76.27 Y49.4 E332.62877
G1 X108.468 Y81.598 E337.17226
G1 X109.882 Y81.598 E337.31335
G1 X77.684 Y49.4 E341.85683
G1 X79.099 Y49.4 E341.99802
G1 X111.297 Y81.598 E346.54151
G1 X112.711 Y81.598 E346.6826
G1 X80.513 Y49.4 E351.22608
G1 X81.927 Y49.4 E351.36717
G1 X114.125 Y81.598 E355.91066
G1 X115.539 Y81.598 E356.05175
G1 X83.341 Y49.4 E360.59523
G1 X84.755 Y49.4 E360.73632
G1 X116.954 Y81.598 E365.27988
G1 X118.368 Y81.598 E365.42097
G1 X86.17 Y49.4 E369.96445
G1 X87.584 Y49.4 E370.10554
G1 X119.782 Y81.598 E374.64903
G1 X121.196 Y81.598 E374.79012
