;FLAVOR:Marlin
;TIME:6651
;Filament used: 5.38667m
;Layer height: 0.2
;MINX:68.95
;MINY:68.95
;MINZ:0.2
;MAXX:151.05
;MAXY:151.05
;MAXZ:3
;Generated with Cura_SteamEngine 4.9.1
M140 S60
M105
M190 S60
M104 S200
M105
M109 S200
M82 ;absolute extrusion mode
; Ender 3 Custom Start G-code
G92 E0 ; Reset Extruder
G28 ; Home all axes
G1 Z2.0 F3000 ; Move Z Axis up little to prevent scratching of Heat Bed
G1 X0.1 Y20 Z0.3 F5000.0 ; Move to start position
G1 X0.1 Y200.0 Z0.3 F1500.0 E15 ; Draw the first line
G1 X0.4 Y200.0 Z0.3 F5000.0 ; Move to side a little
G1 X0.4 Y20 Z0.3 F1500.0 E30 ; Draw the second line
G92 E0 ; Reset Extruder
G1 Z2.0 F3000 ; Move Z Axis up little to prevent scratching of Heat Bed
G1 X5 Y20 Z0.3 F5000.0 ; Move over to prevent blob squish
G92 E0
G92 E0
G1 F1500 E-6.5
;LAYER_COUNT:15
;LAYER:0
M107
;MESH:Level2.stl
G0 F6000 X144.236 Y150.65 Z0.2
;TYPE:WALL-INNER
G1 F1500 E0
G1 F1200 X75.764 Y150.65 E2.27739
G1 X74.842 Y150.584 E2.30813
G1 X73.948 Y150.389 E2.33857
G1 X73.095 Y150.071 E2.36884
G1 X72.288 Y149.63 E2.39943
G1 X71.558 Y149.084 E2.42975
G1 X70.916 Y148.442 E2.45995
G1 X70.37 Y147.712 E2.49027
G1 X69.929 Y146.905 E2.52086
G1 X69.611 Y146.052 E2.55113
G1 X69.416 Y145.158 E2.58157
G1 X69.35 Y144.236 E2.61231
G1 X69.35 Y75.764 E4.8897
G1 X69.416 Y74.842 E4.92044
G1 X69.611 Y73.948 E4.95088
G1 X69.929 Y73.095 E4.98116
G1 X70.37 Y72.288 E5.01174
G1 X70.916 Y71.558 E5.04206
G1 X71.558 Y70.916 E5.07226
G1 X72.288 Y70.37 E5.10258
G1 X73.095 Y69.929 E5.13317
G1 X73.948 Y69.611 E5.16345
G1 X74.842 Y69.416 E5.19388
G1 X75.764 Y69.35 E5.22463
G1 X105.15 Y69.35 E6.20201
G1 X105.15 Y73.85 E6.35168
G1 X116.35 Y73.85 E6.72419
G1 X116.35 Y69.35 E6.87386
G1 X144.236 Y69.35 E7.80135
G1 X145.158 Y69.416 E7.8321
G1 X146.052 Y69.611 E7.86253
G1 X146.905 Y69.929 E7.89281
G1 X147.712 Y70.37 E7.9234
G1 X148.442 Y70.916 E7.95372
G1 X149.084 Y71.558 E7.98392
G1 X149.63 Y72.288 E8.01424
G1 X150.071 Y73.095 E8.04482
G1 X150.389 Y73.948 E8.0751
G1 X150.584 Y74.842 E8.10553
G1 X150.65 Y75.764 E8.13628
G1 X150.65 Y144.236 E10.41367
G1 X150.584 Y145.158 E10.44441
G1 X150.389 Y146.052 E10.47484
G1 X150.071 Y146.905 E10.50512
G1 X149.63 Y147.712 E10.53571
G1 X149.084 Y148.442 E10.56603
G1 X148.442 Y149.084 E10.59623
G1 X147.712 Y149.63 E10.62655
G1 X146.905 Y150.071 E10.65714
G1 X146.052 Y150.389 E10.68741
G1 X145.158 Y150.584 E10.71785
G1 X144.236 Y150.65 E10.74859
G0 F6000 X144.25 Y151.05
;TYPE:WALL-OUTER
G1 F1200 X75.75 Y151.05 E13.02691
G1 X74.784 Y150.981 E13.05912
G1 X73.834 Y150.774 E13.09146
G1 X72.93 Y150.437 E13.12355
G1 X72.072 Y149.968 E13.15607
G1 X71.294 Y149.386 E13.18839
G1 X70.614 Y148.706 E13.22037
G1 X70.032 Y147.928 E13.25269
G1 X69.563 Y147.07 E13.28521
G1 X69.226 Y146.166 E13.3173
G1 X69.019 Y145.216 E13.34964
G1 X68.95 Y144.25 E13.38185
G1 X68.95 Y75.75 E15.66017
G1 X69.019 Y74.784 E15.69238
G1 X69.226 Y73.834 E15.72472
G1 X69.563 Y72.93 E15.75681
G1 X70.032 Y72.072 E15.78933
G1 X70.614 Y71.294 E15.82164
G1 X71.294 Y70.614 E15.85363
G1 X72.072 Y70.032 E15.88594
G1 X72.93 Y69.563 E15.91847
G1 X73.834 Y69.226 E15.95055
G1 X74.784 Y69.019 E15.98289
G1 X75.75 Y68.95 E16.0151
G1 X105.55 Y68.95 E17.00626
G1 X105.55 Y73.45 E17.15593
G1 X115.95 Y73.45 E17.50183
G1 X115.95 Y68.95 E17.6515
G1 X144.25 Y68.95 E18.59276
G1 X145.216 Y69.019 E18.62498
G1 X146.166 Y69.226 E18.65731
G1 X147.07 Y69.563 E18.6894
G1 X147.928 Y70.032 E18.72193
G1 X148.706 Y70.614 E18.75424
G1 X149.386 Y71.294 E18.78623
G1 X149.968 Y72.072 E18.81854
G1 X150.437 Y72.93 E18.85106
G1 X150.774 Y73.834 E18.88315
G1 X150.981 Y74.784 E18.91549
G1 X151.05 Y75.75 E18.9477
G1 X151.05 Y144.25 E21.22602
G1 X150.981 Y145.216 E21.25823
G1 X150.774 Y146.166 E21.29057
G1 X150.437 Y147.07 E21.32266
G1 X149.968 Y147.928 E21.35518
G1 X149.386 Y148.706 E21.3875
G1 X148.706 Y149.386 E21.41948
G1 X147.928 Y149.968 E21.4518
G1 X147.07 Y150.437 E21.48432
G1 X146.166 Y150.774 E21.51641
G1 X145.216 Y150.981 E21.54875
G1 X144.25 Y151.05 E21.58096
G0 F6000 X144.235 Y150.611
G0 X144.222 Y150.26
;TYPE:SKIN
G1 F1200 X75.778 Y150.26 E23.85741
G1 X74.897 Y150.197 E23.88679
G1 X74.055 Y150.013 E23.91546
G1 X73.264 Y149.719 E23.94353
G1 X72.496 Y149.298 E23.97265
G1 X71.808 Y148.784 E24.00122
G1 X71.216 Y148.192 E24.02906
G1 X70.702 Y147.504 E24.05763
G1 X70.281 Y146.736 E24.08676
G1 X69.987 Y145.945 E24.11483
G1 X69.803 Y145.103 E24.14349
G1 X69.74 Y144.222 E24.17287
G1 X69.74 Y75.778 E26.44933
G1 X69.803 Y74.897 E26.4787
G1 X69.987 Y74.055 E26.50737
G1 X70.281 Y73.264 E26.53544
G1 X70.702 Y72.496 E26.56457
G1 X71.216 Y71.808 E26.59313
G1 X71.808 Y71.216 E26.62098
G1 X72.496 Y70.702 E26.64954
G1 X73.264 Y70.281 E26.67867
G1 X74.055 Y69.987 E26.70674
G1 X74.897 Y69.803 E26.7354
G1 X75.778 Y69.74 E26.76478
G1 X104.76 Y69.74 E27.72872
G1 X104.76 Y74.24 E27.8784
G1 X116.74 Y74.24 E28.27685
G1 X116.74 Y69.74 E28.42652
G1 X144.222 Y69.74 E29.34058
G1 X145.103 Y69.803 E29.36995
G1 X145.945 Y69.987 E29.39862
G1 X146.736 Y70.281 E29.42669
G1 X147.504 Y70.702 E29.45582
G1 X148.192 Y71.216 E29.48438
G1 X148.784 Y71.808 E29.51223
G1 X149.298 Y72.496 E29.54079
G1 X149.719 Y73.264 E29.56992
G1 X150.013 Y74.055 E29.59799
G1 X150.197 Y74.897 E29.62665
G1 X150.26 Y75.778 E29.65603
G1 X150.26 Y144.222 E31.93249
G1 X150.197 Y145.103 E31.96186
G1 X150.013 Y145.945 E31.99053
G1 X149.719 Y146.736 E32.0186
G1 X149.298 Y147.504 E32.04773
G1 X148.784 Y148.192 E32.07629
G1 X148.192 Y148.784 E32.10414
G1 X147.504 Y149.298 E32.1327
G1 X146.736 Y149.719 E32.16183
G1 X145.945 Y150.013 E32.1899
G1 X145.103 Y150.197 E32.21856
G1 X144.222 Y150.26 E32.24794
G1 F1500 E25.74794
G0 F6000 X144.222 Y150.54
G0 X75.764 Y150.479
G0 X74.869 Y150.415
G0 X74.377 Y150.308
G0 X72.84 Y149.806
G0 X73.052 Y149.42
G1 F1500 E32.24794
G1 F1200 X70.578 Y146.945 E32.36433
G0 F6000 X70.192 Y147.156
G0 X69.755 Y146.12
G0 X70.166 Y145.968
G1 F1200 X74.029 Y149.831 E32.54604
G0 F6000 X74.768 Y150.004
G1 F1200 X69.994 Y145.23 E32.77059
G0 F6000 X69.926 Y144.596
G1 F1200 X75.401 Y150.072 E33.02814
G0 F6000 X75.994 Y150.098
G1 F1200 X69.899 Y144.004 E33.31481
G0 F6000 X69.899 Y143.438
G1 F1200 X76.559 Y150.098 E33.62808
G0 F6000 X77.125 Y150.098
G1 F1200 X69.899 Y142.873 E33.96794
G0 F6000 X69.899 Y142.307
G1 F1200 X77.691 Y150.098 E34.33443
G0 F6000 X78.256 Y150.098
G1 F1200 X69.899 Y141.741 E34.72752
G0 F6000 X69.899 Y141.175
G1 F1200 X78.822 Y150.098 E35.14723
G0 F6000 X79.388 Y150.098
G1 F1200 X69.899 Y140.61 E35.59354
G0 F6000 X69.899 Y140.044
G1 F1200 X79.953 Y150.098 E36.06645
G0 F6000 X80.519 Y150.098
G1 F1200 X69.899 Y139.478 E36.56598
G0 F6000 X69.899 Y138.913
G1 F1200 X81.085 Y150.098 E37.09211
G0 F6000 X81.651 Y150.098
G1 F1200 X69.899 Y138.347 E37.64487
G0 F6000 X69.899 Y137.781
G1 F1200 X82.216 Y150.098 E38.22422
G0 F6000 X82.782 Y150.098
G1 F1200 X69.899 Y137.216 E38.83017
G0 F6000 X69.899 Y136.65
G1 F1200 X83.348 Y150.098 E39.46275
G0 F6000 X83.913 Y150.098
G1 F1200 X69.899 Y136.084 E40.12192
G0 F6000 X69.899 Y135.519
G1 F1200 X84.479 Y150.098 E40.8077
G0 F6000 X85.045 Y150.098
G1 F1200 X69.899 Y134.953 E41.5201
G0 F6000 X69.899 Y134.387
G1 F1200 X85.61 Y150.098 E42.25909
G0 F6000 X86.176 Y150.098
G1 F1200 X69.899 Y133.822 E43.02469
G0 F6000 X69.899 Y133.256
G1 F1200 X86.742 Y150.098 E43.81691
G0 F6000 X87.307 Y150.098
G1 F1200 X69.899 Y132.69 E44.63573
G0 F6000 X69.899 Y132.125
G1 F1200 X87.873 Y150.098 E45.48115
G0 F6000 X88.439 Y150.098
G1 F1200 X69.899 Y131.559 E46.35319
G0 F6000 X69.899 Y130.993
G1 F1200 X89.004 Y150.098 E47.25183
G0 F6000 X89.57 Y150.098
G1 F1200 X69.899 Y130.427 E48.17709
G0 F6000 X69.899 Y129.862
G1 F1200 X90.136 Y150.098 E49.12896
G0 F6000 X90.702 Y150.098
G1 F1200 X69.899 Y129.296 E50.10744
G0 F6000 X69.899 Y128.73
G1 F1200 X91.267 Y150.098 E51.11253
G0 F6000 X91.833 Y150.098
G1 F1200 X69.899 Y128.165 E52.14421
G0 F6000 X69.899 Y127.599
G1 F1200 X92.399 Y150.098 E53.20252
G0 F6000 X92.964 Y150.098
G1 F1200 X69.899 Y127.033 E54.28743
G0 F6000 X69.899 Y126.468
G1 F1200 X93.53 Y150.098 E55.39893
G0 F6000 X94.096 Y150.098
G1 F1200 X69.899 Y125.902 E56.53706
G0 F6000 X69.899 Y125.336
G1 F1200 X94.661 Y150.098 E57.70179
G0 F6000 X95.227 Y150.098
G1 F1200 X69.899 Y124.771 E58.89312
G0 F6000 X69.899 Y124.205
G1 F1200 X95.793 Y150.098 E60.11107
G0 F6000 X96.358 Y150.098
G1 F1200 X69.899 Y123.639 E61.35562
G0 F6000 X69.899 Y123.074
G1 F1200 X96.924 Y150.098 E62.62677
G0 F6000 X97.49 Y150.098
G1 F1200 X69.899 Y122.508 E63.92454
G0 F6000 X69.899 Y121.942
G1 F1200 X98.055 Y150.098 E65.24891
G0 F6000 X98.621 Y150.098
G1 F1200 X69.899 Y121.377 E66.59988
G0 F6000 X69.899 Y120.811
G1 F1200 X99.187 Y150.098 E67.97748
G0 F6000 X99.752 Y150.098
G1 F1200 X69.899 Y120.245 E69.38167
G0 F6000 X69.899 Y119.679
G1 F1200 X100.318 Y150.098 E70.81249
G0 F6000 X100.884 Y150.098
G1 F1200 X69.899 Y119.114 E72.2699
G0 F6000 X69.899 Y118.548
G1 F1200 X101.45 Y150.098 E73.75394
G0 F6000 X102.015 Y150.098
G1 F1200 X69.899 Y117.982 E75.26458
G0 F6000 X69.899 Y117.417
G1 F1200 X102.581 Y150.098 E76.80182
G0 F6000 X103.147 Y150.098
G1 F1200 X69.899 Y116.851 E78.36568
G0 F6000 X69.899 Y116.285
G1 F1200 X103.712 Y150.098 E79.95614
G0 F6000 X104.278 Y150.098
G1 F1200 X69.899 Y115.72 E81.5732
G0 F6000 X69.899 Y115.154
G1 F1200 X104.844 Y150.098 E83.21688
G0 F6000 X105.409 Y150.098
G1 F1200 X69.899 Y114.588 E84.88716
G0 F6000 X69.899 Y114.023
G1 F1200 X105.975 Y150.098 E86.58404
G0 F6000 X106.541 Y150.098
G1 F1200 X69.899 Y113.457 E88.30755
G0 F6000 X69.899 Y112.891
G1 F1200 X107.106 Y150.098 E90.05765
G0 F6000 X107.672 Y150.098
G1 F1200 X69.899 Y112.326 E91.83435
G0 F6000 X69.899 Y111.76
G1 F1200 X108.238 Y150.098 E93.63768
G0 F6000 X108.803 Y150.098
G1 F1200 X69.899 Y111.194 E95.4676
G0 F6000 X69.899 Y110.628
G1 F1200 X109.369 Y150.098 E97.32415
G0 F6000 X109.935 Y150.098
G1 F1200 X69.899 Y110.063 E99.2073
G0 F6000 X69.899 Y109.497
G1 F1200 X110.5 Y150.098 E101.11704
G0 F6000 X111.066 Y150.098
G1 F1200 X69.899 Y108.931 E103.05341
G0 F6000 X69.899 Y108.366
G1 F1200 X111.632 Y150.098 E105.01638
G0 F6000 X112.198 Y150.098
G1 F1200 X69.899 Y107.8 E107.00598
G0 F6000 X69.899 Y107.234
G1 F1200 X112.763 Y150.098 E109.02217
G0 F6000 X113.329 Y150.098
G1 F1200 X69.899 Y106.669 E111.06496
G0 F6000 X69.899 Y106.103
G1 F1200 X113.895 Y150.098 E113.13437
G0 F6000 X114.46 Y150.098
G1 F1200 X69.899 Y105.537 E115.23038
G0 F6000 X69.899 Y104.972
G1 F1200 X115.026 Y150.098 E117.353
G0 F6000 X115.592 Y150.098
G1 F1200 X69.899 Y104.406 E119.50223
G0 F6000 X69.899 Y103.84
G1 F1200 X116.157 Y150.098 E121.67806
G0 F6000 X116.723 Y150.098
G1 F1200 X69.899 Y103.275 E123.8805
G0 F6000 X69.899 Y102.709
G1 F1200 X117.289 Y150.098 E126.10956
G0 F6000 X117.854 Y150.098
G1 F1200 X69.899 Y102.143 E128.36521
G0 F6000 X69.899 Y101.578
G1 F1200 X118.42 Y150.098 E130.64747
G0 F6000 X118.986 Y150.098
G1 F1200 X69.899 Y101.012 E132.95635
G0 F6000 X69.899 Y100.446
G1 F1200 X119.551 Y150.098 E135.29182
G0 F6000 X120.117 Y150.098
G1 F1200 X69.899 Y99.88 E137.65392
G0 F6000 X69.899 Y99.315
G1 F1200 X120.683 Y150.098 E140.04262
G0 F6000 X121.249 Y150.098
G1 F1200 X69.899 Y98.749 E142.45795
G0 F6000 X69.899 Y98.183
G1 F1200 X121.814 Y150.098 E144.89987
G0 F6000 X122.38 Y150.098
G1 F1200 X69.899 Y97.618 E147.36839
G0 F6000 X69.899 Y97.052
G1 F1200 X122.946 Y150.098 E149.86354
G0 F6000 X123.511 Y150.098
G1 F1200 X69.899 Y96.486 E152.38528
G0 F6000 X69.899 Y95.921
G1 F1200 X124.077 Y150.098 E154.93362
G0 F6000 X124.643 Y150.098
G1 F1200 X69.899 Y95.355 E157.50859
G0 F6000 X69.899 Y94.789
G1 F1200 X125.208 Y150.098 E160.11016
G0 F6000 X125.774 Y150.098
G1 F1200 X69.899 Y94.224 E162.73832
G0 F6000 X69.899 Y93.658
G1 F1200 X126.34 Y150.098 E165.39311
G0 F6000 X126.905 Y150.098
G1 F1200 X69.899 Y93.092 E168.0745
G0 F6000 X69.899 Y92.527
G1 F1200 X127.471 Y150.098 E170.78248
G0 F6000 X128.037 Y150.098
G1 F1200 X69.899 Y91.961 E173.51709
G0 F6000 X69.899 Y91.395
G1 F1200 X128.602 Y150.098 E176.2783
G0 F6000 X129.168 Y150.098
G1 F1200 X69.899 Y90.829 E179.06613
G0 F6000 X69.899 Y90.264
G1 F1200 X129.734 Y150.098 E181.88057
G0 F6000 X130.299 Y150.098
G1 F1200 X69.899 Y89.698 E184.7216
G0 F6000 X69.899 Y89.132
G1 F1200 X130.865 Y150.098 E187.58925
G0 F6000 X131.431 Y150.098
G1 F1200 X69.899 Y88.567 E190.4835
G0 F6000 X69.899 Y88.001
G1 F1200 X131.997 Y150.098 E193.40438
G0 F6000 X132.562 Y150.098
G1 F1200 X69.899 Y87.435 E196.35186
G0 F6000 X69.899 Y86.87
G1 F1200 X133.128 Y150.098 E199.32593
G0 F6000 X133.694 Y150.098
G1 F1200 X69.899 Y86.304 E202.32663
G0 F6000 X69.899 Y85.738
G1 F1200 X134.259 Y150.098 E205.35392
G0 F6000 X134.825 Y150.098
G1 F1200 X69.899 Y85.173 E208.40782
G0 F6000 X69.899 Y84.607
G1 F1200 X135.391 Y150.098 E211.48834
G0 F6000 X135.956 Y150.098
G1 F1200 X69.899 Y84.041 E214.59546
G0 F6000 X69.899 Y83.476
G1 F1200 X136.522 Y150.098 E217.72918
G0 F6000 X137.088 Y150.098
G1 F1200 X69.899 Y82.91 E220.88952
G0 F6000 X69.899 Y82.344
G1 F1200 X137.653 Y150.098 E224.07646
G0 F6000 X138.219 Y150.098
G1 F1200 X69.899 Y81.779 E227.29
G0 F6000 X69.899 Y81.213
G1 F1200 X138.785 Y150.098 E230.53016
G0 F6000 X139.35 Y150.098
G1 F1200 X69.899 Y80.647 E233.79692
G0 F6000 X69.899 Y80.081
G1 F1200 X139.916 Y150.098 E237.09031
G0 F6000 X140.482 Y150.098
G1 F1200 X69.899 Y79.516 E240.41029
G0 F6000 X69.899 Y78.95
G1 F1200 X141.048 Y150.098 E243.7569
G0 F6000 X141.613 Y150.098
G1 F1200 X69.899 Y78.384 E247.13011
G0 F6000 X69.899 Y77.819
G1 F1200 X142.179 Y150.098 E250.52991
G0 F6000 X142.745 Y150.098
G1 F1200 X69.899 Y77.253 E253.95634
G0 F6000 X69.899 Y76.687
G1 F1200 X143.31 Y150.098 E257.40937
G0 F6000 X143.876 Y150.098
G1 F1200 X69.899 Y76.122 E260.889
G0 F6000 X69.914 Y75.571
G1 F1200 X144.427 Y150.084 E264.39386
G0 F6000 X144.955 Y150.046
G1 F1200 X69.951 Y75.043 E267.9218
G0 F6000 X70.038 Y74.564
G1 F1200 X145.434 Y149.959 E271.46817
G0 F6000 X145.898 Y149.858
G1 F1200 X70.14 Y74.099 E275.03162
G0 F6000 X70.293 Y73.687
G1 F1200 X146.31 Y149.705 E278.60725
G0 F6000 X146.717 Y149.546
G1 F1200 X70.452 Y73.281 E282.19452
G0 F6000 X70.653 Y72.916
G1 F1200 X147.082 Y149.345 E285.7895
G0 F6000 X147.444 Y149.141
G1 F1200 X70.857 Y72.554 E289.39192
G0 F6000 X71.099 Y72.23
G1 F1200 X147.767 Y148.899 E292.99817
G0 F6000 X148.091 Y148.657
G1 F1200 X71.342 Y71.907 E296.60823
G0 F6000 X71.624 Y71.624
G1 F1200 X148.374 Y148.374 E300.21832
G0 F6000 X148.657 Y148.091
G1 F1200 X71.907 Y71.342 E303.82838
G0 F6000 X72.231 Y71.1
G1 F1200 X148.899 Y147.768 E307.43461
G0 F6000 X149.142 Y147.445
G1 F1200 X72.554 Y70.857 E311.03707
G0 F6000 X72.916 Y70.654
G1 F1200 X149.345 Y147.083 E314.63206
G0 F6000 X149.546 Y146.718
G1 F1200 X73.281 Y70.453 E318.21933
G0 F6000 X73.688 Y70.294
G1 F1200 X149.705 Y146.311 E321.79494
G0 F6000 X149.859 Y145.899
G1 F1200 X74.1 Y70.14 E325.35841
G0 F6000 X74.565 Y70.039
G1 F1200 X149.96 Y145.434 E328.90476
G0 F6000 X150.047 Y144.956
G1 F1200 X75.043 Y69.952 E332.43272
G0 F6000 X75.572 Y69.915
G1 F1200 X150.084 Y144.427 E335.93753
G0 F6000 X150.099 Y143.877
G1 F1200 X76.122 Y69.9 E339.41718
G0 F6000 X76.688 Y69.9
G1 F1200 X150.099 Y143.311 E342.87021
G0 F6000 X150.099 Y142.745
G1 F1200 X77.254 Y69.9 E346.29662
G0 F6000 X77.819 Y69.9
G1 F1200 X150.099 Y142.18 E349.69645
G0 F6000 X150.099 Y141.614
G1 F1200 X78.385 Y69.9 E353.06965
G0 F6000 X78.951 Y69.9
G1 F1200 X150.099 Y141.048 E356.41624
G0 F6000 X150.099 Y140.483
G1 F1200 X79.516 Y69.9 E359.73624
G0 F6000 X80.082 Y69.9
G1 F1200 X150.099 Y139.917 E363.02963
G0 F6000 X150.099 Y139.351
G1 F1200 X80.648 Y69.9 E366.29639
G0 F6000 X81.214 Y69.9
G1 F1200 X150.099 Y138.785 E369.53653
G0 F6000 X150.099 Y138.22
G1 F1200 X81.779 Y69.9 E372.75009
G0 F6000 X82.345 Y69.9
G1 F1200 X150.099 Y137.654 E375.93704
G0 F6000 X150.099 Y137.088
G1 F1200 X82.911 Y69.9 E379.09735
G0 F6000 X83.476 Y69.9
G1 F1200 X150.099 Y136.523 E382.23109
G0 F6000 X150.099 Y135.957
G1 F1200 X84.042 Y69.9 E385.33821
G0 F6000 X84.608 Y69.9
G1 F1200 X150.099 Y135.391 E388.41871
G0 F6000 X150.099 Y134.826
G1 F1200 X85.173 Y69.9 E391.47263
G0 F6000 X85.739 Y69.9
G1 F1200 X150.099 Y134.26 E394.49993
G0 F6000 X150.099 Y133.694
