;FLAVOR:Marlin
;TIME:11917
;Filament used: 10.7473m
;Layer height: 0.2
;MINX:49.335
;MINY:49.335
;MINZ:0.24
;MAXX:170.665
;MAXY:170.665
;MAXZ:4.09
;Generated with Cura_SteamEngine 4.9.1
M140 S60
M105
M190 S60
M104 S200
M105
M109 S200
M82 ;absolute extrusion mode
; Ender 3 Custom Start G-code
G92 E0 ; Reset Extruder
G28 ; Home all axes
G1 Z2.0 F3000 ; Move Z Axis up little to prevent scratching of Heat Bed
G1 X0.1 Y20 Z0.3 F5000.0 ; Move to start position
G1 X0.1 Y200.0 Z0.3 F1500.0 E15 ; Draw the first line
G1 X0.4 Y200.0 Z0.3 F5000.0 ; Move to side a little
G1 X0.4 Y20 Z0.3 F1500.0 E30 ; Draw the second line
G92 E0 ; Reset Extruder
G1 Z2.0 F3000 ; Move Z Axis up little to prevent scratching of Heat Bed
G1 X5 Y20 Z0.3 F5000.0 ; Move over to prevent blob squish
G92 E0
G92 E0
G1 F1500 E-6.5
;LAYER_COUNT:15
;LAYER:-6
M107
G0 F9000 X57.191 Y58.045 Z0.24
;TYPE:SUPPORT-INTERFACE
G1 F1500 E0
G1 F1125 X58.057 Y57.18 E0.09771
G1 X58.77 Y56.518 E0.17537
G1 X58.886 Y56.417 E0.18765
G1 X59.321 Y56.059 E0.23262
G1 X59.457 Y55.95 E0.24653
G1 X60.336 Y55.263 E0.33558
G1 X61.115 Y54.697 E0.41245
G1 X61.24 Y54.611 E0.42456
G1 X61.767 Y54.275 E0.47445
G1 X62.743 Y53.685 E0.56549
G1 X63.652 Y53.178 E0.64857
G1 X63.803 Y53.099 E0.66217
G1 X64.407 Y52.811 E0.71559
G1 X65.504 Y52.319 E0.81156
G1 X66.387 Y51.961 E0.88762
G1 X66.543 Y51.903 E0.9009
G1 X66.983 Y51.754 E0.93798
G1 X67.185 Y51.688 E0.95495
G1 X68.223 Y51.365 E1.04172
G1 X69.249 Y51.085 E1.12662
G1 X69.34 Y51.063 E1.13409
G1 X69.982 Y50.928 E1.18646
G1 X71.114 Y50.721 E1.27832
G1 X72.155 Y50.568 E1.36231
G1 X72.285 Y50.553 E1.37276
G1 X72.922 Y50.498 E1.42379
G1 X74.067 Y50.43 E1.51535
G1 X74.957 Y50.402 E1.58643
G1 X75.074 Y50.4 E1.59577
G1 X105.003 Y50.401 E3.98483
G1 X106.004 Y50.437 E4.06479
G1 X106.127 Y50.446 E4.07464
G1 X107.044 Y50.548 E4.14829
G1 X107.219 Y50.573 E4.1624
G1 X108.108 Y50.737 E4.23456
G1 X108.231 Y50.765 E4.24463
G1 X108.634 Y50.87 E4.27787
G1 X109.292 Y50.997 E4.33136
G1 X109.973 Y51.043 E4.38585
G1 X110.655 Y51.002 E4.44039
G1 X110.799 Y50.989 E4.45193
G1 X111.356 Y50.866 E4.49746
G1 X111.382 Y50.858 E4.49963
G1 X112.278 Y50.658 E4.57292
G1 X112.408 Y50.635 E4.58345
G1 X113.313 Y50.501 E4.65648
G1 X113.482 Y50.483 E4.67005
G1 X114.371 Y50.417 E4.74121
G1 X114.555 Y50.408 E4.75591
G1 X115.06 Y50.4 E4.79623
G1 X144.926 Y50.4 E7.18026
G1 X145.847 Y50.426 E7.25381
G1 X145.933 Y50.429 E7.26068
G1 X147.028 Y50.496 E7.34825
G1 X147.142 Y50.505 E7.35738
G1 X148.078 Y50.597 E7.43246
G1 X148.218 Y50.614 E7.44371
G1 X148.893 Y50.721 E7.49827
G1 X149.966 Y50.919 E7.58536
G1 X151.008 Y51.148 E7.67053
G1 X151.142 Y51.183 E7.68158
G1 X151.794 Y51.37 E7.73573
G1 X152.829 Y51.691 E7.82223
G1 X153.819 Y52.039 E7.90599
G1 X153.971 Y52.098 E7.91901
G1 X154.567 Y52.349 E7.97063
G1 X155.573 Y52.802 E8.0587
G1 X155.671 Y52.848 E8.06734
G1 X156.529 Y53.272 E8.14374
G1 X156.659 Y53.341 E8.15548
G1 X157.226 Y53.667 E8.20769
G1 X158.254 Y54.288 E8.30356
G1 X159.061 Y54.818 E8.38063
G1 X159.197 Y54.913 E8.39387
G1 X159.64 Y55.244 E8.43802
G1 X160.588 Y55.986 E8.53411
G1 X160.653 Y56.038 E8.54076
G1 X161.409 Y56.676 E8.61972
G1 X161.504 Y56.762 E8.62995
G1 X161.955 Y57.191 E8.67964
G1 X162.821 Y58.059 E8.77751
G1 X163.475 Y58.763 E8.85422
G1 X163.583 Y58.886 E8.86728
G1 X164.019 Y59.418 E8.92219
G1 X164.737 Y60.336 E9.01522
G1 X165.304 Y61.115 E9.09213
G1 X165.376 Y61.221 E9.10236
G1 X165.725 Y61.767 E9.15409
G1 X166.316 Y62.744 E9.24523
G1 X166.822 Y63.652 E9.32821
G1 X166.901 Y63.803 E9.34181
G1 X167.171 Y64.366 E9.39165
G1 X167.672 Y65.483 E9.48937
G1 X168.035 Y66.376 E9.56632
G1 X168.097 Y66.543 E9.58054
G1 X168.235 Y66.95 E9.61485
G1 X168.312 Y67.185 E9.63459
G1 X168.655 Y68.289 E9.72687
G1 X168.915 Y69.249 E9.80626
G1 X168.937 Y69.34 E9.81373
G1 X169.072 Y69.982 E9.8661
G1 X169.29 Y71.177 E9.96307
G1 X169.431 Y72.145 E10.04115
G1 X169.447 Y72.285 E10.0524
G1 X169.502 Y72.922 E10.10344
G1 X169.569 Y74.038 E10.19268
G1 X169.574 Y74.146 E10.20131
G1 X169.598 Y74.923 E10.26336
G1 X169.6 Y75.067 E10.27486
G1 X169.6 Y144.926 E15.85131
G1 X169.574 Y145.847 E15.92485
G1 X169.571 Y145.933 E15.93172
G1 X169.505 Y147.015 E16.01825
G1 X169.496 Y147.134 E16.02778
G1 X169.403 Y148.078 E16.1035
G1 X169.387 Y148.211 E16.11419
G1 X169.296 Y148.784 E16.16051
G1 X169.279 Y148.892 E16.16923
G1 X169.063 Y150.058 E16.26389
G1 X168.852 Y151.008 E16.34157
G1 X168.817 Y151.142 E16.35263
G1 X168.63 Y151.794 E16.40677
G1 X168.317 Y152.8 E16.49087
G1 X168.276 Y152.924 E16.5013
G1 X167.961 Y153.819 E16.57704
G1 X167.902 Y153.971 E16.59005
G1 X167.651 Y154.567 E16.64167
G1 X167.208 Y155.552 E16.72789
G1 X167.152 Y155.671 E16.73838
G1 X166.728 Y156.529 E16.81478
G1 X166.659 Y156.659 E16.82653
G1 X166.35 Y157.199 E16.87619
G1 X165.712 Y158.254 E16.97461
G1 X165.182 Y159.061 E17.05168
G1 X165.094 Y159.187 E17.06394
G1 X164.764 Y159.629 E17.10798
G1 X164.014 Y160.588 E17.20516
G1 X163.962 Y160.653 E17.2118
G1 X163.324 Y161.409 E17.29077
G1 X163.238 Y161.504 E17.301
G1 X162.809 Y161.955 E17.35068
G1 X161.943 Y162.82 E17.44839
G1 X161.237 Y163.475 E17.52526
G1 X161.114 Y163.583 E17.53833
G1 X160.679 Y163.941 E17.5833
G1 X160.543 Y164.05 E17.59721
G1 X159.664 Y164.737 E17.68627
G1 X158.885 Y165.303 E17.76313
G1 X158.76 Y165.389 E17.77524
G1 X158.233 Y165.725 E17.82513
G1 X157.264 Y166.311 E17.91553
G1 X156.348 Y166.822 E17.99925
G1 X156.197 Y166.901 E18.01286
G1 X155.593 Y167.189 E18.06627
G1 X154.496 Y167.681 E18.16224
G1 X153.613 Y168.039 E18.2383
G1 X153.457 Y168.097 E18.25158
G1 X153.017 Y168.246 E18.28867
G1 X152.815 Y168.312 E18.30563
G1 X151.777 Y168.635 E18.39241
G1 X150.751 Y168.915 E18.4773
G1 X150.66 Y168.937 E18.48477
G1 X150.022 Y169.071 E18.53681
G1 X148.886 Y169.279 E18.629
G1 X147.845 Y169.432 E18.71299
G1 X147.715 Y169.447 E18.72344
G1 X147.078 Y169.502 E18.77447
G1 X145.933 Y169.57 E18.86603
G1 X145.043 Y169.598 E18.93711
G1 X144.926 Y169.6 E18.94645
G1 X75.074 Y169.6 E24.52234
G1 X74.153 Y169.574 E24.59589
G1 X74.067 Y169.571 E24.60276
G1 X72.972 Y169.504 E24.69033
G1 X72.858 Y169.495 E24.69946
G1 X71.921 Y169.403 E24.77461
G1 X71.782 Y169.386 E24.78579
G1 X71.107 Y169.279 E24.84035
G1 X69.942 Y169.063 E24.93493
G1 X68.992 Y168.852 E25.01261
G1 X68.858 Y168.817 E25.02366
G1 X68.206 Y168.63 E25.07781
G1 X67.171 Y168.309 E25.16431
G1 X66.177 Y167.96 E25.2484
G1 X66.029 Y167.902 E25.26109
G1 X65.426 Y167.648 E25.31332
G1 X64.427 Y167.198 E25.40078
G1 X64.329 Y167.152 E25.40942
G1 X63.471 Y166.728 E25.48582
G1 X63.338 Y166.657 E25.49785
G1 X62.774 Y166.333 E25.54977
G1 X61.745 Y165.711 E25.64575
G1 X60.939 Y165.182 E25.72271
G1 X60.803 Y165.087 E25.73595
G1 X60.36 Y164.756 E25.7801
G1 X60.133 Y164.58 E25.80303
G1 X59.34 Y163.956 E25.88357
G1 X58.591 Y163.324 E25.9618
G1 X58.496 Y163.238 E25.97203
G1 X58.038 Y162.802 E26.02251
G1 X57.177 Y161.94 E26.11976
G1 X56.518 Y161.23 E26.19709
G1 X56.417 Y161.114 E26.20937
G1 X56.056 Y160.675 E26.25474
G1 X55.95 Y160.543 E26.26825
G1 X55.255 Y159.653 E26.35839
G1 X54.697 Y158.885 E26.43417
G1 X54.611 Y158.76 E26.44628
G1 X54.252 Y158.196 E26.49964
G1 X53.685 Y157.257 E26.5872
G1 X53.173 Y156.339 E26.67111
G1 X53.093 Y156.185 E26.68496
G1 X52.812 Y155.597 E26.73698
G1 X52.364 Y154.599 E26.82431
G1 X52.316 Y154.487 E26.83403
G1 X51.961 Y153.613 E26.90934
G1 X51.902 Y153.455 E26.9228
G1 X51.754 Y153.017 E26.9597
G1 X51.686 Y152.809 E26.97717
G1 X51.339 Y151.689 E27.07077
G1 X51.085 Y150.752 E27.14826
G1 X51.063 Y150.66 E27.15581
G1 X50.92 Y149.978 E27.21144
G1 X50.721 Y148.886 E27.30004
G1 X50.568 Y147.845 E27.38403
G1 X50.553 Y147.715 E27.39448
G1 X50.498 Y147.078 E27.44551
G1 X50.43 Y145.933 E27.53707
G1 X50.402 Y145.043 E27.60815
G1 X50.4 Y144.933 E27.61694
G1 X50.4 Y75.072 E33.19354
G1 X50.402 Y74.93 E33.20488
G1 X50.43 Y74.038 E33.27612
G1 X50.496 Y72.973 E33.36129
G1 X50.506 Y72.841 E33.37186
G1 X50.597 Y71.922 E33.44558
G1 X50.613 Y71.789 E33.45627
G1 X50.723 Y71.099 E33.51204
G1 X50.92 Y70.029 E33.59889
G1 X51.148 Y68.992 E33.68365
G1 X51.183 Y68.858 E33.6947
G1 X51.37 Y68.206 E33.74885
G1 X51.683 Y67.2 E33.83295
G1 X51.724 Y67.076 E33.84337
G1 X52.039 Y66.181 E33.91911
G1 X52.098 Y66.029 E33.93213
G1 X52.361 Y65.406 E33.98611
G1 X52.792 Y64.448 E34.06996
G1 X52.848 Y64.329 E34.08046
G1 X53.272 Y63.471 E34.15685
G1 X53.341 Y63.341 E34.1686
G1 X53.65 Y62.801 E34.21827
G1 X54.288 Y61.746 E34.31668
G1 X54.818 Y60.939 E34.39375
G1 X54.906 Y60.813 E34.40602
G1 X55.236 Y60.371 E34.45005
G1 X55.445 Y60.101 E34.47731
G1 X56.038 Y59.347 E34.55388
G1 X56.676 Y58.591 E34.63284
G1 X56.762 Y58.496 E34.64307
G1 X57.191 Y58.045 E34.69276
G0 F9000 X57.6 Y57.636
G1 F1125 X57.6 Y162.363 E43.05252
G0 F9000 X59.2 Y163.837
G1 F1125 X59.2 Y56.158 E51.64792
G0 F9000 X60.8 Y54.925
G1 F1125 X60.8 Y165.084 E60.44129
G0 F9000 X62.4 Y166.106
G1 F1125 X62.4 Y53.892 E69.3987
G0 F9000 X64 Y53.005
G1 F1125 X64 Y166.989 E78.49739
G0 F9000 X65.6 Y167.721
G1 F1125 X65.6 Y52.28 E87.71239
G0 F9000 X67.2 Y51.683
G1 F1125 X67.2 Y168.317 E97.02262
G0 F9000 X68.8 Y168.8
G1 F1125 X68.8 Y51.207 E106.4094
G0 F9000 X70.4 Y50.851
G1 F1125 X70.4 Y169.147 E115.8523
G0 F9000 X72 Y169.41
G1 F1125 X72 Y50.59 E125.33703
G0 F9000 X73.6 Y50.457
G1 F1125 X73.6 Y169.542 E134.84291
G0 F9000 X75.2 Y169.6
G1 F1125 X75.2 Y50.401 E144.35789
G0 F9000 X76.8 Y50.401
G1 F1125 X76.8 Y169.6 E153.87287
G0 F9000 X78.4 Y169.6
G1 F1125 X78.4 Y50.401 E163.38785
G0 F9000 X80 Y50.401
G1 F1125 X80 Y169.6 E172.90283
G0 F9000 X81.6 Y169.6
G1 F1125 X81.6 Y50.401 E182.41781
G0 F9000 X83.2 Y50.401
G1 F1125 X83.2 Y169.6 E191.93279
G0 F9000 X84.8 Y169.6
G1 F1125 X84.8 Y50.401 E201.44777
G0 F9000 X86.4 Y50.401
G1 F1125 X86.4 Y169.6 E210.96275
G0 F9000 X88 Y169.6
G1 F1125 X88 Y50.401 E220.47773
G0 F9000 X89.6 Y50.401
G1 F1125 X89.6 Y169.6 E229.9927
G0 F9000 X91.2 Y169.6
G1 F1125 X91.2 Y50.401 E239.50768
G0 F9000 X92.8 Y50.401
G1 F1125 X92.8 Y169.6 E249.02266
G0 F9000 X94.4 Y169.6
G1 F1125 X94.4 Y50.401 E258.53764
G0 F9000 X96 Y50.401
G1 F1125 X96 Y169.6 E268.05262
G0 F9000 X97.6 Y169.6
G1 F1125 X97.6 Y50.401 E277.5676
G0 F9000 X99.2 Y50.401
G1 F1125 X99.2 Y169.6 E287.08258
G0 F9000 X100.8 Y169.6
G1 F1125 X100.8 Y50.401 E296.59756
G0 F9000 X102.4 Y50.401
G1 F1125 X102.4 Y169.6 E306.11254
G0 F9000 X104 Y169.6
G1 F1125 X104 Y50.401 E315.62752
G0 F9000 X105.6 Y50.423
G1 F1125 X105.6 Y169.6 E325.14074
G0 F9000 X107.2 Y169.6
G1 F1125 X107.2 Y50.571 E334.64215
G0 F9000 X108.8 Y50.903
G1 F1125 X108.8 Y169.6 E344.11706
G0 F9000 X110.4 Y169.6
G1 F1125 X110.4 Y51.017 E353.58287
G0 F9000 X112 Y50.72
G1 F1125 X112 Y169.6 E363.07239
G0 F9000 X113.6 Y169.6
G1 F1125 X113.6 Y50.474 E372.58154
G0 F9000 X115.2 Y50.4
G1 F1125 X115.2 Y169.6 E382.0966
G0 F9000 X116.8 Y169.6
G1 F1125 X116.8 Y50.4 E391.61166
G0 F9000 X118.4 Y50.4
G1 F1125 X118.4 Y169.6 E401.12672
G0 F9000 X120 Y169.6
G1 F1125 X120 Y50.4 E410.64178
G0 F9000 X121.6 Y50.4
G1 F1125 X121.6 Y169.6 E420.15684
G0 F9000 X123.2 Y169.6
G1 F1125 X123.2 Y50.4 E429.67189
G0 F9000 X124.8 Y50.4
G1 F1125 X124.8 Y169.6 E439.18695
G0 F9000 X126.4 Y169.6
G1 F1125 X126.4 Y50.4 E448.70201
G0 F9000 X128 Y50.4
G1 F1125 X128 Y169.6 E458.21707
G0 F9000 X129.6 Y169.6
G1 F1125 X129.6 Y50.4 E467.73213
G0 F9000 X131.2 Y50.4
G1 F1125 X131.2 Y169.6 E477.24719
G0 F9000 X132.8 Y169.6
G1 F1125 X132.8 Y50.4 E486.76225
G0 F9000 X134.4 Y50.4
G1 F1125 X134.4 Y169.6 E496.27731
G0 F9000 X136 Y169.6
G1 F1125 X136 Y50.4 E505.79237
G0 F9000 X137.6 Y50.4
G1 F1125 X137.6 Y169.6 E515.30743
G0 F9000 X139.2 Y169.6
G1 F1125 X139.2 Y50.4 E524.82249
G0 F9000 X140.8 Y50.4
G1 F1125 X140.8 Y169.6 E534.33755
G0 F9000 X142.4 Y169.6
G1 F1125 X142.4 Y50.4 E543.85261
G0 F9000 X144 Y50.4
G1 F1125 X144 Y169.6 E553.36767
G0 F9000 X145.6 Y169.581
G1 F1125 X145.6 Y50.42 E562.87961
G0 F9000 X147.2 Y50.511
G1 F1125 X147.2 Y169.492 E572.37719
G0 F9000 X148.8 Y169.292
G1 F1125 X148.8 Y50.707 E581.84316
G0 F9000 X150.4 Y51.015
G1 F1125 X150.4 Y168.992 E591.26059
G0 F9000 X152 Y168.566
G1 F1125 X152 Y51.434 E600.61058
G0 F9000 X153.6 Y51.963
G1 F1125 X153.6 Y168.044 E609.87666
G0 F9000 X155.2 Y167.366
G1 F1125 X155.2 Y52.635 E619.03499
G0 F9000 X156.8 Y53.423
G1 F1125 X156.8 Y166.57 E628.06687
G0 F9000 X158.4 Y165.619
G1 F1125 X158.4 Y54.384 E636.94613
G0 F9000 X160 Y55.526
G1 F1125 X160 Y164.475 E645.64291
G0 F9000 X161.6 Y163.139
G1 F1125 X161.6 Y56.854 E654.12704
G0 F9000 X163.2 Y58.467
G1 F1125 X163.2 Y161.544 E662.35509
G0 F9000 X164.8 Y159.581
G1 F1125 X164.8 Y60.423 E670.27031
G0 F9000 X166.4 Y62.895
G1 F1125 X166.4 Y157.112 E677.79112
G0 F9000 X168 Y153.709
G1 F1125 X168 Y66.29 E684.76928
G1 F1500 E678.26928
G0 F9000 X168.986 Y65.889
G0 X167.762 Y63.152
G0 X166.17 Y60.497
G0 X164.268 Y58.054
G0 X162.104 Y55.869
G0 X159.662 Y53.939
G0 X157.009 Y52.322
G0 X154.193 Y51.043
G0 X151.249 Y50.111
G0 X148.2 Y49.54
G0 X144.938 Y49.335
G0 X74.013 Y49.367
G0 X72.012 Y49.513
G0 X68.978 Y50.056
G0 X67.598 Y50.44
G0 X65.997 Y50.97
G0 X63.153 Y52.238
G0 X60.496 Y53.83
G0 X58.054 Y55.732
G0 X56.285 Y57.484
G0 X55.219 Y58.667
G0 X56 Y59.395
G1 F1500 E684.76928
G1 F1125 X56 Y160.605 E692.8483
G0 F9000 X54.4 Y158.428
G1 F1125 X54.4 Y61.575 E700.57953
G0 F9000 X52.8 Y64.431
G1 F1125 X52.8 Y155.57 E707.85464
G1 F1500 E701.35464
G0 F9000 X51.829 Y156.006
G0 X51.076 Y154.225
G0 X50.315 Y151.982
G0 X51.2 Y151.176
G1 F1500 E707.85464
G1 F1125 X51.2 Y68.798 E714.4304
G0 F300 X51.2 Y68.798 Z0.54
G0 F9000 X52.038 Y66.18
;TIME_ELAPSED:493.824055
;LAYER:-5
;TYPE:SUPPORT
G1 F1125 X153.814 Y167.956 E728.7921
G1 X153.613 Y168.038 E728.81376
G1 X153.457 Y168.096 E728.83036
G1 X153.017 Y168.245 E728.87672
G1 X152.814 Y168.311 E728.89802
G1 X152.769 Y168.325 E728.90272
G1 X51.672 Y67.228 E743.1686
G1 X51.37 Y68.205 E743.27063
G1 X51.34 Y68.31 E743.28153
G1 X151.687 Y168.658 E757.44165
G1 X150.75 Y168.913 E757.53854
G1 X150.66 Y168.936 E757.54781
G1 X150.569 Y168.954 E757.55706
G1 X51.049 Y69.434 E771.60041
G1 X50.919 Y70.028 E771.66108
G1 X50.811 Y70.61 E771.72015
G1 X149.386 Y169.185 E785.63015
G1 X148.885 Y169.278 E785.68099
G1 X148.169 Y169.383 E785.7532
G1 X50.609 Y71.822 E799.52004
G1 X50.597 Y71.921 E799.52999
G1 X50.505 Y72.84 E799.62214
G1 X50.495 Y72.972 E799.63535
G1 X50.486 Y73.114 E799.64955
G1 X146.885 Y169.512 E813.25242
G1 X145.933 Y169.569 E813.34758
G1 X145.539 Y169.581 E813.38691
G1 X50.416 Y74.458 E826.80979
G1 X50.402 Y74.929 E826.85681
G1 X50.4 Y75.071 E826.87098
G1 X50.4 Y75.856 E826.94931
G1 X144.143 Y169.598 E840.17739
G1 X142.728 Y169.598 E840.31858
G1 X50.4 Y77.27 E853.34706
G1 X50.4 Y78.684 E853.48815
G1 X141.314 Y169.598 E866.31709
G1 X139.9 Y169.598 E866.45818
G1 X50.4 Y80.098 E879.0876
G1 X50.4 Y81.513 E879.22879
G1 X138.486 Y169.598 E891.6586
G1 X137.071 Y169.598 E891.79979
G1 X50.4 Y82.927 E904.03001
G1 X50.4 Y84.341 E904.1711
G1 X135.657 Y169.598 E916.20178
G1 X134.243 Y169.598 E916.34287
G1 X50.4 Y85.755 E928.17402
G1 X50.4 Y87.17 E928.31521
G1 X132.829 Y169.598 E939.94677
G1 X131.415 Y169.598 E940.08785
G1 X50.4 Y88.584 E951.51988
G1 X50.4 Y89.998 E951.66097
G1 X130 Y169.598 E962.89339
G1 X128.586 Y169.598 E963.03447
G1 X50.4 Y91.412 E974.06736
G1 X50.4 Y92.826 E974.20845
G1 X127.172 Y169.598 E985.04181
G1 X125.758 Y169.598 E985.1829
G1 X50.4 Y94.241 E995.81666
G1 X50.4 Y95.655 E995.95775
G1 X124.344 Y169.598 E1006.39197
G1 X122.929 Y169.598 E1006.53316
G1 X50.4 Y97.069 E1016.76779
G1 X50.4 Y98.483 E1016.90888
G1 X121.515 Y169.598 E1026.94397
G1 X120.101 Y169.598 E1027.08506
G1 X50.4 Y99.897 E1036.92063
G1 X50.4 Y101.312 E1037.06182
G1 X118.687 Y169.598 E1046.69778
G1 X117.272 Y169.598 E1046.83897
G1 X50.4 Y102.726 E1056.27533
G1 X50.4 Y104.14 E1056.41642
G1 X115.858 Y169.598 E1065.65325
G1 X114.444 Y169.598 E1065.79434
G1 X50.4 Y105.554 E1074.83164
G1 X50.4 Y106.968 E1074.97273
G1 X113.03 Y169.598 E1083.8105
G1 X111.616 Y169.598 E1083.95159
G1 X50.4 Y108.383 E1092.58976
G1 X50.4 Y109.797 E1092.73085
G1 X110.201 Y169.598 E1101.16941
G1 X108.787 Y169.598 E1101.3105
G1 X50.4 Y111.211 E1109.54954
G1 X50.4 Y112.625 E1109.69063
G1 X107.373 Y169.598 E1117.73013
G1 X105.959 Y169.598 E1117.87122
G1 X50.4 Y114.04 E1125.71113
