;FLAVOR:Marlin
;TIME:12316
;Filament used: 10.7926m
;Layer height: 0.2
;MINX:49.335
;MINY:49.335
;MINZ:0.24
;MAXX:170.665
;MAXY:170.665
;MAXZ:4.09
;Generated with Cura_SteamEngine 4.9.1
M140 S60
M105
M190 S60
M104 S200
M105
M109 S200
M82 ;absolute extrusion mode
; Ender 3 Custom Start G-code
G92 E0 ; Reset Extruder
G28 ; Home all axes
G1 Z2.0 F3000 ; Move Z Axis up little to prevent scratching of Heat Bed
G1 X0.1 Y20 Z0.3 F5000.0 ; Move to start position
G1 X0.1 Y200.0 Z0.3 F1500.0 E15 ; Draw the first line
G1 X0.4 Y200.0 Z0.3 F5000.0 ; Move to side a little
G1 X0.4 Y20 Z0.3 F1500.0 E30 ; Draw the second line
G92 E0 ; Reset Extruder
G1 Z2.0 F3000 ; Move Z Axis up little to prevent scratching of Heat Bed
G1 X5 Y20 Z0.3 F5000.0 ; Move over to prevent blob squish
G92 E0
G92 E0
G1 F1500 E-6.5
;LAYER_COUNT:15
;LAYER:-6
M107
G0 F9000 X57.191 Y58.045 Z0.24
;TYPE:SUPPORT-INTERFACE
G1 F1500 E0
G1 F1125 X58.057 Y57.18 E0.09771
G1 X58.77 Y56.518 E0.17537
G1 X58.886 Y56.417 E0.18765
G1 X59.321 Y56.059 E0.23262
G1 X59.457 Y55.95 E0.24653
G1 X60.336 Y55.263 E0.33558
G1 X61.115 Y54.697 E0.41245
G1 X61.24 Y54.611 E0.42456
G1 X61.767 Y54.275 E0.47445
G1 X62.743 Y53.685 E0.56549
G1 X63.652 Y53.178 E0.64857
G1 X63.803 Y53.099 E0.66217
G1 X64.407 Y52.811 E0.71559
G1 X65.504 Y52.319 E0.81156
G1 X66.387 Y51.961 E0.88762
G1 X66.543 Y51.903 E0.9009
G1 X66.983 Y51.754 E0.93798
G1 X67.185 Y51.688 E0.95495
G1 X68.223 Y51.365 E1.04172
G1 X69.249 Y51.085 E1.12662
G1 X69.34 Y51.063 E1.13409
G1 X69.982 Y50.928 E1.18646
G1 X71.114 Y50.721 E1.27832
G1 X72.155 Y50.568 E1.36231
G1 X72.285 Y50.553 E1.37276
G1 X72.922 Y50.498 E1.42379
G1 X74.067 Y50.43 E1.51535
G1 X74.957 Y50.402 E1.58643
G1 X75.074 Y50.4 E1.59577
G1 X144.926 Y50.4 E7.17166
G1 X145.847 Y50.426 E7.24521
G1 X145.933 Y50.429 E7.25208
G1 X147.028 Y50.496 E7.33965
G1 X147.142 Y50.505 E7.34878
G1 X148.078 Y50.597 E7.42385
G1 X148.218 Y50.614 E7.43511
G1 X148.893 Y50.721 E7.48966
G1 X149.966 Y50.919 E7.57676
G1 X151.008 Y51.148 E7.66192
G1 X151.142 Y51.183 E7.67298
G1 X151.794 Y51.37 E7.72712
G1 X152.829 Y51.691 E7.81362
G1 X153.819 Y52.039 E7.89739
G1 X153.971 Y52.098 E7.91041
G1 X154.567 Y52.349 E7.96203
G1 X155.573 Y52.802 E8.0501
G1 X155.671 Y52.848 E8.05874
G1 X156.529 Y53.272 E8.13513
G1 X156.659 Y53.341 E8.14688
G1 X157.226 Y53.667 E8.19909
G1 X158.254 Y54.288 E8.29496
G1 X159.061 Y54.818 E8.37203
G1 X159.197 Y54.913 E8.38527
G1 X159.64 Y55.244 E8.42941
G1 X160.588 Y55.986 E8.52551
G1 X160.653 Y56.038 E8.53216
G1 X161.409 Y56.676 E8.61112
G1 X161.504 Y56.762 E8.62135
G1 X161.955 Y57.191 E8.67104
G1 X162.821 Y58.059 E8.76891
G1 X163.475 Y58.763 E8.84561
G1 X163.583 Y58.886 E8.85868
G1 X164.019 Y59.418 E8.91359
G1 X164.737 Y60.336 E9.00662
G1 X165.304 Y61.115 E9.08353
G1 X165.376 Y61.221 E9.09376
G1 X165.725 Y61.767 E9.14548
G1 X166.316 Y62.744 E9.23663
G1 X166.822 Y63.652 E9.3196
G1 X166.901 Y63.803 E9.33321
G1 X167.171 Y64.366 E9.38305
G1 X167.672 Y65.483 E9.48077
G1 X168.035 Y66.376 E9.55772
G1 X168.097 Y66.543 E9.57194
G1 X168.235 Y66.95 E9.60624
G1 X168.312 Y67.185 E9.62598
G1 X168.655 Y68.289 E9.71827
G1 X168.915 Y69.249 E9.79766
G1 X168.937 Y69.34 E9.80513
G1 X169.072 Y69.982 E9.8575
G1 X169.29 Y71.177 E9.95446
G1 X169.431 Y72.145 E10.03255
G1 X169.447 Y72.285 E10.0438
G1 X169.502 Y72.922 E10.09483
G1 X169.569 Y74.038 E10.18408
G1 X169.574 Y74.146 E10.19271
G1 X169.598 Y74.923 E10.25476
G1 X169.6 Y75.067 E10.26626
G1 X169.6 Y144.926 E15.84271
G1 X169.574 Y145.847 E15.91625
G1 X169.571 Y145.933 E15.92312
G1 X169.505 Y147.015 E16.00965
G1 X169.496 Y147.134 E16.01918
G1 X169.403 Y148.078 E16.0949
G1 X169.387 Y148.211 E16.10559
G1 X169.296 Y148.784 E16.1519
G1 X169.279 Y148.892 E16.16063
G1 X169.063 Y150.058 E16.25529
G1 X168.852 Y151.008 E16.33297
G1 X168.817 Y151.142 E16.34403
G1 X168.63 Y151.794 E16.39817
G1 X168.317 Y152.8 E16.48227
G1 X168.276 Y152.924 E16.49269
G1 X167.961 Y153.819 E16.56843
G1 X167.902 Y153.971 E16.58145
G1 X167.651 Y154.567 E16.63307
G1 X167.208 Y155.552 E16.71928
G1 X167.152 Y155.671 E16.72978
G1 X166.728 Y156.529 E16.80618
G1 X166.659 Y156.659 E16.81793
G1 X166.35 Y157.199 E16.86759
G1 X165.712 Y158.254 E16.96601
G1 X165.182 Y159.061 E17.04307
G1 X165.094 Y159.187 E17.05534
G1 X164.764 Y159.629 E17.09937
G1 X164.014 Y160.588 E17.19656
G1 X163.962 Y160.653 E17.2032
G1 X163.324 Y161.409 E17.28216
G1 X163.238 Y161.504 E17.29239
G1 X162.809 Y161.955 E17.34208
G1 X161.943 Y162.82 E17.43979
G1 X161.237 Y163.475 E17.51666
G1 X161.114 Y163.583 E17.52973
G1 X160.679 Y163.941 E17.5747
G1 X160.543 Y164.05 E17.58861
G1 X159.664 Y164.737 E17.67766
G1 X158.885 Y165.303 E17.75453
G1 X158.76 Y165.389 E17.76664
G1 X158.233 Y165.725 E17.81653
G1 X157.264 Y166.311 E17.90692
G1 X156.348 Y166.822 E17.99065
G1 X156.197 Y166.901 E18.00425
G1 X155.593 Y167.189 E18.05767
G1 X154.496 Y167.681 E18.15364
G1 X153.613 Y168.039 E18.2297
G1 X153.457 Y168.097 E18.24298
G1 X153.017 Y168.246 E18.28006
G1 X152.815 Y168.312 E18.29703
G1 X151.777 Y168.635 E18.3838
G1 X150.751 Y168.915 E18.4687
G1 X150.66 Y168.937 E18.47617
G1 X150.022 Y169.071 E18.52821
G1 X148.886 Y169.279 E18.6204
G1 X147.845 Y169.432 E18.70439
G1 X147.715 Y169.447 E18.71483
G1 X147.078 Y169.502 E18.76587
G1 X145.933 Y169.57 E18.85743
G1 X145.043 Y169.598 E18.92851
G1 X144.926 Y169.6 E18.93785
G1 X75.074 Y169.6 E24.51374
G1 X74.153 Y169.574 E24.58729
G1 X74.067 Y169.571 E24.59416
G1 X72.972 Y169.504 E24.68173
G1 X72.858 Y169.495 E24.69086
G1 X71.921 Y169.403 E24.76601
G1 X71.782 Y169.386 E24.77719
G1 X71.107 Y169.279 E24.83174
G1 X69.942 Y169.063 E24.92632
G1 X68.992 Y168.852 E25.004
G1 X68.858 Y168.817 E25.01506
G1 X68.206 Y168.63 E25.0692
G1 X67.171 Y168.309 E25.1557
G1 X66.177 Y167.96 E25.2398
G1 X66.029 Y167.902 E25.25249
G1 X65.426 Y167.648 E25.30472
G1 X64.427 Y167.198 E25.39218
G1 X64.329 Y167.152 E25.40082
G1 X63.471 Y166.728 E25.47722
G1 X63.338 Y166.657 E25.48925
G1 X62.774 Y166.333 E25.54117
G1 X61.745 Y165.711 E25.63715
G1 X60.939 Y165.182 E25.71411
G1 X60.803 Y165.087 E25.72735
G1 X60.36 Y164.756 E25.77149
G1 X60.133 Y164.58 E25.79442
G1 X59.34 Y163.956 E25.87497
G1 X58.591 Y163.324 E25.9532
G1 X58.496 Y163.238 E25.96343
G1 X58.038 Y162.802 E26.01391
G1 X57.177 Y161.94 E26.11116
G1 X56.518 Y161.23 E26.18849
G1 X56.417 Y161.114 E26.20076
G1 X56.056 Y160.675 E26.24613
G1 X55.95 Y160.543 E26.25965
G1 X55.255 Y159.653 E26.34979
G1 X54.697 Y158.885 E26.42556
G1 X54.611 Y158.76 E26.43767
G1 X54.252 Y158.196 E26.49104
G1 X53.685 Y157.257 E26.5786
G1 X53.173 Y156.339 E26.66251
G1 X53.093 Y156.185 E26.67636
G1 X52.812 Y155.597 E26.72838
G1 X52.364 Y154.599 E26.8157
G1 X52.316 Y154.487 E26.82543
G1 X51.961 Y153.613 E26.90073
G1 X51.902 Y153.455 E26.9142
G1 X51.754 Y153.017 E26.9511
G1 X51.686 Y152.809 E26.96857
G1 X51.339 Y151.689 E27.06217
G1 X51.085 Y150.752 E27.13966
G1 X51.063 Y150.66 E27.14721
G1 X50.92 Y149.978 E27.20284
G1 X50.721 Y148.886 E27.29144
G1 X50.568 Y147.845 E27.37543
G1 X50.553 Y147.715 E27.38587
G1 X50.498 Y147.078 E27.43691
G1 X50.43 Y145.933 E27.52847
G1 X50.402 Y145.043 E27.59955
G1 X50.4 Y144.933 E27.60833
G1 X50.4 Y75.072 E33.18494
G1 X50.402 Y74.93 E33.19628
G1 X50.43 Y74.038 E33.26751
G1 X50.496 Y72.973 E33.35269
G1 X50.506 Y72.841 E33.36326
G1 X50.597 Y71.922 E33.43697
G1 X50.613 Y71.789 E33.44767
G1 X50.723 Y71.099 E33.50344
G1 X50.92 Y70.029 E33.59029
G1 X51.148 Y68.992 E33.67504
G1 X51.183 Y68.858 E33.6861
G1 X51.37 Y68.206 E33.74024
G1 X51.683 Y67.2 E33.82434
G1 X51.724 Y67.076 E33.83477
G1 X52.039 Y66.181 E33.91051
G1 X52.098 Y66.029 E33.92352
G1 X52.361 Y65.406 E33.9775
G1 X52.792 Y64.448 E34.06136
G1 X52.848 Y64.329 E34.07186
G1 X53.272 Y63.471 E34.14825
G1 X53.341 Y63.341 E34.16
G1 X53.65 Y62.801 E34.20966
G1 X54.288 Y61.746 E34.30808
G1 X54.818 Y60.939 E34.38515
G1 X54.906 Y60.813 E34.39742
G1 X55.236 Y60.371 E34.44145
G1 X55.445 Y60.101 E34.4687
G1 X56.038 Y59.347 E34.54527
G1 X56.676 Y58.591 E34.62424
G1 X56.762 Y58.496 E34.63447
G1 X57.191 Y58.045 E34.68416
G0 F9000 X57.6 Y57.636
G1 F1125 X57.6 Y162.363 E43.04392
G0 F9000 X59.2 Y163.837
G1 F1125 X59.2 Y56.158 E51.63932
G0 F9000 X60.8 Y54.925
G1 F1125 X60.8 Y165.084 E60.43269
G0 F9000 X62.4 Y166.106
G1 F1125 X62.4 Y53.892 E69.39009
G0 F9000 X64 Y53.005
G1 F1125 X64 Y166.989 E78.48879
G0 F9000 X65.6 Y167.721
G1 F1125 X65.6 Y52.28 E87.70379
G0 F9000 X67.2 Y51.683
G1 F1125 X67.2 Y168.317 E97.01402
G0 F9000 X68.8 Y168.8
G1 F1125 X68.8 Y51.207 E106.4008
G0 F9000 X70.4 Y50.851
G1 F1125 X70.4 Y169.147 E115.8437
G0 F9000 X72 Y169.41
G1 F1125 X72 Y50.59 E125.32843
G0 F9000 X73.6 Y50.457
G1 F1125 X73.6 Y169.542 E134.83431
G0 F9000 X75.2 Y169.6
G1 F1125 X75.2 Y50.4 E144.34937
G0 F9000 X76.8 Y50.4
G1 F1125 X76.8 Y169.6 E153.86443
G0 F9000 X78.4 Y169.6
G1 F1125 X78.4 Y50.4 E163.37948
G0 F9000 X80 Y50.4
G1 F1125 X80 Y169.6 E172.89454
G0 F9000 X81.6 Y169.6
G1 F1125 X81.6 Y50.4 E182.4096
G0 F9000 X83.2 Y50.4
G1 F1125 X83.2 Y169.6 E191.92466
G0 F9000 X84.8 Y169.6
G1 F1125 X84.8 Y50.4 E201.43972
G0 F9000 X86.4 Y50.4
G1 F1125 X86.4 Y169.6 E210.95478
G0 F9000 X88 Y169.6
G1 F1125 X88 Y50.4 E220.46984
G0 F9000 X89.6 Y50.4
G1 F1125 X89.6 Y169.6 E229.9849
G0 F9000 X91.2 Y169.6
G1 F1125 X91.2 Y50.4 E239.49996
G0 F9000 X92.8 Y50.4
G1 F1125 X92.8 Y169.6 E249.01502
G0 F9000 X94.4 Y169.6
G1 F1125 X94.4 Y50.4 E258.53008
G0 F9000 X96 Y50.4
G1 F1125 X96 Y169.6 E268.04514
G0 F9000 X97.6 Y169.6
G1 F1125 X97.6 Y50.4 E277.5602
G0 F9000 X99.2 Y50.4
G1 F1125 X99.2 Y169.6 E287.07526
G0 F9000 X100.8 Y169.6
G1 F1125 X100.8 Y50.4 E296.59032
G0 F9000 X102.4 Y50.4
G1 F1125 X102.4 Y169.6 E306.10538
G0 F9000 X104 Y169.6
G1 F1125 X104 Y50.4 E315.62044
G0 F9000 X105.6 Y50.4
G1 F1125 X105.6 Y169.6 E325.1355
G0 F9000 X107.2 Y169.6
G1 F1125 X107.2 Y50.4 E334.65055
G0 F9000 X108.8 Y50.4
G1 F1125 X108.8 Y169.6 E344.16561
G0 F9000 X110.4 Y169.6
G1 F1125 X110.4 Y50.4 E353.68067
G0 F9000 X112 Y50.4
G1 F1125 X112 Y169.6 E363.19573
G0 F9000 X113.6 Y169.6
G1 F1125 X113.6 Y50.4 E372.71079
G0 F9000 X115.2 Y50.4
G1 F1125 X115.2 Y169.6 E382.22585
G0 F9000 X116.8 Y169.6
G1 F1125 X116.8 Y50.4 E391.74091
G0 F9000 X118.4 Y50.4
G1 F1125 X118.4 Y169.6 E401.25597
G0 F9000 X120 Y169.6
G1 F1125 X120 Y50.4 E410.77103
G0 F9000 X121.6 Y50.4
G1 F1125 X121.6 Y169.6 E420.28609
G0 F9000 X123.2 Y169.6
G1 F1125 X123.2 Y50.4 E429.80115
G0 F9000 X124.8 Y50.4
G1 F1125 X124.8 Y169.6 E439.31621
G0 F9000 X126.4 Y169.6
G1 F1125 X126.4 Y50.4 E448.83127
G0 F9000 X128 Y50.4
G1 F1125 X128 Y169.6 E458.34633
G0 F9000 X129.6 Y169.6
G1 F1125 X129.6 Y50.4 E467.86139
G0 F9000 X131.2 Y50.4
G1 F1125 X131.2 Y169.6 E477.37645
G0 F9000 X132.8 Y169.6
G1 F1125 X132.8 Y50.4 E486.89151
G0 F9000 X134.4 Y50.4
G1 F1125 X134.4 Y169.6 E496.40656
G0 F9000 X136 Y169.6
G1 F1125 X136 Y50.4 E505.92162
G0 F9000 X137.6 Y50.4
G1 F1125 X137.6 Y169.6 E515.43668
G0 F9000 X139.2 Y169.6
G1 F1125 X139.2 Y50.4 E524.95174
G0 F9000 X140.8 Y50.4
G1 F1125 X140.8 Y169.6 E534.4668
G0 F9000 X142.4 Y169.6
G1 F1125 X142.4 Y50.4 E543.98186
G0 F9000 X144 Y50.4
G1 F1125 X144 Y169.6 E553.49692
G0 F9000 X145.6 Y169.581
G1 F1125 X145.6 Y50.42 E563.00887
G0 F9000 X147.2 Y50.511
G1 F1125 X147.2 Y169.492 E572.50645
G0 F9000 X148.8 Y169.292
G1 F1125 X148.8 Y50.707 E581.97241
G0 F9000 X150.4 Y51.015
G1 F1125 X150.4 Y168.992 E591.38985
G0 F9000 X152 Y168.566
G1 F1125 X152 Y51.434 E600.73983
G0 F9000 X153.6 Y51.963
G1 F1125 X153.6 Y168.044 E610.00592
G0 F9000 X155.2 Y167.366
G1 F1125 X155.2 Y52.635 E619.16424
G0 F9000 X156.8 Y53.423
G1 F1125 X156.8 Y166.57 E628.19612
G0 F9000 X158.4 Y165.619
G1 F1125 X158.4 Y54.384 E637.07538
G0 F9000 X160 Y55.526
G1 F1125 X160 Y164.475 E645.77216
G0 F9000 X161.6 Y163.139
G1 F1125 X161.6 Y56.854 E654.25629
G0 F9000 X163.2 Y58.467
G1 F1125 X163.2 Y161.544 E662.48434
G0 F9000 X164.8 Y159.581
G1 F1125 X164.8 Y60.423 E670.39956
G0 F9000 X166.4 Y62.895
G1 F1125 X166.4 Y157.112 E677.92037
G0 F9000 X168 Y153.709
G1 F1125 X168 Y66.29 E684.89854
G1 F1500 E678.39854
G0 F9000 X168.986 Y65.889
G0 X167.762 Y63.152
G0 X166.17 Y60.497
G0 X164.268 Y58.054
G0 X162.104 Y55.869
G0 X159.662 Y53.939
G0 X157.009 Y52.322
G0 X154.193 Y51.043
G0 X151.249 Y50.111
G0 X148.2 Y49.54
G0 X144.938 Y49.335
G0 X74.013 Y49.367
G0 X72.012 Y49.513
G0 X68.978 Y50.056
G0 X67.598 Y50.44
G0 X65.997 Y50.97
G0 X63.153 Y52.238
G0 X60.496 Y53.83
G0 X58.054 Y55.732
G0 X56.285 Y57.484
G0 X55.219 Y58.667
G0 X56 Y59.395
G1 F1500 E684.89854
G1 F1125 X56 Y160.605 E692.97756
G0 F9000 X54.4 Y158.428
G1 F1125 X54.4 Y61.575 E700.70878
G0 F9000 X52.8 Y64.431
G1 F1125 X52.8 Y155.57 E707.98389
G1 F1500 E701.48389
G0 F9000 X51.829 Y156.006
G0 X51.076 Y154.225
G0 X50.315 Y151.982
G0 X51.2 Y151.176
G1 F1500 E707.98389
G1 F1125 X51.2 Y68.798 E714.55966
G0 F300 X51.2 Y68.798 Z0.54
G0 F9000 X52.038 Y66.18
;TIME_ELAPSED:493.908305
;LAYER:-5
;TYPE:SUPPORT
G1 F1125 X153.814 Y167.956 E728.92135
G1 X153.613 Y168.038 E728.94301
G1 X153.457 Y168.096 E728.95962
G1 X153.017 Y168.245 E729.00597
G1 X152.814 Y168.311 E729.02727
G1 X152.769 Y168.325 E729.03197
G1 X51.672 Y67.228 E743.29785
G1 X51.37 Y68.205 E743.39989
G1 X51.34 Y68.31 E743.41078
G1 X151.687 Y168.658 E757.5709
G1 X150.75 Y168.913 E757.66779
G1 X150.66 Y168.936 E757.67706
G1 X150.569 Y168.954 E757.68632
G1 X51.049 Y69.434 E771.72967
G1 X50.919 Y70.028 E771.79034
G1 X50.811 Y70.61 E771.8494
G1 X149.386 Y169.185 E785.7594
G1 X148.885 Y169.278 E785.81024
G1 X148.169 Y169.383 E785.88245
G1 X50.609 Y71.822 E799.64929
G1 X50.597 Y71.921 E799.65924
G1 X50.505 Y72.84 E799.7514
G1 X50.495 Y72.972 E799.76461
G1 X50.486 Y73.114 E799.7788
G1 X146.885 Y169.512 E813.38167
G1 X145.933 Y169.569 E813.47683
G1 X145.539 Y169.581 E813.51617
G1 X50.416 Y74.458 E826.93905
G1 X50.402 Y74.929 E826.98607
G1 X50.4 Y75.071 E827.00024
G1 X50.4 Y75.856 E827.07856
G1 X144.143 Y169.598 E840.30664
G1 X142.728 Y169.598 E840.44783
G1 X50.4 Y77.27 E853.47631
G1 X50.4 Y78.684 E853.6174
G1 X141.314 Y169.598 E866.44635
G1 X139.9 Y169.598 E866.58744
G1 X50.4 Y80.098 E879.21685
G1 X50.4 Y81.513 E879.35804
G1 X138.486 Y169.598 E891.78786
G1 X137.071 Y169.598 E891.92905
G1 X50.4 Y82.927 E904.15926
G1 X50.4 Y84.341 E904.30035
G1 X135.657 Y169.598 E916.33104
G1 X134.243 Y169.598 E916.47213
G1 X50.4 Y85.755 E928.30328
G1 X50.4 Y87.17 E928.44447
G1 X132.829 Y169.598 E940.07602
G1 X131.415 Y169.598 E940.21711
G1 X50.4 Y88.584 E951.64913
G1 X50.4 Y89.998 E951.79022
G1 X130 Y169.598 E963.02264
G1 X128.586 Y169.598 E963.16373
G1 X50.4 Y91.412 E974.19662
G1 X50.4 Y92.826 E974.33771
G1 X127.172 Y169.598 E985.17107
G1 X125.758 Y169.598 E985.31216
G1 X50.4 Y94.241 E995.94591
G1 X50.4 Y95.655 E996.087
G1 X124.344 Y169.598 E1006.52123
G1 X122.929 Y169.598 E1006.66242
G1 X50.4 Y97.069 E1016.89704
G1 X50.4 Y98.483 E1017.03813
G1 X121.515 Y169.598 E1027.07323
G1 X120.101 Y169.598 E1027.21432
G1 X50.4 Y99.897 E1037.04988
G1 X50.4 Y101.312 E1037.19107
G1 X118.687 Y169.598 E1046.82703
G1 X117.272 Y169.598 E1046.96822
G1 X50.4 Y102.726 E1056.40458
G1 X50.4 Y104.14 E1056.54567
G1 X115.858 Y169.598 E1065.7825
G1 X114.444 Y169.598 E1065.92359
G1 X50.4 Y105.554 E1074.96089
G1 X50.4 Y106.968 E1075.10198
G1 X113.03 Y169.598 E1083.93975
G1 X111.616 Y169.598 E1084.08084
G1 X50.4 Y108.383 E1092.71901
G1 X50.4 Y109.797 E1092.8601
G1 X110.201 Y169.598 E1101.29867
G1 X108.787 Y169.598 E1101.43976
G1 X50.4 Y111.211 E1109.67879
G1 X50.4 Y112.625 E1109.81988
G1 X107.373 Y169.598 E1117.85939
G1 X105.959 Y169.598 E1118.00048
G1 X50.4 Y114.04 E1125.84038
G1 X50.4 Y115.454 E1125.98147
G1 X104.545 Y169.598 E1133.62185
G1 X103.13 Y169.598 E1133.76304
G1 X50.4 Y116.868 E1141.20381
G1 X50.4 Y118.282 E1141.3449
G1 X101.716 Y169.598 E1148.58614
G1 X100.302 Y169.598 E1148.72723
G1 X50.4 Y119.696 E1155.76894
G1 X50.4 Y121.111 E1155.91013
G1 X98.888 Y169.598 E1162.75224
G1 X97.473 Y169.598 E1162.89343
G1 X50.4 Y122.525 E1169.53594
G1 X50.4 Y123.939 E1169.67703
G1 X96.059 Y169.598 E1176.12001
G1 X94.645 Y169.598 E1176.26109
G1 X50.4 Y125.353 E1182.50454
G1 X50.4 Y126.767 E1182.64563
G1 X93.231 Y169.598 E1188.68955
G1 X91.817 Y169.598 E1188.83064
G1 X50.4 Y128.182 E1194.67495
G1 X50.4 Y129.596 E1194.81604
