;FLAVOR:Marlin
;TIME:10327
;Filament used: 9.29191m
;Layer height: 0.2
;MINX:53.124
;MINY:53.087
;MINZ:0.24
;MAXX:166.862
;MAXY:166.894
;MAXZ:4.09
;Generated with Cura_SteamEngine 4.9.1
M140 S60
M105
M190 S60
M104 S200
M105
M109 S200
M82 ;absolute extrusion mode
; Ender 3 Custom Start G-code
G92 E0 ; Reset Extruder
G28 ; Home all axes
G1 Z2.0 F3000 ; Move Z Axis up little to prevent scratching of Heat Bed
G1 X0.1 Y20 Z0.3 F5000.0 ; Move to start position
G1 X0.1 Y200.0 Z0.3 F1500.0 E15 ; Draw the first line
G1 X0.4 Y200.0 Z0.3 F5000.0 ; Move to side a little
G1 X0.4 Y20 Z0.3 F1500.0 E30 ; Draw the second line
G92 E0 ; Reset Extruder
G1 Z2.0 F3000 ; Move Z Axis up little to prevent scratching of Heat Bed
G1 X5 Y20 Z0.3 F5000.0 ; Move over to prevent blob squish
G92 E0
G92 E0
G1 F1500 E-6.5
;LAYER_COUNT:15
;LAYER:-6
M107
G0 F9000 X60.157 Y60.821 Z0.24
;TYPE:SUPPORT-INTERFACE
G1 F1500 E0
G1 F1125 X60.861 Y60.118 E0.07942
G1 X61.565 Y59.465 E0.15607
G1 X61.675 Y59.37 E0.16767
G1 X62.452 Y58.746 E0.24722
G1 X63.232 Y58.163 E0.32495
G1 X64.019 Y57.618 E0.40136
G1 X64.17 Y57.521 E0.41569
G1 X65.007 Y57.026 E0.49331
G1 X65.81 Y56.588 E0.56633
G1 X66.737 Y56.124 E0.64908
G1 X66.87 Y56.064 E0.66072
G1 X67.783 Y55.687 E0.73957
G1 X68.681 Y55.353 E0.81605
G1 X69.627 Y55.039 E0.89562
G1 X69.755 Y55.002 E0.90625
G1 X70.684 Y54.766 E0.98276
G1 X71.677 Y54.55 E1.06388
G1 X72.606 Y54.384 E1.13922
G1 X72.788 Y54.358 E1.15389
G1 X73.647 Y54.265 E1.22286
G1 X73.793 Y54.252 E1.23456
G1 X74.654 Y54.191 E1.30346
G1 X75.784 Y54.15 E1.39372
G1 X105.753 Y54.151 E3.78598
G1 X106.754 Y54.187 E3.86593
G1 X106.877 Y54.196 E3.87578
G1 X107.794 Y54.298 E3.94943
G1 X107.969 Y54.323 E3.96354
G1 X108.858 Y54.487 E4.0357
G1 X108.981 Y54.515 E4.04577
G1 X109.384 Y54.62 E4.07901
G1 X110.042 Y54.747 E4.13251
G1 X110.723 Y54.793 E4.18699
G1 X111.405 Y54.752 E4.24153
G1 X111.549 Y54.739 E4.25307
G1 X112.106 Y54.616 E4.29861
G1 X112.132 Y54.608 E4.30078
G1 X113.028 Y54.408 E4.37406
G1 X113.158 Y54.385 E4.3846
G1 X114.063 Y54.251 E4.45763
G1 X114.232 Y54.233 E4.47119
G1 X115.121 Y54.167 E4.54235
G1 X115.305 Y54.158 E4.55706
G1 X115.81 Y54.15 E4.59737
G1 X144.258 Y54.151 E6.86822
G1 X145.346 Y54.191 E6.95512
G1 X146.313 Y54.261 E7.03252
G1 X147.263 Y54.365 E7.1088
G1 X147.423 Y54.388 E7.12171
G1 X148.327 Y54.552 E7.19504
G1 X149.302 Y54.763 E7.27467
G1 X150.282 Y55.013 E7.35541
G1 X150.457 Y55.064 E7.36996
G1 X151.37 Y55.371 E7.44685
G1 X152.212 Y55.685 E7.51858
G1 X152.315 Y55.726 E7.52743
G1 X153.156 Y56.076 E7.60014
G1 X153.312 Y56.147 E7.61383
G1 X154.099 Y56.541 E7.68408
G1 X154.209 Y56.598 E7.69397
G1 X154.95 Y57.003 E7.76138
G1 X155.068 Y57.07 E7.77221
G1 X155.868 Y57.544 E7.84644
G1 X156.011 Y57.636 E7.86001
G1 X156.823 Y58.203 E7.93907
G1 X157.514 Y58.72 E8.00795
G1 X157.615 Y58.798 E8.01814
G1 X158.35 Y59.391 E8.09353
G1 X158.463 Y59.489 E8.10547
G1 X159.179 Y60.157 E8.18363
G1 X159.882 Y60.861 E8.26305
G1 X160.535 Y61.565 E8.3397
G1 X160.63 Y61.675 E8.3513
G1 X161.254 Y62.452 E8.43085
G1 X161.798 Y63.177 E8.5032
G1 X162.382 Y64.019 E8.585
G1 X162.479 Y64.17 E8.59932
G1 X162.974 Y65.007 E8.67695
G1 X163.413 Y65.811 E8.75007
G1 X163.876 Y66.737 E8.83271
G1 X163.936 Y66.87 E8.84436
G1 X164.282 Y67.704 E8.91643
G1 X164.641 Y68.663 E8.99817
G1 X164.961 Y69.627 E9.07925
G1 X164.998 Y69.755 E9.08989
G1 X165.233 Y70.679 E9.16599
G1 X165.45 Y71.677 E9.24752
G1 X165.616 Y72.606 E9.32285
G1 X165.642 Y72.788 E9.33753
G1 X165.735 Y73.647 E9.4065
G1 X165.749 Y73.809 E9.41948
G1 X165.814 Y74.733 E9.49342
G1 X165.85 Y75.764 E9.57577
G1 X165.85 Y144.236 E15.0415
G1 X165.809 Y145.346 E15.13016
G1 X165.749 Y146.198 E15.19834
G1 X165.637 Y147.249 E15.28271
G1 X165.612 Y147.423 E15.29674
G1 X165.449 Y148.323 E15.36975
G1 X165.239 Y149.294 E15.44906
G1 X164.987 Y150.282 E15.53045
G1 X164.936 Y150.457 E15.545
G1 X164.629 Y151.37 E15.62189
G1 X164.315 Y152.212 E15.69362
G1 X164.276 Y152.31 E15.70204
G1 X163.924 Y153.156 E15.77518
G1 X163.853 Y153.312 E15.78887
G1 X163.465 Y154.089 E15.85819
G1 X163.404 Y154.205 E15.86865
G1 X162.997 Y154.95 E15.93642
G1 X162.93 Y155.068 E15.94725
G1 X162.456 Y155.868 E16.02148
G1 X162.364 Y156.011 E16.03505
G1 X161.797 Y156.823 E16.11411
G1 X161.28 Y157.514 E16.18299
G1 X161.202 Y157.615 E16.19318
G1 X160.609 Y158.35 E16.26857
G1 X160.511 Y158.463 E16.28051
G1 X159.843 Y159.179 E16.35867
G1 X159.139 Y159.882 E16.43809
G1 X158.435 Y160.535 E16.51474
G1 X158.325 Y160.63 E16.52634
G1 X157.548 Y161.254 E16.60589
G1 X156.768 Y161.837 E16.68362
G1 X155.981 Y162.382 E16.76004
G1 X155.83 Y162.479 E16.77436
G1 X154.993 Y162.974 E16.85199
G1 X154.132 Y163.443 E16.93025
G1 X153.263 Y163.876 E17.00775
G1 X153.13 Y163.936 E17.0194
G1 X152.217 Y164.313 E17.09825
G1 X151.319 Y164.647 E17.17473
G1 X150.373 Y164.961 E17.25429
G1 X150.245 Y164.998 E17.26493
G1 X149.316 Y165.234 E17.34144
G1 X148.323 Y165.45 E17.42256
G1 X147.394 Y165.616 E17.49789
G1 X147.212 Y165.642 E17.51256
G1 X146.353 Y165.735 E17.58153
G1 X146.207 Y165.748 E17.59324
G1 X145.346 Y165.809 E17.66214
G1 X144.216 Y165.85 E17.7524
G1 X75.742 Y165.849 E23.21829
G1 X74.654 Y165.809 E23.3052
G1 X73.687 Y165.739 E23.38259
G1 X72.737 Y165.635 E23.45887
G1 X72.577 Y165.612 E23.47178
G1 X71.673 Y165.448 E23.54512
G1 X70.698 Y165.237 E23.62475
G1 X69.718 Y164.987 E23.70548
G1 X69.543 Y164.936 E23.72003
G1 X68.63 Y164.629 E23.79692
G1 X67.788 Y164.315 E23.86865
G1 X67.685 Y164.274 E23.8775
G1 X66.844 Y163.924 E23.95022
G1 X66.686 Y163.852 E23.96408
G1 X65.878 Y163.447 E24.03622
G1 X65.032 Y162.987 E24.11309
G1 X64.931 Y162.93 E24.12235
G1 X64.126 Y162.452 E24.19708
G1 X63.984 Y162.361 E24.21054
G1 X63.17 Y161.792 E24.28982
G1 X62.468 Y161.266 E24.35984
G1 X62.379 Y161.197 E24.36883
G1 X61.65 Y160.609 E24.4436
G1 X61.527 Y160.502 E24.45661
G1 X60.815 Y159.837 E24.53438
G1 X60.118 Y159.139 E24.61312
G1 X59.456 Y158.425 E24.69084
G1 X59.37 Y158.325 E24.70137
G1 X58.791 Y157.605 E24.77512
G1 X58.72 Y157.514 E24.78434
G1 X58.163 Y156.768 E24.85865
G1 X57.61 Y155.969 E24.93622
G1 X57.521 Y155.83 E24.94939
G1 X57.021 Y154.984 E25.02784
G1 X56.557 Y154.132 E25.10528
G1 X56.124 Y153.263 E25.18278
G1 X56.064 Y153.13 E25.19443
G1 X55.684 Y152.21 E25.27388
G1 X55.352 Y151.319 E25.34978
G1 X55.039 Y150.375 E25.42917
G1 X55.002 Y150.245 E25.43996
G1 X54.766 Y149.317 E25.5164
G1 X54.55 Y148.323 E25.59759
G1 X54.384 Y147.394 E25.67292
G1 X54.358 Y147.212 E25.6876
G1 X54.265 Y146.353 E25.75657
G1 X54.25 Y146.183 E25.77019
G1 X54.191 Y145.346 E25.83717
G1 X54.15 Y144.236 E25.92584
G1 X54.15 Y75.764 E31.39157
G1 X54.186 Y74.733 E31.47392
G1 X54.251 Y73.802 E31.54841
G1 X54.363 Y72.751 E31.63278
G1 X54.388 Y72.577 E31.64682
G1 X54.573 Y71.562 E31.72917
G1 X54.778 Y70.635 E31.80496
G1 X55.013 Y69.718 E31.88052
G1 X55.064 Y69.543 E31.89507
G1 X55.371 Y68.63 E31.97196
G1 X55.685 Y67.788 E32.0437
G1 X55.726 Y67.685 E32.05255
G1 X56.076 Y66.844 E32.12526
G1 X56.147 Y66.688 E32.13894
G1 X56.535 Y65.911 E32.20827
G1 X56.596 Y65.795 E32.21873
G1 X57.003 Y65.049 E32.28656
G1 X57.071 Y64.929 E32.29757
G1 X57.544 Y64.132 E32.37155
G1 X57.636 Y63.989 E32.38513
G1 X58.203 Y63.177 E32.46418
G1 X58.72 Y62.486 E32.53307
G1 X58.798 Y62.385 E32.54326
G1 X59.391 Y61.65 E32.61864
G1 X59.489 Y61.537 E32.63058
G1 X60.157 Y60.821 E32.70875
G0 F9000 X60.8 Y60.178
G1 F1125 X60.8 Y159.821 E40.66268
G0 F9000 X62.4 Y161.213
G1 F1125 X62.4 Y58.787 E48.83877
G0 F9000 X64 Y57.631
G1 F1125 X64 Y162.371 E57.19957
G0 F9000 X65.6 Y163.295
G1 F1125 X65.6 Y56.702 E65.70828
G0 F9000 X67.2 Y55.927
G1 F1125 X67.2 Y164.072 E74.34089
G0 F9000 X68.8 Y164.686
G1 F1125 X68.8 Y55.313 E83.07151
G0 F9000 X70.4 Y54.838
G1 F1125 X70.4 Y165.16 E91.87789
G0 F9000 X72 Y165.507
G1 F1125 X72 Y54.492 E100.73959
G0 F9000 X73.6 Y54.27
G1 F1125 X73.6 Y165.729 E109.63673
G0 F9000 X75.2 Y165.829
G1 F1125 X75.2 Y54.171 E118.54975
G0 F9000 X76.8 Y54.151
G1 F1125 X76.8 Y165.849 E127.46597
G0 F9000 X78.4 Y165.849
G1 F1125 X78.4 Y54.151 E136.38219
G0 F9000 X80 Y54.151
G1 F1125 X80 Y165.849 E145.2984
G0 F9000 X81.6 Y165.849
G1 F1125 X81.6 Y54.151 E154.21462
G0 F9000 X83.2 Y54.151
G1 F1125 X83.2 Y165.849 E163.13084
G0 F9000 X84.8 Y165.849
G1 F1125 X84.8 Y54.151 E172.04706
G0 F9000 X86.4 Y54.151
G1 F1125 X86.4 Y165.849 E180.96327
G0 F9000 X88 Y165.849
G1 F1125 X88 Y54.151 E189.87949
G0 F9000 X89.6 Y54.151
G1 F1125 X89.6 Y165.849 E198.79571
G0 F9000 X91.2 Y165.849
G1 F1125 X91.2 Y54.151 E207.71193
G0 F9000 X92.8 Y54.151
G1 F1125 X92.8 Y165.849 E216.62814
G0 F9000 X94.4 Y165.849
G1 F1125 X94.4 Y54.151 E225.54436
G0 F9000 X96 Y54.151
G1 F1125 X96 Y165.849 E234.46058
G0 F9000 X97.6 Y165.849
G1 F1125 X97.6 Y54.151 E243.3768
G0 F9000 X99.2 Y54.151
G1 F1125 X99.2 Y165.849 E252.29301
G0 F9000 X100.8 Y165.849
G1 F1125 X100.8 Y54.151 E261.20923
G0 F9000 X102.4 Y54.151
G1 F1125 X102.4 Y165.849 E270.12545
G0 F9000 X104 Y165.849
G1 F1125 X104 Y54.151 E279.04166
G0 F9000 X105.6 Y54.151
G1 F1125 X105.6 Y165.849 E287.95788
G0 F9000 X107.2 Y165.849
G1 F1125 X107.2 Y54.232 E296.86763
G0 F9000 X108.8 Y54.477
G1 F1125 X108.8 Y165.849 E305.75783
G0 F9000 X110.4 Y165.849
G1 F1125 X110.4 Y54.772 E314.62447
G0 F9000 X112 Y54.639
G1 F1125 X112 Y165.849 E323.50174
G0 F9000 X113.6 Y165.849
G1 F1125 X113.6 Y54.319 E332.40454
G0 F9000 X115.2 Y54.163
G1 F1125 X115.2 Y165.849 E341.3198
G0 F9000 X116.8 Y165.849
G1 F1125 X116.8 Y54.151 E350.23602
G0 F9000 X118.4 Y54.151
G1 F1125 X118.4 Y165.849 E359.15224
G0 F9000 X120 Y165.849
G1 F1125 X120 Y54.151 E368.06846
G0 F9000 X121.6 Y54.151
G1 F1125 X121.6 Y165.849 E376.98467
G0 F9000 X123.2 Y165.849
G1 F1125 X123.2 Y54.151 E385.90089
G0 F9000 X124.8 Y54.151
G1 F1125 X124.8 Y165.849 E394.81711
G0 F9000 X126.4 Y165.849
G1 F1125 X126.4 Y54.151 E403.73333
G0 F9000 X128 Y54.151
G1 F1125 X128 Y165.849 E412.64954
G0 F9000 X129.6 Y165.849
G1 F1125 X129.6 Y54.151 E421.56576
G0 F9000 X131.2 Y54.151
G1 F1125 X131.2 Y165.849 E430.48198
G0 F9000 X132.8 Y165.849
G1 F1125 X132.8 Y54.151 E439.3982
G0 F9000 X134.4 Y54.151
G1 F1125 X134.4 Y165.849 E448.31441
G0 F9000 X136 Y165.849
G1 F1125 X136 Y54.151 E457.23063
G0 F9000 X137.6 Y54.151
G1 F1125 X137.6 Y165.849 E466.14685
G0 F9000 X139.2 Y165.849
G1 F1125 X139.2 Y54.151 E475.06306
G0 F9000 X140.8 Y54.151
G1 F1125 X140.8 Y165.849 E483.97928
G0 F9000 X142.4 Y165.849
G1 F1125 X142.4 Y54.151 E492.8955
G0 F9000 X144 Y54.151
G1 F1125 X144 Y165.849 E501.81172
G0 F9000 X145.6 Y165.792
G1 F1125 X145.6 Y54.21 E510.71867
G0 F9000 X147.2 Y54.359
G1 F1125 X147.2 Y165.644 E519.60192
G0 F9000 X148.8 Y165.347
G1 F1125 X148.8 Y54.655 E528.43784
G0 F9000 X150.4 Y55.048
G1 F1125 X150.4 Y164.953 E537.21093
G0 F9000 X152 Y164.394
G1 F1125 X152 Y55.606 E545.89486
G0 F9000 X153.6 Y56.292
G1 F1125 X153.6 Y163.709 E554.46935
G0 F9000 X155.2 Y162.852
G1 F1125 X155.2 Y57.149 E562.90702
G0 F9000 X156.8 Y58.187
G1 F1125 X156.8 Y161.814 E571.17897
G0 F9000 X158.4 Y160.566
G1 F1125 X158.4 Y59.435 E579.25169
G0 F9000 X160 Y60.989
G1 F1125 X160 Y159.011 E587.07623
G0 F9000 X161.6 Y157.087
G1 F1125 X161.6 Y62.914 E594.59352
G0 F9000 X163.2 Y65.421
G1 F1125 X163.2 Y154.579 E601.7105
G0 F9000 X164.8 Y150.862
G1 F1125 X164.8 Y69.142 E608.23374
G1 F1500 E601.73374
G0 F9000 X165.81 Y68.807
G0 X164.834 Y66.272
G0 X163.382 Y63.606
G0 X162.042 Y61.732
G0 X160.606 Y60.079
G0 X159.039 Y58.58
G0 X156.61 Y56.756
G0 X154.59 Y55.596
G0 X152.59 Y54.69
G0 X150.569 Y53.988
G0 X147.6 Y53.338
G0 X145.308 Y53.124
G0 X74.692 Y53.124
G0 X72.429 Y53.334
G0 X69.482 Y53.973
G0 X67.307 Y54.73
G0 X65.316 Y55.645
G0 X63.434 Y56.728
G0 X60.998 Y58.548
G0 X60.06 Y59.445
G0 X58.58 Y60.961
G0 X59.2 Y61.886
G1 F1500 E608.23374
G1 F1125 X59.2 Y158.113 E615.915
G0 F9000 X57.6 Y155.953
G1 F1125 X57.6 Y64.044 E623.25157
G0 F9000 X56 Y67.026
G1 F1125 X56 Y152.975 E630.11239
G1 F1500 E623.61239
G0 F9000 X54.73 Y152.693
G0 X54.049 Y150.736
G0 X53.504 Y148.518
G0 X54.4 Y147.483
G1 F1500 E630.11239
G1 F1125 X54.4 Y72.511 E636.09698
G0 F300 X54.4 Y72.511 Z0.54
G0 F9000 X54.363 Y72.747
;TIME_ELAPSED:440.882538
;LAYER:-5
;TYPE:SUPPORT
G1 F1125 X147.25 Y165.635 E649.20441
G1 X147.394 Y165.615 E649.21892
G1 X148.323 Y165.449 E649.31308
G1 X148.45 Y165.421 E649.32606
G1 X54.575 Y71.545 E662.57291
G1 X54.778 Y70.634 E662.66604
G1 X54.838 Y70.395 E662.69062
G1 X149.603 Y165.159 E676.06292
G1 X150.245 Y164.997 E676.12899
G1 X150.372 Y164.96 E676.14219
G1 X150.707 Y164.849 E676.1774
G1 X55.147 Y69.29 E689.66188
G1 X55.37 Y68.628 E689.73158
G1 X55.514 Y68.242 E689.77269
G1 X151.755 Y164.483 E703.35333
G1 X152.216 Y164.312 E703.40239
G1 X152.769 Y164.083 E703.46211
G1 X55.915 Y67.228 E717.12933
G1 X56.075 Y66.843 E717.17093
G1 X56.147 Y66.687 E717.18808
G1 X56.359 Y66.259 E717.23573
G1 X153.738 Y163.637 E730.97689
G1 X154.132 Y163.442 E731.02076
G1 X154.665 Y163.15 E731.0814
G1 X56.847 Y65.332 E744.88457
G1 X57.002 Y65.048 E744.91686
G1 X57.071 Y64.928 E744.93067
G1 X57.363 Y64.434 E744.98793
G1 X155.564 Y162.635 E758.84515
G1 X155.83 Y162.478 E758.87597
G1 X155.98 Y162.381 E758.89379
G1 X156.419 Y162.076 E758.94713
G1 X57.921 Y63.578 E772.84626
G1 X58.202 Y63.176 E772.8952
G1 X58.515 Y62.757 E772.94739
G1 X157.24 Y161.482 E786.87855
G1 X157.548 Y161.253 E786.91685
G1 X158.034 Y160.862 E786.97909
G1 X59.136 Y61.964 E800.93466
G1 X59.39 Y61.649 E800.97504
G1 X59.488 Y61.536 E800.98996
G1 X59.794 Y61.208 E801.03472
G1 X158.79 Y160.204 E815.00413
G1 X159.138 Y159.881 E815.0515
G1 X159.509 Y159.509 E815.10393
G1 X60.489 Y60.489 E829.07672
G1 X60.86 Y60.118 E829.12907
G1 X61.209 Y59.795 E829.17652
G1 X160.204 Y158.79 E843.14578
G1 X160.51 Y158.462 E843.19054
G1 X160.608 Y158.35 E843.20539
G1 X160.863 Y158.034 E843.24591
G1 X61.965 Y59.136 E857.20148
G1 X62.45 Y58.745 E857.26365
G1 X62.759 Y58.516 E857.30202
G1 X161.484 Y157.241 E871.23319
G1 X161.796 Y156.822 E871.28531
G1 X162.078 Y156.421 E871.33423
G1 X63.579 Y57.922 E885.2335
G1 X64.018 Y57.617 E885.28684
G1 X64.169 Y57.521 E885.30469
G1 X64.435 Y57.364 E885.33551
G1 X162.635 Y155.564 E899.19259
G1 X162.929 Y155.067 E899.25021
G1 X162.996 Y154.949 E899.26375
G1 X163.151 Y154.666 E899.29594
G1 X65.333 Y56.848 E913.09912
G1 X65.809 Y56.588 E913.15324
G1 X66.261 Y56.362 E913.20366
G1 X163.639 Y153.739 E926.94468
G1 X163.852 Y153.312 E926.99229
G1 X163.923 Y153.155 E927.00949
G1 X164.084 Y152.77 E927.05113
G1 X67.229 Y55.915 E940.71841
G1 X67.782 Y55.686 E940.77814
G1 X68.243 Y55.515 E940.8272
G1 X164.485 Y151.757 E954.40798
G1 X164.628 Y151.37 E954.44915
G1 X164.851 Y150.709 E954.51876
G1 X69.292 Y55.15 E968.00316
G1 X69.626 Y55.039 E968.03828
G1 X69.753 Y55.002 E968.05148
G1 X70.396 Y54.839 E968.11767
G1 X165.159 Y149.603 E981.48982
G1 X165.238 Y149.294 E981.52165
G1 X165.421 Y148.45 E981.60782
G1 X71.548 Y54.578 E994.85424
G1 X71.675 Y54.549 E994.86724
G1 X72.605 Y54.384 E994.96149
G1 X72.748 Y54.363 E994.97591
G1 X165.636 Y147.251 E1008.08341
G0 F9000 X165.636 Y147.248
G1 F1125 X165.747 Y146.197 E1008.18886
G1 X165.764 Y145.965 E1008.21207
G1 X74.034 Y54.235 E1021.15617
G1 X74.653 Y54.191 E1021.21809
G1 X75.378 Y54.165 E1021.29047
G1 X165.834 Y144.621 E1034.05479
G1 X165.849 Y144.235 E1034.09334
G1 X165.849 Y143.221 E1034.19451
G1 X76.778 Y54.15 E1046.76339
G1 X78.192 Y54.15 E1046.90448
G1 X165.849 Y141.807 E1059.27383
G1 X165.849 Y140.393 E1059.41492
G1 X79.606 Y54.15 E1071.58474
G1 X81.021 Y54.15 E1071.72593
G1 X165.849 Y138.979 E1083.69615
G1 X165.849 Y137.564 E1083.83734
G1 X82.435 Y54.15 E1095.60795
G1 X83.849 Y54.15 E1095.74904
G1 X165.849 Y136.15 E1107.32013
G1 X165.849 Y134.736 E1107.46122
G1 X85.263 Y54.15 E1118.83277
G1 X86.677 Y54.15 E1118.97386
G1 X165.849 Y133.322 E1130.14589
G1 X165.849 Y131.907 E1130.28708
G1 X88.092 Y54.15 E1141.25943
G1 X89.506 Y54.15 E1141.40052
G1 X165.849 Y130.493 E1152.17334
G1 X165.849 Y129.079 E1152.31443
G1 X90.92 Y54.15 E1162.88772
G1 X92.334 Y54.15 E1163.02881
G1 X165.849 Y127.665 E1173.40257
G1 X165.849 Y126.251 E1173.54366
G1 X93.748 Y54.15 E1183.71789
G1 X95.163 Y54.15 E1183.85908
G1 X165.849 Y124.836 E1193.83364
G1 X165.849 Y123.422 E1193.97473
G1 X96.577 Y54.15 E1203.74976
G1 X97.991 Y54.15 E1203.89084
