;FLAVOR:Marlin
;TIME:10072
;Filament used: 8.89466m
;Layer height: 0.2
;MINX:53.124
;MINY:53.085
;MINZ:0.24
;MAXX:166.915
;MAXY:166.915
;MAXZ:4.09
;Generated with Cura_SteamEngine 4.9.1
M140 S60
M105
M190 S60
M104 S200
M105
M109 S200
M82 ;absolute extrusion mode
; Ender 3 Custom Start G-code
G92 E0 ; Reset Extruder
G28 ; Home all axes
G1 Z2.0 F3000 ; Move Z Axis up little to prevent scratching of Heat Bed
G1 X0.1 Y20 Z0.3 F5000.0 ; Move to start position
G1 X0.1 Y200.0 Z0.3 F1500.0 E15 ; Draw the first line
G1 X0.4 Y200.0 Z0.3 F5000.0 ; Move to side a little
G1 X0.4 Y20 Z0.3 F1500.0 E30 ; Draw the second line
G92 E0 ; Reset Extruder
G1 Z2.0 F3000 ; Move Z Axis up little to prevent scratching of Heat Bed
G1 X5 Y20 Z0.3 F5000.0 ; Move over to prevent blob squish
G92 E0
G92 E0
G1 F1500 E-6.5
;LAYER_COUNT:15
;LAYER:-6
M107
G0 F9000 X60.157 Y60.821 Z0.24
;TYPE:SUPPORT-INTERFACE
G1 F1500 E0
G1 F1125 X60.861 Y60.118 E0.07942
G1 X61.565 Y59.465 E0.15607
G1 X61.675 Y59.37 E0.16767
G1 X62.452 Y58.746 E0.24722
G1 X63.232 Y58.163 E0.32495
G1 X64.019 Y57.618 E0.40136
G1 X64.17 Y57.521 E0.41569
G1 X65.007 Y57.026 E0.49331
G1 X65.81 Y56.588 E0.56633
G1 X66.737 Y56.124 E0.64908
G1 X66.87 Y56.064 E0.66072
G1 X67.783 Y55.687 E0.73957
G1 X68.681 Y55.353 E0.81605
G1 X69.627 Y55.039 E0.89562
G1 X69.755 Y55.002 E0.90625
G1 X70.684 Y54.766 E0.98276
G1 X71.677 Y54.55 E1.06388
G1 X72.606 Y54.384 E1.13922
G1 X72.788 Y54.358 E1.15389
G1 X73.647 Y54.265 E1.22286
G1 X73.793 Y54.252 E1.23456
G1 X74.654 Y54.191 E1.30346
G1 X75.784 Y54.15 E1.39372
G1 X105.753 Y54.151 E3.78598
G1 X106.754 Y54.187 E3.86593
G1 X106.877 Y54.196 E3.87578
G1 X107.794 Y54.298 E3.94943
G1 X107.969 Y54.323 E3.96354
G1 X108.858 Y54.487 E4.0357
G1 X108.981 Y54.515 E4.04577
G1 X109.384 Y54.62 E4.07901
G1 X110.042 Y54.747 E4.13251
G1 X110.723 Y54.793 E4.18699
G1 X111.405 Y54.752 E4.24153
G1 X111.549 Y54.739 E4.25307
G1 X112.106 Y54.616 E4.29861
G1 X112.132 Y54.608 E4.30078
G1 X113.028 Y54.408 E4.37406
G1 X113.158 Y54.385 E4.3846
G1 X114.063 Y54.251 E4.45763
G1 X114.232 Y54.233 E4.47119
G1 X115.121 Y54.167 E4.54235
G1 X115.305 Y54.158 E4.55706
G1 X115.81 Y54.15 E4.59737
G1 X144.258 Y54.151 E6.86822
G1 X145.346 Y54.191 E6.95512
G1 X146.313 Y54.261 E7.03252
G1 X147.263 Y54.365 E7.1088
G1 X147.423 Y54.388 E7.12171
G1 X148.327 Y54.552 E7.19504
G1 X149.302 Y54.763 E7.27467
G1 X150.282 Y55.013 E7.35541
G1 X150.457 Y55.064 E7.36996
G1 X151.37 Y55.371 E7.44685
G1 X152.212 Y55.685 E7.51858
G1 X152.315 Y55.726 E7.52743
G1 X153.156 Y56.076 E7.60014
G1 X153.312 Y56.147 E7.61383
G1 X154.099 Y56.541 E7.68408
G1 X154.209 Y56.598 E7.69397
G1 X154.95 Y57.003 E7.76138
G1 X155.068 Y57.07 E7.77221
G1 X155.868 Y57.544 E7.84644
G1 X156.011 Y57.636 E7.86001
G1 X156.823 Y58.203 E7.93907
G1 X157.514 Y58.72 E8.00795
G1 X157.615 Y58.798 E8.01814
G1 X158.35 Y59.391 E8.09353
G1 X158.463 Y59.489 E8.10547
G1 X159.179 Y60.157 E8.18363
G1 X159.882 Y60.861 E8.26305
G1 X160.535 Y61.565 E8.3397
G1 X160.63 Y61.675 E8.3513
G1 X161.254 Y62.452 E8.43085
G1 X161.798 Y63.177 E8.5032
G1 X162.382 Y64.019 E8.585
G1 X162.479 Y64.17 E8.59932
G1 X162.974 Y65.007 E8.67695
G1 X163.413 Y65.811 E8.75007
G1 X163.876 Y66.737 E8.83271
G1 X163.936 Y66.87 E8.84436
G1 X164.282 Y67.704 E8.91643
G1 X164.641 Y68.663 E8.99817
G1 X164.961 Y69.627 E9.07925
G1 X164.998 Y69.755 E9.08989
G1 X165.233 Y70.679 E9.16599
G1 X165.45 Y71.677 E9.24752
G1 X165.616 Y72.606 E9.32285
G1 X165.642 Y72.788 E9.33753
G1 X165.735 Y73.647 E9.4065
G1 X165.749 Y73.809 E9.41948
G1 X165.814 Y74.733 E9.49342
G1 X165.85 Y75.764 E9.57577
G1 X165.85 Y144.236 E15.0415
G1 X165.809 Y145.346 E15.13016
G1 X165.749 Y146.198 E15.19834
G1 X165.637 Y147.249 E15.28271
G1 X165.612 Y147.423 E15.29674
G1 X165.449 Y148.323 E15.36975
G1 X165.239 Y149.294 E15.44906
G1 X164.987 Y150.282 E15.53045
G1 X164.936 Y150.457 E15.545
G1 X164.629 Y151.37 E15.62189
G1 X164.315 Y152.212 E15.69362
G1 X164.276 Y152.31 E15.70204
G1 X163.924 Y153.156 E15.77518
G1 X163.853 Y153.312 E15.78887
G1 X163.465 Y154.089 E15.85819
G1 X163.404 Y154.205 E15.86865
G1 X162.997 Y154.95 E15.93642
G1 X162.93 Y155.068 E15.94725
G1 X162.456 Y155.868 E16.02148
G1 X162.364 Y156.011 E16.03505
G1 X161.797 Y156.823 E16.11411
G1 X161.28 Y157.514 E16.18299
G1 X161.202 Y157.615 E16.19318
G1 X160.609 Y158.35 E16.26857
G1 X160.511 Y158.463 E16.28051
G1 X159.843 Y159.179 E16.35867
G1 X159.139 Y159.882 E16.43809
G1 X158.435 Y160.535 E16.51474
G1 X158.325 Y160.63 E16.52634
G1 X157.548 Y161.254 E16.60589
G1 X156.768 Y161.837 E16.68362
G1 X155.981 Y162.382 E16.76004
G1 X155.83 Y162.479 E16.77436
G1 X154.993 Y162.974 E16.85199
G1 X154.132 Y163.443 E16.93025
G1 X153.263 Y163.876 E17.00775
G1 X153.13 Y163.936 E17.0194
G1 X152.217 Y164.313 E17.09825
G1 X151.319 Y164.647 E17.17473
G1 X150.373 Y164.961 E17.25429
G1 X150.245 Y164.998 E17.26493
G1 X149.316 Y165.234 E17.34144
G1 X148.323 Y165.45 E17.42256
G1 X147.394 Y165.616 E17.49789
G1 X147.212 Y165.642 E17.51256
G1 X146.353 Y165.735 E17.58153
G1 X146.207 Y165.748 E17.59324
G1 X145.346 Y165.809 E17.66214
G1 X144.216 Y165.85 E17.7524
G1 X121.747 Y165.849 E19.54597
G1 X120.746 Y165.813 E19.62593
G1 X120.623 Y165.804 E19.63577
G1 X119.706 Y165.702 E19.70942
G1 X119.531 Y165.677 E19.72353
G1 X118.642 Y165.513 E19.79569
G1 X118.519 Y165.485 E19.80576
G1 X117.625 Y165.251 E19.87953
G1 X117.462 Y165.202 E19.89312
G1 X116.62 Y164.916 E19.9641
G1 X116.454 Y164.852 E19.9783
G1 X115.651 Y164.511 E20.04794
G1 X115.462 Y164.423 E20.06458
G1 X114.668 Y164.015 E20.13584
G1 X114.551 Y163.948 E20.1466
G1 X113.776 Y163.476 E20.21904
G1 X113.73 Y163.446 E20.22342
G1 X113.148 Y163.109 E20.27711
G1 X112.52 Y162.845 E20.33148
G1 X111.862 Y162.661 E20.38602
G1 X111.186 Y162.563 E20.44055
G1 X110.503 Y162.55 E20.49508
G1 X109.825 Y162.623 E20.54951
G1 X109.16 Y162.782 E20.60409
G1 X108.519 Y163.024 E20.65878
G1 X107.772 Y163.437 E20.72692
G1 X107.439 Y163.659 E20.75887
G1 X107.301 Y163.742 E20.77172
G1 X106.507 Y164.188 E20.84442
G1 X106.356 Y164.266 E20.85798
G1 X105.542 Y164.649 E20.92979
G1 X105.399 Y164.709 E20.94217
G1 X104.54 Y165.038 E21.0156
G1 X104.39 Y165.09 E21.02827
G1 X103.54 Y165.345 E21.09911
G1 X103.367 Y165.392 E21.11342
G1 X102.472 Y165.592 E21.18662
G1 X102.342 Y165.615 E21.19716
G1 X101.437 Y165.749 E21.27019
G1 X101.269 Y165.767 E21.28368
G1 X100.379 Y165.833 E21.35492
G1 X100.195 Y165.842 E21.36962
G1 X99.69 Y165.85 E21.40994
G1 X75.742 Y165.849 E23.32157
G1 X74.654 Y165.809 E23.40848
G1 X73.687 Y165.739 E23.48587
G1 X72.737 Y165.635 E23.56216
G1 X72.577 Y165.612 E23.57506
G1 X71.673 Y165.448 E23.6484
G1 X70.698 Y165.237 E23.72803
G1 X69.718 Y164.987 E23.80876
G1 X69.543 Y164.936 E23.82331
G1 X68.63 Y164.629 E23.9002
G1 X67.788 Y164.315 E23.97194
G1 X67.685 Y164.274 E23.98079
G1 X66.844 Y163.924 E24.0535
G1 X66.686 Y163.852 E24.06736
G1 X65.878 Y163.447 E24.13951
G1 X65.032 Y162.987 E24.21638
G1 X64.931 Y162.93 E24.22563
G1 X64.126 Y162.452 E24.30037
G1 X63.984 Y162.361 E24.31383
G1 X63.17 Y161.792 E24.39311
G1 X62.468 Y161.266 E24.46313
G1 X62.379 Y161.197 E24.47212
G1 X61.65 Y160.609 E24.54688
G1 X61.527 Y160.502 E24.55989
G1 X60.815 Y159.837 E24.63766
G1 X60.118 Y159.139 E24.7164
G1 X59.456 Y158.425 E24.79413
G1 X59.37 Y158.325 E24.80465
G1 X58.791 Y157.605 E24.87841
G1 X58.72 Y157.514 E24.88762
G1 X58.163 Y156.768 E24.96194
G1 X57.61 Y155.969 E25.0395
G1 X57.521 Y155.83 E25.05268
G1 X57.021 Y154.984 E25.13112
G1 X56.557 Y154.132 E25.20856
G1 X56.124 Y153.263 E25.28606
G1 X56.064 Y153.13 E25.29771
G1 X55.684 Y152.21 E25.37717
G1 X55.352 Y151.319 E25.45307
G1 X55.039 Y150.375 E25.53246
G1 X55.002 Y150.245 E25.54325
G1 X54.766 Y149.317 E25.61968
G1 X54.55 Y148.323 E25.70088
G1 X54.384 Y147.394 E25.77621
G1 X54.358 Y147.212 E25.79088
G1 X54.265 Y146.353 E25.85985
G1 X54.25 Y146.183 E25.87348
G1 X54.191 Y145.346 E25.94046
G1 X54.15 Y144.236 E26.02912
G1 X54.15 Y75.764 E31.49485
G1 X54.186 Y74.733 E31.5772
G1 X54.251 Y73.802 E31.6517
G1 X54.363 Y72.751 E31.73607
G1 X54.388 Y72.577 E31.7501
G1 X54.573 Y71.562 E31.83246
G1 X54.778 Y70.635 E31.90824
G1 X55.013 Y69.718 E31.98381
G1 X55.064 Y69.543 E31.99836
G1 X55.371 Y68.63 E32.07525
G1 X55.685 Y67.788 E32.14698
G1 X55.726 Y67.685 E32.15583
G1 X56.076 Y66.844 E32.22854
G1 X56.147 Y66.688 E32.24223
G1 X56.535 Y65.911 E32.31155
G1 X56.596 Y65.795 E32.32201
G1 X57.003 Y65.049 E32.38985
G1 X57.071 Y64.929 E32.40086
G1 X57.544 Y64.132 E32.47484
G1 X57.636 Y63.989 E32.48841
G1 X58.203 Y63.177 E32.56747
G1 X58.72 Y62.486 E32.63636
G1 X58.798 Y62.385 E32.64654
G1 X59.391 Y61.65 E32.72193
G1 X59.489 Y61.537 E32.73387
G1 X60.157 Y60.821 E32.81203
G0 F9000 X60.8 Y60.178
G1 F1125 X60.8 Y159.821 E40.76597
G0 F9000 X62.4 Y161.213
G1 F1125 X62.4 Y58.787 E48.94205
G0 F9000 X64 Y57.631
G1 F1125 X64 Y162.371 E57.30285
G0 F9000 X65.6 Y163.295
G1 F1125 X65.6 Y56.702 E65.81157
G0 F9000 X67.2 Y55.927
G1 F1125 X67.2 Y164.072 E74.44417
G0 F9000 X68.8 Y164.686
G1 F1125 X68.8 Y55.313 E83.1748
G0 F9000 X70.4 Y54.838
G1 F1125 X70.4 Y165.16 E91.98118
G0 F9000 X72 Y165.507
G1 F1125 X72 Y54.492 E100.84287
G0 F9000 X73.6 Y54.27
G1 F1125 X73.6 Y165.729 E109.74001
G0 F9000 X75.2 Y165.829
G1 F1125 X75.2 Y54.171 E118.65304
G0 F9000 X76.8 Y54.151
G1 F1125 X76.8 Y165.849 E127.56925
G0 F9000 X78.4 Y165.849
G1 F1125 X78.4 Y54.151 E136.48547
G0 F9000 X80 Y54.151
G1 F1125 X80 Y165.849 E145.40169
G0 F9000 X81.6 Y165.849
G1 F1125 X81.6 Y54.151 E154.31791
G0 F9000 X83.2 Y54.151
G1 F1125 X83.2 Y165.849 E163.23412
G0 F9000 X84.8 Y165.849
G1 F1125 X84.8 Y54.151 E172.15034
G0 F9000 X86.4 Y54.151
G1 F1125 X86.4 Y165.849 E181.06656
G0 F9000 X88 Y165.849
G1 F1125 X88 Y54.151 E189.98278
G0 F9000 X89.6 Y54.151
G1 F1125 X89.6 Y165.849 E198.89899
G0 F9000 X91.2 Y165.849
G1 F1125 X91.2 Y54.151 E207.81521
G0 F9000 X92.8 Y54.151
G1 F1125 X92.8 Y165.849 E216.73143
G0 F9000 X94.4 Y165.849
G1 F1125 X94.4 Y54.151 E225.64764
G0 F9000 X96 Y54.151
G1 F1125 X96 Y165.849 E234.56386
G0 F9000 X97.6 Y165.849
G1 F1125 X97.6 Y54.151 E243.48008
G0 F9000 X99.2 Y54.151
G1 F1125 X99.2 Y165.849 E252.3963
G0 F9000 X100.8 Y165.802
G1 F1125 X100.8 Y54.151 E261.30876
G0 F9000 X102.4 Y54.151
G1 F1125 X102.4 Y165.605 E270.2055
G0 F9000 X104 Y165.207
G1 F1125 X104 Y54.151 E279.07047
G0 F9000 X105.6 Y54.151
G1 F1125 X105.6 Y164.622 E287.88875
G0 F9000 X107.2 Y163.799
G1 F1125 X107.2 Y54.232 E296.63486
G0 F9000 X108.8 Y54.477
G1 F1125 X108.8 Y162.918 E305.29109
G0 F9000 X110.4 Y162.562
G1 F1125 X110.4 Y54.772 E313.89535
G0 F9000 X112 Y54.639
G1 F1125 X112 Y162.699 E322.52117
G0 F9000 X113.6 Y163.37
G1 F1125 X113.6 Y54.319 E331.22609
G0 F9000 X115.2 Y54.163
G1 F1125 X115.2 Y164.288 E340.01674
G0 F9000 X116.8 Y164.977
G1 F1125 X116.8 Y54.151 E348.86335
G0 F9000 X118.4 Y54.151
G1 F1125 X118.4 Y165.453 E357.74796
G0 F9000 X120 Y165.734
G1 F1125 X120 Y54.151 E366.655
G0 F9000 X121.6 Y54.151
G1 F1125 X121.6 Y165.843 E375.57074
G0 F9000 X123.2 Y165.849
G1 F1125 X123.2 Y54.151 E384.48695
G0 F9000 X124.8 Y54.151
G1 F1125 X124.8 Y165.849 E393.40317
G0 F9000 X126.4 Y165.849
G1 F1125 X126.4 Y54.151 E402.31939
G0 F9000 X128 Y54.151
G1 F1125 X128 Y165.849 E411.23561
G0 F9000 X129.6 Y165.849
G1 F1125 X129.6 Y54.151 E420.15182
G0 F9000 X131.2 Y54.151
G1 F1125 X131.2 Y165.849 E429.06804
G0 F9000 X132.8 Y165.849
G1 F1125 X132.8 Y54.151 E437.98426
G0 F9000 X134.4 Y54.151
G1 F1125 X134.4 Y165.849 E446.90048
G0 F9000 X136 Y165.849
G1 F1125 X136 Y54.151 E455.81669
G0 F9000 X137.6 Y54.151
G1 F1125 X137.6 Y165.849 E464.73291
G0 F9000 X139.2 Y165.849
G1 F1125 X139.2 Y54.151 E473.64913
G0 F9000 X140.8 Y54.151
G1 F1125 X140.8 Y165.849 E482.56534
G0 F9000 X142.4 Y165.849
G1 F1125 X142.4 Y54.151 E491.48156
G0 F9000 X144 Y54.151
G1 F1125 X144 Y165.849 E500.39778
G0 F9000 X145.6 Y165.792
G1 F1125 X145.6 Y54.21 E509.30474
G0 F9000 X147.2 Y54.359
G1 F1125 X147.2 Y165.644 E518.18799
G0 F9000 X148.8 Y165.347
G1 F1125 X148.8 Y54.655 E527.0239
G0 F9000 X150.4 Y55.048
G1 F1125 X150.4 Y164.953 E535.79699
G0 F9000 X152 Y164.394
G1 F1125 X152 Y55.606 E544.48092
G0 F9000 X153.6 Y56.292
G1 F1125 X153.6 Y163.709 E553.05541
G0 F9000 X155.2 Y162.852
G1 F1125 X155.2 Y57.149 E561.49308
G0 F9000 X156.8 Y58.187
G1 F1125 X156.8 Y161.814 E569.76504
G0 F9000 X158.4 Y160.566
G1 F1125 X158.4 Y59.435 E577.83775
G0 F9000 X160 Y60.989
G1 F1125 X160 Y159.011 E585.66229
G0 F9000 X161.6 Y157.087
G1 F1125 X161.6 Y62.914 E593.17959
G0 F9000 X163.2 Y65.421
G1 F1125 X163.2 Y154.579 E600.29656
G0 F9000 X164.8 Y150.862
G1 F1125 X164.8 Y69.142 E606.81981
G1 F1500 E600.31981
G0 F9000 X165.81 Y68.807
G0 X164.834 Y66.272
G0 X163.382 Y63.606
G0 X162.042 Y61.732
G0 X160.606 Y60.079
G0 X159.039 Y58.58
G0 X156.61 Y56.756
G0 X154.59 Y55.596
G0 X152.59 Y54.69
G0 X150.569 Y53.988
G0 X147.6 Y53.338
G0 X145.308 Y53.124
G0 X74.692 Y53.124
G0 X72.429 Y53.334
G0 X69.482 Y53.973
G0 X67.307 Y54.73
G0 X65.316 Y55.645
G0 X63.434 Y56.728
G0 X60.998 Y58.548
G0 X60.06 Y59.445
G0 X58.58 Y60.961
G0 X59.2 Y61.886
G1 F1500 E606.81981
G1 F1125 X59.2 Y158.113 E614.50106
G0 F9000 X57.6 Y155.953
G1 F1125 X57.6 Y64.044 E621.83764
G0 F9000 X56 Y67.026
G1 F1125 X56 Y152.975 E628.69846
G1 F1500 E622.19846
G0 F9000 X54.73 Y152.693
G0 X54.049 Y150.736
G0 X53.504 Y148.518
G0 X54.4 Y147.483
G1 F1500 E628.69846
G1 F1125 X54.4 Y72.511 E634.68305
G0 F300 X54.4 Y72.511 Z0.54
G0 F9000 X54.363 Y72.747
;TIME_ELAPSED:439.957301
;LAYER:-5
;TYPE:SUPPORT
G1 F1125 X147.25 Y165.635 E647.79048
G1 X147.394 Y165.615 E647.80498
G1 X148.323 Y165.449 E647.89915
G1 X148.45 Y165.421 E647.91212
G1 X54.575 Y71.545 E661.15897
G1 X54.778 Y70.634 E661.2521
G1 X54.838 Y70.395 E661.27669
G1 X149.603 Y165.159 E674.64898
G1 X150.245 Y164.997 E674.71505
G1 X150.372 Y164.96 E674.72825
G1 X150.707 Y164.849 E674.76346
G1 X55.147 Y69.29 E688.24794
G1 X55.37 Y68.628 E688.31764
G1 X55.514 Y68.242 E688.35875
G1 X151.755 Y164.483 E701.93939
G1 X152.216 Y164.312 E701.98846
G1 X152.769 Y164.083 E702.04818
G1 X55.915 Y67.228 E715.71539
G1 X56.075 Y66.843 E715.75699
G1 X56.147 Y66.687 E715.77414
G1 X56.359 Y66.259 E715.8218
G1 X153.738 Y163.637 E729.56295
G1 X154.132 Y163.442 E729.60682
G1 X154.665 Y163.15 E729.66746
G1 X56.847 Y65.332 E743.47064
G1 X57.002 Y65.048 E743.50292
G1 X57.071 Y64.928 E743.51673
G1 X57.363 Y64.434 E743.57399
G1 X155.564 Y162.635 E757.43121
G1 X155.83 Y162.478 E757.46203
G1 X155.98 Y162.381 E757.47986
G1 X156.419 Y162.076 E757.53319
G1 X57.921 Y63.578 E771.43233
G1 X58.202 Y63.176 E771.48127
G1 X58.515 Y62.757 E771.53345
G1 X157.24 Y161.482 E785.46462
G1 X157.548 Y161.253 E785.50291
G1 X158.034 Y160.862 E785.56515
G1 X59.136 Y61.964 E799.52073
G1 X59.39 Y61.649 E799.5611
G1 X59.488 Y61.536 E799.57603
G1 X59.794 Y61.208 E799.62079
G1 X158.79 Y160.204 E813.59019
G1 X159.138 Y159.881 E813.63757
G1 X159.509 Y159.509 E813.68999
G1 X60.489 Y60.489 E827.66278
G1 X60.86 Y60.118 E827.71513
G1 X61.209 Y59.795 E827.76258
G1 X160.204 Y158.79 E841.73185
G1 X160.51 Y158.462 E841.7766
G1 X160.608 Y158.35 E841.79145
G1 X160.863 Y158.034 E841.83197
G1 X61.965 Y59.136 E855.78755
G1 X62.45 Y58.745 E855.84971
G1 X62.759 Y58.516 E855.88808
G1 X161.484 Y157.241 E869.81925
G1 X161.796 Y156.822 E869.87137
G1 X162.078 Y156.421 E869.92029
G1 X63.579 Y57.922 E883.81956
G1 X64.018 Y57.617 E883.8729
G1 X64.169 Y57.521 E883.89075
G1 X64.435 Y57.364 E883.92157
G1 X162.635 Y155.564 E897.77865
G1 X162.929 Y155.067 E897.83627
G1 X162.996 Y154.949 E897.84981
G1 X163.151 Y154.666 E897.88201
G1 X65.333 Y56.848 E911.68518
G1 X65.809 Y56.588 E911.7393
G1 X66.261 Y56.362 E911.78973
G1 X163.639 Y153.739 E925.53074
G1 X163.852 Y153.312 E925.57836
G1 X163.923 Y153.155 E925.59555
G1 X164.084 Y152.77 E925.63719
G1 X67.229 Y55.915 E939.30448
G1 X67.782 Y55.686 E939.3642
G1 X68.243 Y55.515 E939.41326
G1 X164.485 Y151.757 E952.99405
G1 X164.628 Y151.37 E953.03521
G1 X164.851 Y150.709 E953.10482
G1 X69.292 Y55.15 E966.58923
G1 X69.626 Y55.039 E966.62435
G1 X69.753 Y55.002 E966.63755
G1 X70.396 Y54.839 E966.70373
G1 X165.159 Y149.603 E980.07589
G1 X165.238 Y149.294 E980.10771
G1 X165.421 Y148.45 E980.19388
G1 X71.548 Y54.578 E993.44031
G1 X71.675 Y54.549 E993.4533
