;FLAVOR:Marlin
;TIME:8163
;Filament used: 6.37771m
;Layer height: 0.2
;MINX:64.999
;MINY:64.999
;MINZ:0.2
;MAXX:155.001
;MAXY:155.665
;MAXZ:3
;Generated with Cura_SteamEngine 4.9.1
M140 S60
M105
M190 S60
M104 S200
M105
M109 S200
M82 ;absolute extrusion mode
; Ender 3 Custom Start G-code
G92 E0 ; Reset Extruder
G28 ; Home all axes
G1 Z2.0 F3000 ; Move Z Axis up little to prevent scratching of Heat Bed
G1 X0.1 Y20 Z0.3 F5000.0 ; Move to start position
G1 X0.1 Y200.0 Z0.3 F1500.0 E15 ; Draw the first line
G1 X0.4 Y200.0 Z0.3 F5000.0 ; Move to side a little
G1 X0.4 Y20 Z0.3 F1500.0 E30 ; Draw the second line
G92 E0 ; Reset Extruder
G1 Z2.0 F3000 ; Move Z Axis up little to prevent scratching of Heat Bed
G1 X5 Y20 Z0.3 F5000.0 ; Move over to prevent blob squish
G92 E0
G92 E0
G1 F1500 E-6.5
;LAYER_COUNT:15
;LAYER:0
M107
;MESH:Level4.stl
G0 F6000 X101.515 Y121.09 Z0.2
;TYPE:WALL-INNER
G1 F1500 E0
G1 F1200 X102.188 Y121.002 E0.02257
G1 X102.818 Y120.741 E0.04526
G1 X103.357 Y120.327 E0.06786
G1 X103.771 Y119.788 E0.09047
G1 X104.032 Y119.159 E0.11312
G1 X104.12 Y118.485 E0.13572
G1 X104.032 Y117.812 E0.1583
G1 X103.771 Y117.182 E0.18098
G1 X103.357 Y116.643 E0.20358
G1 X102.818 Y116.229 E0.22619
G1 X102.188 Y115.968 E0.24887
G1 X101.515 Y115.88 E0.27144
G1 X100.841 Y115.968 E0.29405
G1 X100.212 Y116.229 E0.3167
G1 X99.673 Y116.643 E0.33931
G1 X99.259 Y117.182 E0.36191
G1 X98.998 Y117.812 E0.38459
G1 X98.91 Y118.485 E0.40717
G1 X98.998 Y119.159 E0.42978
G1 X99.259 Y119.788 E0.45243
G1 X99.673 Y120.327 E0.47503
G1 X100.212 Y120.741 E0.49764
G1 X100.841 Y121.002 E0.52029
G1 X101.515 Y121.09 E0.54289
G0 F6000 X101.515 Y120.687
;TYPE:WALL-OUTER
G1 F1200 X102.084 Y120.612 E0.56198
G1 X102.616 Y120.392 E0.58113
G1 X103.072 Y120.042 E0.60025
G1 X103.422 Y119.586 E0.61937
G1 X103.642 Y119.055 E0.63849
G1 X103.717 Y118.485 E0.65761
G1 X103.642 Y117.916 E0.6767
G1 X103.422 Y117.384 E0.69584
G1 X103.072 Y116.928 E0.71496
G1 X102.616 Y116.578 E0.73408
G1 X102.084 Y116.358 E0.75323
G1 X101.515 Y116.283 E0.77232
G1 X100.945 Y116.358 E0.79144
G1 X100.414 Y116.578 E0.81056
G1 X99.958 Y116.928 E0.82968
G1 X99.608 Y117.384 E0.84879
G1 X99.388 Y117.916 E0.86794
G1 X99.313 Y118.485 E0.88703
G1 X99.388 Y119.055 E0.90615
G1 X99.608 Y119.586 E0.92527
G1 X99.958 Y120.042 E0.94439
G1 X100.414 Y120.392 E0.96351
G1 X100.945 Y120.612 E0.98263
G1 X101.515 Y120.687 E1.00175
G0 F6000 X101.515 Y121.127
G1 F1500 E-5.49825
G0 F6000 X100.294 Y120.601
G0 X99.787 Y120.213
G0 X99.399 Y119.706
G0 X99.155 Y119.117
G0 X99.071 Y118.485
G0 X99.155 Y117.854
G0 X99.292 Y117.521
G0 X100.116 Y116.063
G0 X100.852 Y117.332
G0 X98.346 Y111.285
G0 X98.724 Y112.703
G0 X98 Y112.605
;TYPE:WALL-INNER
G1 F1500 E1.00175
G1 F1200 X98.674 Y112.517 E1.02435
G1 X99.303 Y112.256 E1.047
G1 X99.842 Y111.842 E1.06961
G1 X100.256 Y111.303 E1.09221
G1 X100.517 Y110.674 E1.11486
G1 X100.605 Y110 E1.13747
G1 X100.517 Y109.326 E1.16008
G1 X100.256 Y108.697 E1.18273
G1 X99.842 Y108.158 E1.20534
G1 X99.303 Y107.744 E1.22794
G1 X98.674 Y107.483 E1.25059
G1 X98 Y107.395 E1.2732
G1 X97.326 Y107.483 E1.29581
G1 X96.697 Y107.744 E1.31846
G1 X96.158 Y108.158 E1.34106
G1 X95.744 Y108.697 E1.36367
G1 X95.483 Y109.326 E1.38632
G1 X95.395 Y110 E1.40892
G1 X95.483 Y110.674 E1.43153
G1 X95.744 Y111.303 E1.45418
G1 X96.158 Y111.842 E1.47679
G1 X96.697 Y112.256 E1.49939
G1 X97.326 Y112.517 E1.52204
G1 X98 Y112.605 E1.54465
G0 F6000 X98 Y112.202
;TYPE:WALL-OUTER
G1 F1200 X98.57 Y112.127 E1.56377
G1 X99.101 Y111.907 E1.58289
G1 X99.557 Y111.557 E1.60201
G1 X99.907 Y111.101 E1.62113
G1 X100.127 Y110.57 E1.64024
G1 X100.202 Y110 E1.65936
G1 X100.127 Y109.43 E1.67849
G1 X99.907 Y108.899 E1.6976
G1 X99.557 Y108.443 E1.71672
G1 X99.101 Y108.093 E1.73584
G1 X98.57 Y107.873 E1.75496
G1 X98 Y107.798 E1.77408
G1 X97.43 Y107.873 E1.7932
G1 X96.899 Y108.093 E1.81232
G1 X96.443 Y108.443 E1.83144
G1 X96.093 Y108.899 E1.85056
G1 X95.873 Y109.43 E1.86967
G1 X95.798 Y110 E1.8888
G1 X95.873 Y110.57 E1.90792
G1 X96.093 Y111.101 E1.92703
G1 X96.443 Y111.557 E1.94615
G1 X96.899 Y111.907 E1.96527
G1 X97.43 Y112.127 E1.98439
G1 X98 Y112.202 E2.00351
G0 F6000 X98 Y112.642
G1 F1500 E-4.49649
G0 F6000 X99.221 Y112.116
G0 X99.728 Y111.728
G0 X100.116 Y111.221
G0 X100.36 Y110.632
G0 X100.444 Y110
G0 X100.36 Y109.368
G0 X100.223 Y109.035
G0 X99.399 Y107.578
G0 X98.663 Y108.847
G0 X101.222 Y102.747
G0 X100.824 Y104.157
G0 X101.568 Y104.067
;TYPE:WALL-INNER
G1 F1500 E2.00351
G1 F1200 X102.242 Y103.979 E2.02612
G1 X102.871 Y103.718 E2.04877
G1 X103.41 Y103.304 E2.07137
G1 X103.824 Y102.765 E2.09398
G1 X104.085 Y102.135 E2.11666
G1 X104.173 Y101.462 E2.13923
G1 X104.085 Y100.788 E2.16184
G1 X103.824 Y100.159 E2.18449
G1 X103.41 Y99.62 E2.2071
G1 X102.871 Y99.206 E2.2297
G1 X102.242 Y98.945 E2.25235
G1 X101.568 Y98.857 E2.27496
G1 X100.894 Y98.945 E2.29757
G1 X100.265 Y99.206 E2.32022
G1 X99.726 Y99.62 E2.34282
G1 X99.312 Y100.159 E2.36543
G1 X99.051 Y100.788 E2.38808
G1 X98.963 Y101.462 E2.41069
G1 X99.051 Y102.135 E2.43326
G1 X99.312 Y102.765 E2.45594
G1 X99.726 Y103.304 E2.47855
G1 X100.265 Y103.718 E2.50115
G1 X100.894 Y103.979 E2.5238
G1 X101.568 Y104.067 E2.54641
G0 F6000 X101.568 Y103.664
;TYPE:WALL-OUTER
G1 F1200 X102.138 Y103.589 E2.56553
G1 X102.669 Y103.369 E2.58465
G1 X103.125 Y103.019 E2.60377
G1 X103.475 Y102.563 E2.62289
G1 X103.695 Y102.031 E2.64203
G1 X103.77 Y101.462 E2.66112
G1 X103.695 Y100.892 E2.68024
G1 X103.475 Y100.361 E2.69936
G1 X103.125 Y99.905 E2.71848
G1 X102.669 Y99.555 E2.7376
G1 X102.138 Y99.335 E2.75672
G1 X101.568 Y99.26 E2.77584
G1 X100.998 Y99.335 E2.79496
G1 X100.467 Y99.555 E2.81408
G1 X100.011 Y99.905 E2.8332
G1 X99.661 Y100.361 E2.85232
G1 X99.441 Y100.892 E2.87143
G1 X99.366 Y101.462 E2.89055
G1 X99.441 Y102.031 E2.90964
G1 X99.661 Y102.563 E2.92879
G1 X100.011 Y103.019 E2.94791
G1 X100.467 Y103.369 E2.96703
G1 X100.998 Y103.589 E2.98615
G1 X101.568 Y103.664 E3.00527
G0 F6000 X101.568 Y104.104
G1 F1500 E-3.49473
G0 F6000 X102.789 Y103.578
G0 X103.076 Y103.359
G0 X104.271 Y102.185
G0 X102.852 Y101.809
G0 X109.337 Y99.153
G0 X108.601 Y100.422
G0 X110 Y100.605
;TYPE:WALL-INNER
G1 F1500 E3.00527
G1 F1200 X110.674 Y100.517 E3.02787
G1 X111.303 Y100.256 E3.05052
G1 X111.842 Y99.842 E3.07313
G1 X112.256 Y99.303 E3.09573
G1 X112.517 Y98.674 E3.11839
G1 X112.605 Y98 E3.14099
G1 X112.517 Y97.326 E3.1636
G1 X112.256 Y96.697 E3.18625
G1 X111.842 Y96.158 E3.20886
G1 X111.303 Y95.744 E3.23146
G1 X110.674 Y95.483 E3.25411
G1 X110 Y95.395 E3.27672
G1 X109.326 Y95.483 E3.29933
G1 X108.697 Y95.744 E3.32198
G1 X108.158 Y96.158 E3.34458
G1 X107.744 Y96.697 E3.36719
G1 X107.483 Y97.326 E3.38984
G1 X107.395 Y98 E3.41244
G1 X107.483 Y98.674 E3.43505
G1 X107.744 Y99.303 E3.4577
G1 X108.158 Y99.842 E3.48031
G1 X108.697 Y100.256 E3.50291
G1 X109.326 Y100.517 E3.52556
G1 X110 Y100.605 E3.54817
G0 F6000 X110 Y100.202
;TYPE:WALL-OUTER
G1 F1200 X110.57 Y100.127 E3.56729
G1 X111.101 Y99.907 E3.58641
G1 X111.557 Y99.557 E3.60553
G1 X111.907 Y99.101 E3.62465
G1 X112.127 Y98.57 E3.64376
G1 X112.202 Y98 E3.66289
G1 X112.127 Y97.43 E3.68201
G1 X111.907 Y96.899 E3.70112
G1 X111.557 Y96.443 E3.72024
G1 X111.101 Y96.093 E3.73936
G1 X110.57 Y95.873 E3.75848
G1 X110 Y95.798 E3.7776
G1 X109.43 Y95.873 E3.79672
G1 X108.899 Y96.093 E3.81584
G1 X108.443 Y96.443 E3.83496
G1 X108.093 Y96.899 E3.85408
G1 X107.873 Y97.43 E3.87319
G1 X107.798 Y98 E3.89232
G1 X107.873 Y98.57 E3.91144
G1 X108.093 Y99.101 E3.93055
G1 X108.443 Y99.557 E3.94967
G1 X108.899 Y99.907 E3.96879
G1 X109.43 Y100.127 E3.98791
G1 X110 Y100.202 E4.00703
G0 F6000 X110 Y100.642
G1 F1500 E-2.49297
G0 F6000 X110.724 Y100.703
G0 X110.346 Y99.285
G0 X117.201 Y101.862
G0 X115.782 Y102.238
G0 X116.757 Y103.243
G0 X117.167 Y103.557
G0 X118.485 Y104.12
;TYPE:WALL-INNER
G1 F1500 E4.00703
G1 F1200 X119.159 Y104.032 E4.02964
G1 X119.788 Y103.771 E4.05229
G1 X120.327 Y103.357 E4.07489
G1 X120.741 Y102.818 E4.0975
G1 X121.002 Y102.188 E4.12018
G1 X121.09 Y101.515 E4.14276
G1 X121.002 Y100.841 E4.16536
G1 X120.741 Y100.212 E4.18801
G1 X120.327 Y99.673 E4.21062
G1 X119.788 Y99.259 E4.23322
G1 X119.159 Y98.998 E4.25587
G1 X118.485 Y98.91 E4.27848
G1 X117.812 Y98.998 E4.30106
G1 X117.182 Y99.259 E4.32374
G1 X116.643 Y99.673 E4.34634
G1 X116.229 Y100.212 E4.36895
G1 X115.968 Y100.841 E4.3916
G1 X115.88 Y101.515 E4.4142
G1 X115.968 Y102.188 E4.43678
G1 X116.229 Y102.818 E4.45946
G1 X116.643 Y103.357 E4.48206
G1 X117.182 Y103.771 E4.50467
G1 X117.812 Y104.032 E4.52735
G1 X118.485 Y104.12 E4.54993
G0 F6000 X118.485 Y103.717
;TYPE:WALL-OUTER
G1 F1200 X119.055 Y103.642 E4.56905
G1 X119.586 Y103.422 E4.58816
G1 X120.042 Y103.072 E4.60728
G1 X120.392 Y102.616 E4.6264
G1 X120.612 Y102.084 E4.64555
G1 X120.687 Y101.515 E4.66464
G1 X120.612 Y100.945 E4.68376
G1 X120.392 Y100.414 E4.70288
G1 X120.042 Y99.958 E4.722
G1 X119.586 Y99.608 E4.74112
G1 X119.055 Y99.388 E4.76023
G1 X118.485 Y99.313 E4.77935
G1 X117.916 Y99.388 E4.79844
G1 X117.384 Y99.608 E4.81759
G1 X116.928 Y99.958 E4.83671
G1 X116.578 Y100.414 E4.85583
G1 X116.358 Y100.945 E4.87495
G1 X116.283 Y101.515 E4.89407
G1 X116.358 Y102.084 E4.91316
G1 X116.578 Y102.616 E4.9323
G1 X116.928 Y103.072 E4.95142
G1 X117.384 Y103.422 E4.97054
G1 X117.916 Y103.642 E4.98969
G1 X118.485 Y103.717 E5.00878
G0 F6000 X118.485 Y104.157
G1 F1500 E-1.49122
G0 F6000 X119.209 Y104.218
G0 X118.831 Y102.8
G0 X121.337 Y108.847
G0 X120.601 Y107.578
G0 X119.884 Y108.779
G0 X119.64 Y109.368
G0 X119.556 Y110
G0 X119.64 Y110.632
G0 X119.884 Y111.221
G0 X120.272 Y111.728
G0 X120.682 Y112.042
G0 X122 Y112.605
;TYPE:WALL-INNER
G1 F1500 E5.00878
G1 F1200 X122.674 Y112.517 E5.03139
G1 X123.303 Y112.256 E5.05404
G1 X123.842 Y111.842 E5.07664
G1 X124.256 Y111.303 E5.09925
G1 X124.517 Y110.674 E5.1219
G1 X124.605 Y110 E5.1445
G1 X124.517 Y109.326 E5.16711
G1 X124.256 Y108.697 E5.18976
G1 X123.842 Y108.158 E5.21237
G1 X123.303 Y107.744 E5.23497
G1 X122.674 Y107.483 E5.25762
G1 X122 Y107.395 E5.28023
G1 X121.326 Y107.483 E5.30284
G1 X120.697 Y107.744 E5.32549
G1 X120.158 Y108.158 E5.34809
G1 X119.744 Y108.697 E5.3707
G1 X119.483 Y109.326 E5.39335
G1 X119.395 Y110 E5.41596
G1 X119.483 Y110.674 E5.43856
G1 X119.744 Y111.303 E5.46121
G1 X120.158 Y111.842 E5.48382
G1 X120.697 Y112.256 E5.50642
G1 X121.326 Y112.517 E5.52907
G1 X122 Y112.605 E5.55168
G0 F6000 X122 Y112.202
;TYPE:WALL-OUTER
G1 F1200 X122.57 Y112.127 E5.5708
G1 X123.101 Y111.907 E5.58992
G1 X123.557 Y111.557 E5.60904
G1 X123.907 Y111.101 E5.62816
G1 X124.127 Y110.57 E5.64728
G1 X124.202 Y110 E5.6664
G1 X124.127 Y109.43 E5.68552
G1 X123.907 Y108.899 E5.70464
G1 X123.557 Y108.443 E5.72375
G1 X123.101 Y108.093 E5.74287
G1 X122.57 Y107.873 E5.76199
G1 X122 Y107.798 E5.78111
G1 X121.43 Y107.873 E5.80023
G1 X120.899 Y108.093 E5.81935
G1 X120.443 Y108.443 E5.83847
G1 X120.093 Y108.899 E5.85759
G1 X119.873 Y109.43 E5.87671
G1 X119.798 Y110 E5.89583
G1 X119.873 Y110.57 E5.91495
G1 X120.093 Y111.101 E5.93407
G1 X120.443 Y111.557 E5.95319
G1 X120.899 Y111.907 E5.9723
G1 X121.43 Y112.127 E5.99142
G1 X122 Y112.202 E6.01054
G0 F6000 X122 Y112.642
G1 F1500 E-0.48946
G0 F6000 X121.276 Y112.703
G0 X121.654 Y111.285
G0 X119.148 Y117.332
G0 X119.878 Y116.06
G0 X120.601 Y117.264
G0 X120.845 Y117.854
G0 X120.929 Y118.485
G0 X120.845 Y119.117
G0 X120.601 Y119.706
G0 X120.213 Y120.213
G0 X119.803 Y120.527
G0 X118.485 Y121.09
;TYPE:WALL-INNER
G1 F1500 E6.01054
G1 F1200 X119.159 Y121.002 E6.03315
G1 X119.788 Y120.741 E6.0558
G1 X120.327 Y120.327 E6.07841
G1 X120.741 Y119.788 E6.10101
G1 X121.002 Y119.159 E6.12366
G1 X121.09 Y118.485 E6.14627
G1 X121.002 Y117.812 E6.16884
G1 X120.741 Y117.182 E6.19152
G1 X120.327 Y116.643 E6.21413
G1 X119.788 Y116.229 E6.23673
G1 X119.159 Y115.968 E6.25938
G1 X118.485 Y115.88 E6.28199
G1 X117.812 Y115.968 E6.30457
G1 X117.182 Y116.229 E6.32725
G1 X116.643 Y116.643 E6.34985
G1 X116.229 Y117.182 E6.37246
G1 X115.968 Y117.812 E6.39514
G1 X115.88 Y118.485 E6.41771
G1 X115.968 Y119.159 E6.44032
G1 X116.229 Y119.788 E6.46297
G1 X116.643 Y120.327 E6.48558
G1 X117.182 Y120.741 E6.50818
G1 X117.812 Y121.002 E6.53086
G1 X118.485 Y121.09 E6.55344
G0 F6000 X118.485 Y120.687
;TYPE:WALL-OUTER
G1 F1200 X119.055 Y120.612 E6.57256
G1 X119.586 Y120.392 E6.59168
G1 X120.042 Y120.042 E6.61079
G1 X120.392 Y119.586 E6.62991
G1 X120.612 Y119.055 E6.64903
G1 X120.687 Y118.485 E6.66815
G1 X120.612 Y117.916 E6.68724
G1 X120.392 Y117.384 E6.70639
G1 X120.042 Y116.928 E6.72551
G1 X119.586 Y116.578 E6.74463
G1 X119.055 Y116.358 E6.76374
G1 X118.485 Y116.283 E6.78287
G1 X117.916 Y116.358 E6.80195
G1 X117.384 Y116.578 E6.8211
G1 X116.928 Y116.928 E6.84022
G1 X116.578 Y117.384 E6.85934
G1 X116.358 Y117.916 E6.87849
G1 X116.283 Y118.485 E6.89758
G1 X116.358 Y119.055 E6.9167
G1 X116.578 Y119.586 E6.93582
G1 X116.928 Y120.042 E6.95493
G1 X117.384 Y120.392 E6.97405
G1 X117.916 Y120.612 E6.9932
G1 X118.485 Y120.687 E7.01229
G0 F6000 X118.485 Y121.127
G1 F1500 E0.51229
G0 F6000 X116.507 Y120.463
G0 X117.545 Y119.425
G0 X111.285 Y121.654
G0 X112.703 Y121.276
G0 X112.36 Y122.632
G0 X112.116 Y123.221
G0 X111.728 Y123.728
G0 X111.318 Y124.042
G0 X110 Y124.605
;TYPE:WALL-INNER
G1 F1500 E7.01229
G1 F1200 X110.674 Y124.517 E7.0349
G1 X111.303 Y124.256 E7.05755
G1 X111.842 Y123.842 E7.08015
G1 X112.256 Y123.303 E7.10276
G1 X112.517 Y122.674 E7.12541
G1 X112.605 Y122 E7.14802
G1 X112.517 Y121.326 E7.17062
G1 X112.256 Y120.697 E7.19327
G1 X111.842 Y120.158 E7.21588
G1 X111.303 Y119.744 E7.23848
G1 X110.674 Y119.483 E7.26113
G1 X110 Y119.395 E7.28374
G1 X109.326 Y119.483 E7.30635
G1 X108.697 Y119.744 E7.329
G1 X108.158 Y120.158 E7.3516
G1 X107.744 Y120.697 E7.37421
G1 X107.483 Y121.326 E7.39686
G1 X107.395 Y122 E7.41947
G1 X107.483 Y122.674 E7.44207
G1 X107.744 Y123.303 E7.46472
G1 X108.158 Y123.842 E7.48733
G1 X108.697 Y124.256 E7.50993
G1 X109.326 Y124.517 E7.53259
G1 X110 Y124.605 E7.55519
G0 F6000 X110 Y124.202
;TYPE:WALL-OUTER
G1 F1200 X110.57 Y124.127 E7.57431
G1 X111.101 Y123.907 E7.59343
G1 X111.557 Y123.557 E7.61255
G1 X111.907 Y123.101 E7.63167
G1 X112.127 Y122.57 E7.65079
G1 X112.202 Y122 E7.66991
G1 X112.127 Y121.43 E7.68903
G1 X111.907 Y120.899 E7.70815
G1 X111.557 Y120.443 E7.72727
G1 X111.101 Y120.093 E7.74638
G1 X110.57 Y119.873 E7.7655
G1 X110 Y119.798 E7.78462
G1 X109.43 Y119.873 E7.80375
G1 X108.899 Y120.093 E7.82286
G1 X108.443 Y120.443 E7.84198
G1 X108.093 Y120.899 E7.8611
G1 X107.873 Y121.43 E7.88022
G1 X107.798 Y122 E7.89934
G1 X107.873 Y122.57 E7.91846
G1 X108.093 Y123.101 E7.93758
G1 X108.443 Y123.557 E7.9567
G1 X108.899 Y123.907 E7.97582
G1 X109.43 Y124.127 E7.99493
G1 X110 Y124.202 E8.01405
G0 F6000 X110 Y124.642
G1 F1500 E1.51405
G0 F6000 X110.724 Y124.703
G0 X110.346 Y123.285
G0 X110.724 Y155.665
G0 X110.724 Y154.19
G0 X144.981 Y154.4
;TYPE:WALL-INNER
G1 F1500 E8.01405
G1 F1200 X75.019 Y154.4 E10.341
G1 X73.865 Y154.33 E10.37945
G1 X72.752 Y154.126 E10.41709
G1 X71.665 Y153.787 E10.45496
G1 X70.629 Y153.322 E10.49273
G1 X69.662 Y152.738 E10.5303
G1 X68.767 Y152.035 E10.56815
G1 X67.965 Y151.233 E10.60588
G1 X67.262 Y150.338 E10.64373
G1 X66.678 Y149.371 E10.6813
G1 X66.213 Y148.335 E10.71907
G1 X65.874 Y147.248 E10.75694
G1 X65.67 Y146.135 E10.79458
G1 X65.6 Y144.988 E10.8328
G1 X65.6 Y75.012 E13.16021
G1 X65.67 Y73.865 E13.19843
G1 X65.874 Y72.752 E13.23607
G1 X66.213 Y71.665 E13.27394
G1 X66.678 Y70.629 E13.31171
G1 X67.262 Y69.662 E13.34928
G1 X67.965 Y68.767 E13.38713
G1 X68.767 Y67.965 E13.42486
G1 X69.662 Y67.262 E13.46271
G1 X70.629 Y66.678 E13.50028
G1 X71.665 Y66.213 E13.53805
G1 X72.752 Y65.874 E13.57592
G1 X73.865 Y65.67 E13.61356
G1 X75.019 Y65.6 E13.65201
G1 X144.981 Y65.6 E15.97896
G1 X146.135 Y65.67 E16.01741
G1 X147.248 Y65.874 E16.05504
G1 X148.335 Y66.213 E16.09291
G1 X149.371 Y66.678 E16.13068
G1 X150.338 Y67.262 E16.16826
G1 X151.233 Y67.965 E16.20611
G1 X152.035 Y68.767 E16.24383
G1 X152.738 Y69.662 E16.28169
G1 X153.322 Y70.629 E16.31926
G1 X153.787 Y71.665 E16.35703
G1 X154.126 Y72.752 E16.3949
G1 X154.33 Y73.865 E16.43253
G1 X154.4 Y75.012 E16.47075
G1 X154.4 Y144.988 E18.79817
