;FLAVOR:Marlin
;TIME:12285
;Filament used: 7.83083m
;Layer height: 0.2
;MINX:92.852
;MINY:61.035
;MINZ:0.24
;MAXX:127.131
;MAXY:182.331
;MAXZ:91.09
;Generated with Cura_SteamEngine 4.9.1
M140 S60
M105
M190 S60
M104 S200
M105
M109 S200
M82 ;absolute extrusion mode
; Ender 3 Custom Start G-code
G92 E0 ; Reset Extruder
G28 ; Home all axes
G1 Z2.0 F3000 ; Move Z Axis up little to prevent scratching of Heat Bed
G1 X0.1 Y20 Z0.3 F5000.0 ; Move to start position
G1 X0.1 Y200.0 Z0.3 F1500.0 E15 ; Draw the first line
G1 X0.4 Y200.0 Z0.3 F5000.0 ; Move to side a little
G1 X0.4 Y20 Z0.3 F1500.0 E30 ; Draw the second line
G92 E0 ; Reset Extruder
G1 Z2.0 F3000 ; Move Z Axis up little to prevent scratching of Heat Bed
G1 X5 Y20 Z0.3 F5000.0 ; Move over to prevent blob squish
G92 E0
G92 E0
G1 F1500 E-6.5
;LAYER_COUNT:450
;LAYER:-6
M107
G0 F9000 X96.376 Y68.655 Z0.24
;TYPE:SUPPORT-INTERFACE
G1 F1500 E0
G1 F1125 X96.892 Y67.934 E0.07077
G1 X97 Y67.793 E0.08495
G1 X97.577 Y67.101 E0.15687
G1 X97.673 Y66.993 E0.16841
G1 X98.155 Y66.481 E0.22454
G1 X98.312 Y66.325 E0.24221
G1 X99.008 Y65.679 E0.31801
G1 X99.147 Y65.56 E0.33261
G1 X99.838 Y65.006 E0.40331
G1 X99.977 Y64.902 E0.41717
G1 X100.692 Y64.41 E0.48645
G1 X100.876 Y64.293 E0.50385
G1 X101.632 Y63.85 E0.5738
G1 X101.774 Y63.773 E0.58669
G1 X102.606 Y63.364 E0.6607
G1 X102.719 Y63.314 E0.67056
G1 X103.569 Y62.971 E0.74373
G1 X103.742 Y62.909 E0.7584
G1 X104.58 Y62.64 E0.82865
G1 X104.744 Y62.594 E0.84225
G1 X105.616 Y62.382 E0.91388
G1 X105.778 Y62.349 E0.92708
G1 X106.671 Y62.201 E0.99934
G1 X106.848 Y62.178 E1.01358
G1 X107.742 Y62.095 E1.08525
G1 X107.884 Y62.088 E1.0966
G1 X108.625 Y62.067 E1.15578
G1 X111.386 Y62.068 E1.37617
G1 X112.387 Y62.104 E1.45613
G1 X112.51 Y62.113 E1.46597
G1 X113.427 Y62.215 E1.53962
G1 X113.602 Y62.24 E1.55373
G1 X114.491 Y62.404 E1.62589
G1 X114.614 Y62.432 E1.63596
G1 X115.508 Y62.666 E1.70973
G1 X115.671 Y62.715 E1.72332
G1 X116.513 Y63.001 E1.7943
G1 X116.679 Y63.065 E1.8085
G1 X117.482 Y63.406 E1.87814
G1 X117.671 Y63.494 E1.89478
G1 X118.465 Y63.902 E1.96604
G1 X118.582 Y63.969 E1.9768
G1 X119.361 Y64.443 E2.04959
G1 X119.512 Y64.543 E2.06405
G1 X120.226 Y65.054 E2.13414
G1 X120.374 Y65.167 E2.149
G1 X121.066 Y65.744 E2.22092
G1 X121.174 Y65.84 E2.23246
G1 X121.686 Y66.322 E2.28859
G1 X121.806 Y66.442 E2.30214
G1 X122.488 Y67.175 E2.38206
G1 X122.607 Y67.314 E2.39666
G1 X123.161 Y68.005 E2.46736
G1 X123.265 Y68.144 E2.48122
G1 X123.757 Y68.859 E2.5505
G1 X123.874 Y69.043 E2.56791
G1 X124.314 Y69.792 E2.63725
G1 X124.387 Y69.926 E2.64943
G1 X124.792 Y70.749 E2.72265
G1 X124.853 Y70.886 E2.73462
G1 X125.195 Y71.731 E2.80738
G1 X125.254 Y71.897 E2.82145
G1 X125.525 Y72.739 E2.89205
G1 X125.572 Y72.905 E2.90583
G1 X125.783 Y73.774 E2.97721
G1 X125.817 Y73.937 E2.9905
G1 X125.965 Y74.829 E3.06268
G1 X125.989 Y75.015 E3.07765
G1 X126.07 Y75.899 E3.14851
G1 X126.079 Y76.051 E3.16066
G1 X126.1 Y76.784 E3.2192
G1 X126.1 Y84.353 E3.82339
G1 X126.089 Y84.667 E3.84847
G1 X126.088 Y84.995 E3.87465
G1 X126.1 Y85.428 E3.90923
G1 X126.1 Y157.893 E9.6937
G1 X126.086 Y158.291 E9.72549
G1 X126.088 Y158.714 E9.75925
G1 X126.1 Y159.032 E9.78466
G1 X126.1 Y166.536 E10.38366
G1 X126.064 Y167.542 E10.46401
G1 X126.054 Y167.677 E10.47482
G1 X125.952 Y168.594 E10.54847
G1 X125.927 Y168.769 E10.56258
G1 X125.765 Y169.647 E10.63385
G1 X125.735 Y169.781 E10.64481
G1 X125.504 Y170.666 E10.71782
G1 X125.452 Y170.838 E10.73216
G1 X125.166 Y171.68 E10.80315
G1 X125.102 Y171.846 E10.81735
G1 X124.761 Y172.649 E10.88699
G1 X124.68 Y172.824 E10.90238
G1 X124.276 Y173.61 E10.97293
G1 X124.198 Y173.749 E10.98565
G1 X123.724 Y174.528 E11.05844
G1 X123.624 Y174.679 E11.0729
G1 X123.113 Y175.393 E11.14298
G1 X123 Y175.541 E11.15785
G1 X122.423 Y176.233 E11.22977
G1 X122.327 Y176.341 E11.2413
G1 X121.845 Y176.853 E11.29743
G1 X121.688 Y177.009 E11.3151
G1 X121.003 Y177.645 E11.38972
G1 X120.855 Y177.772 E11.40528
G1 X120.162 Y178.328 E11.47621
G1 X120.023 Y178.432 E11.49006
G1 X119.308 Y178.924 E11.55934
G1 X119.124 Y179.041 E11.57675
G1 X118.368 Y179.484 E11.64669
G1 X118.226 Y179.561 E11.65959
G1 X117.398 Y179.968 E11.73324
G1 X117.281 Y180.02 E11.74346
G1 X116.426 Y180.365 E11.81705
G1 X116.263 Y180.423 E11.83086
G1 X115.42 Y180.694 E11.90155
G1 X115.256 Y180.74 E11.91514
G1 X114.384 Y180.952 E11.98678
G1 X114.222 Y180.985 E11.99998
G1 X113.329 Y181.133 E12.07223
G1 X113.152 Y181.156 E12.08648
G1 X112.258 Y181.239 E12.15815
G1 X112.116 Y181.246 E12.1695
G1 X111.375 Y181.267 E12.22867
G1 X108.614 Y181.266 E12.44907
G1 X107.613 Y181.23 E12.52902
G1 X107.49 Y181.221 E12.53887
G1 X106.573 Y181.119 E12.61252
G1 X106.398 Y181.094 E12.62663
G1 X105.509 Y180.93 E12.69879
G1 X105.386 Y180.902 E12.70886
G1 X104.492 Y180.668 E12.78263
G1 X104.329 Y180.619 E12.79621
G1 X103.487 Y180.333 E12.8672
G1 X103.321 Y180.269 E12.8814
G1 X102.518 Y179.928 E12.95104
G1 X102.329 Y179.84 E12.96768
G1 X101.535 Y179.432 E13.03894
G1 X101.418 Y179.365 E13.0497
G1 X100.639 Y178.891 E13.12249
G1 X100.488 Y178.791 E13.13695
G1 X99.774 Y178.28 E13.20703
G1 X99.626 Y178.167 E13.2219
G1 X98.934 Y177.59 E13.29382
G1 X98.826 Y177.494 E13.30535
G1 X98.314 Y177.012 E13.36148
G1 X98.154 Y176.851 E13.3796
G1 X97.51 Y176.157 E13.45518
G1 X97.393 Y176.02 E13.46956
G1 X96.843 Y175.334 E13.53975
G1 X96.727 Y175.178 E13.55526
G1 X96.243 Y174.475 E13.62339
G1 X96.126 Y174.291 E13.6408
G1 X95.683 Y173.535 E13.71074
G1 X95.606 Y173.393 E13.72364
G1 X95.197 Y172.561 E13.79764
G1 X95.147 Y172.448 E13.80751
G1 X94.798 Y171.584 E13.88189
G1 X94.742 Y171.426 E13.89527
G1 X94.47 Y170.578 E13.96636
G1 X94.428 Y170.428 E13.97879
G1 X94.212 Y169.54 E14.05174
G1 X94.183 Y169.397 E14.06339
G1 X94.033 Y168.491 E14.1367
G1 X94.011 Y168.319 E14.15054
G1 X93.928 Y167.42 E14.2226
G1 X93.921 Y167.283 E14.23355
G1 X93.9 Y166.55 E14.29209
G1 X93.9 Y158.982 E14.8962
G1 X93.911 Y158.668 E14.92128
G1 X93.912 Y158.34 E14.94746
G1 X93.9 Y157.906 E14.98212
G1 X93.9 Y85.44 E20.76667
G1 X93.914 Y85.043 E20.79838
G1 X93.912 Y84.619 E20.83223
G1 X93.9 Y84.28 E20.8593
G1 X93.9 Y76.798 E21.45655
G1 X93.936 Y75.792 E21.5369
G1 X93.946 Y75.657 E21.54771
G1 X94.047 Y74.742 E21.62119
G1 X94.073 Y74.567 E21.63531
G1 X94.235 Y73.687 E21.70674
G1 X94.265 Y73.553 E21.7177
G1 X94.496 Y72.667 E21.79079
G1 X94.548 Y72.496 E21.80506
G1 X94.834 Y71.654 E21.87604
G1 X94.898 Y71.488 E21.89024
G1 X95.239 Y70.685 E21.95988
G1 X95.32 Y70.51 E21.97527
G1 X95.735 Y69.702 E22.04778
G1 X95.802 Y69.585 E22.05854
G1 X96.276 Y68.806 E22.13133
G1 X96.376 Y68.655 E22.14579
G0 F9000 X96 Y69.259
G1 F1125 X96 Y174.075 E30.51266
G0 F9000 X97.6 Y176.253
G1 F1125 X97.6 Y67.075 E39.22772
G0 F9000 X99.2 Y65.517
G1 F1125 X99.2 Y177.811 E48.19151
G0 F9000 X100.8 Y178.988
G1 F1125 X100.8 Y64.341 E57.34313
G0 F9000 X102.4 Y63.465
G1 F1125 X102.4 Y179.873 E66.63532
G0 F9000 X104 Y180.507
G1 F1125 X104 Y62.826 E76.02913
G0 F9000 X105.6 Y62.385
G1 F1125 X105.6 Y180.946 E85.49318
G0 F9000 X107.2 Y181.188
G1 F1125 X107.2 Y62.145 E94.9957
G0 F9000 X108.8 Y62.068
G1 F1125 X108.8 Y181.266 E104.5106
G0 F9000 X110.4 Y181.266
G1 F1125 X110.4 Y62.068 E114.0255
G0 F9000 X112 Y62.091
G1 F1125 X112 Y181.25 E123.53729
G0 F9000 X113.6 Y181.089
G1 F1125 X113.6 Y62.24 E133.02433
G0 F9000 X115.2 Y62.586
G1 F1125 X115.2 Y180.754 E142.45701
G0 F9000 X116.8 Y180.215
G1 F1125 X116.8 Y63.117 E151.80428
G0 F9000 X118.4 Y63.869
G1 F1125 X118.4 Y179.466 E161.03173
G0 F9000 X120 Y178.448
G1 F1125 X120 Y64.893 E170.09618
G0 F9000 X121.6 Y66.242
G1 F1125 X121.6 Y177.091 E178.94463
G0 F9000 X123.2 Y175.272
G1 F1125 X123.2 Y68.058 E187.50292
G0 F9000 X124.8 Y70.767
G1 F1125 X124.8 Y172.558 E195.62831
G1 F1500 E189.12831
G0 F9000 X125.731 Y173.088
G0 X125.113 Y174.293
G0 X123.966 Y176.031
G0 X122.56 Y177.643
G0 X121.537 Y178.589
G0 X119.89 Y179.816
G0 X118.722 Y180.503
G0 X116.806 Y181.36
G0 X115.525 Y181.771
G0 X113.485 Y182.186
G0 X111.395 Y182.331
G0 X107.386 Y182.28
G0 X105.301 Y181.973
G0 X103.997 Y181.631
G0 X102.079 Y180.898
G0 X100.874 Y180.28
G0 X99.136 Y179.133
G0 X97.524 Y177.727
G0 X96.578 Y176.704
G0 X95.351 Y175.057
G0 X94.664 Y173.889
G0 X93.97 Y172.335
G0 X93.396 Y170.692
G0 X94.4 Y170.312
G1 F1500 E195.62831
G1 F1125 X94.4 Y73.035 E203.39339
G1 F1500 E196.89339
G0 F300 X94.4 Y73.035 Z0.54
G0 F9000 X93.473 Y72.371
G0 X93.913 Y71.084
G0 X94.795 Y69.204
G0 X95.504 Y68.045
G0 X96.774 Y66.401
G0 X98.306 Y64.879
G0 X99.363 Y64.033
G0 X101.115 Y62.92
G0 X102.31 Y62.332
G0 X104.275 Y61.62
G0 X105.584 Y61.301
G0 X107.661 Y61.035
G0 X112.44 Y61.041
G0 X113.766 Y61.188
G0 X115.793 Y61.64
G0 X117.083 Y62.08
G0 X118.963 Y62.962
G0 X119.291 Y63.162
G0 X120.784 Y64.144
G0 X120.165 Y65.011
;TIME_ELAPSED:145.152713
;LAYER:-5
;TYPE:SUPPORT
G1 F1500 E203.39339
G1 F1125 X119.51 Y64.543 E203.47371
G1 X119.36 Y64.443 E203.4917
G1 X118.581 Y63.969 E203.58269
G1 X118.463 Y63.901 E203.59627
G1 X117.67 Y63.494 E203.68521
G1 X117.481 Y63.406 E203.70602
G1 X116.899 Y63.159 E203.7691
G1 X125.006 Y71.266 E204.91309
G1 X125.193 Y71.731 E204.9631
G1 X125.253 Y71.896 E204.98061
G1 X125.524 Y72.738 E205.06887
G1 X125.571 Y72.904 E205.08609
G1 X125.681 Y73.355 E205.13241
G1 X114.809 Y62.483 E206.66657
G1 X114.613 Y62.431 E206.6868
G1 X114.49 Y62.403 E206.69939
G1 X113.601 Y62.24 E206.78957
G1 X113.426 Y62.214 E206.80722
G1 X113.089 Y62.177 E206.84105
G1 X125.995 Y75.083 E208.66223
G1 X126.069 Y75.898 E208.74388
G1 X126.078 Y76.05 E208.75908
G1 X126.094 Y76.596 E208.81358
G1 X111.572 Y62.074 E210.86279
G1 X111.385 Y62.067 E210.88146
G1 X110.15 Y62.067 E211.00469
G1 X126.099 Y78.015 E213.2552
G1 X126.099 Y79.43 E213.39639
G1 X108.736 Y62.067 E215.84649
G1 X108.624 Y62.067 E215.85767
G1 X107.883 Y62.088 E215.93163
G1 X107.741 Y62.094 E215.94582
G1 X107.383 Y62.128 E215.9817
G1 X126.099 Y80.844 E218.62273
G1 X126.099 Y82.258 E218.76382
G1 X106.131 Y62.29 E221.58152
G1 X105.776 Y62.349 E221.61743
G1 X105.615 Y62.381 E221.6338
G1 X104.966 Y62.54 E221.70048
G1 X126.099 Y83.672 E224.6825
G1 X126.099 Y84.352 E224.75035
G1 X126.087 Y84.666 E224.78171
G1 X126.087 Y84.994 E224.81443
G1 X126.09 Y85.078 E224.82282
G1 X103.878 Y62.866 E227.95717
G1 X103.741 Y62.909 E227.9715
G1 X103.568 Y62.97 E227.98981
G1 X102.857 Y63.259 E228.06639
G1 X126.099 Y86.501 E231.34608
G1 X126.099 Y87.916 E231.48727
G1 X101.896 Y63.713 E234.90258
G1 X101.773 Y63.773 E234.91623
G1 X101.631 Y63.85 E234.93235
G1 X100.993 Y64.224 E235.00614
G1 X126.099 Y89.33 E238.54887
G1 X126.099 Y90.744 E238.68996
G1 X100.143 Y64.787 E242.3527
G1 X99.976 Y64.902 E242.37293
G1 X99.837 Y65.006 E242.39026
G1 X99.343 Y65.402 E242.45343
G1 X126.099 Y92.158 E246.22899
G1 X126.099 Y93.572 E246.37008
G1 X98.591 Y66.064 E250.25176
G1 X98.311 Y66.324 E250.28988
G1 X98.154 Y66.481 E250.31204
G1 X97.881 Y66.769 E250.35163
G1 X126.099 Y94.987 E254.3335
G1 X126.099 Y96.401 E254.47459
G1 X97.222 Y67.524 E258.54944
G1 X96.999 Y67.793 E258.58431
G1 X96.891 Y67.933 E258.60195
G1 X96.609 Y68.325 E258.65013
G1 X126.099 Y97.815 E262.81149
G1 X126.099 Y99.229 E262.95258
G1 X96.048 Y69.178 E267.1931
G1 X95.801 Y69.584 E267.24052
G1 X95.734 Y69.701 E267.25397
G1 X95.538 Y70.082 E267.29672
G1 X126.099 Y100.643 E271.60921
G1 X126.099 Y102.058 E271.7504
G1 X95.085 Y71.043 E276.12688
G1 X94.897 Y71.487 E276.17499
G1 X94.832 Y71.653 E276.19278
G1 X94.692 Y72.065 E276.2362
G1 X126.099 Y103.472 E280.66807
G1 X126.099 Y104.886 E280.80916
G1 X94.367 Y73.154 E285.28688
G1 X94.264 Y73.553 E285.328
G1 X94.233 Y73.686 E285.34163
G1 X94.117 Y74.318 E285.40574
G1 X126.099 Y106.3 E289.91875
G1 X126.099 Y107.714 E290.05984
G1 X93.954 Y75.569 E294.59584
G1 X93.945 Y75.656 E294.60457
G1 X93.934 Y75.791 E294.61809
G1 X93.898 Y76.798 E294.71863
G1 X93.898 Y76.928 E294.7316
G1 X126.099 Y109.129 E299.27551
G1 X126.099 Y110.543 E299.4166
G1 X93.898 Y78.342 E303.96051
G1 X93.898 Y79.756 E304.1016
G1 X126.099 Y111.957 E308.64551
G1 X126.099 Y113.371 E308.7866
G1 X93.898 Y81.17 E313.3305
G1 X93.898 Y82.585 E313.47169
G1 X126.099 Y114.786 E318.0156
G1 X126.099 Y116.2 E318.15669
G1 X93.898 Y83.999 E322.7006
G1 X93.899 Y84.28 E322.72864
G1 X93.902 Y84.405 E322.74112
G1 X93.911 Y84.618 E322.76239
G1 X93.912 Y85.043 E322.80479
G1 X93.9 Y85.414 E322.84183
G1 X126.099 Y117.614 E327.38553
G1 X126.099 Y119.028 E327.52662
G1 X93.899 Y86.828 E332.07039
G1 X93.899 Y88.242 E332.21148
G1 X126.099 Y120.442 E336.75524
G1 X126.099 Y121.857 E336.89643
G1 X93.899 Y89.656 E341.44027
G1 X93.899 Y91.071 E341.58146
G1 X126.099 Y123.271 E346.12523
G1 X126.099 Y124.685 E346.26632
G1 X93.899 Y92.485 E350.81009
G1 X93.899 Y93.899 E350.95118
G1 X126.099 Y126.099 E355.49494
G1 X126.099 Y127.513 E355.63603
G1 X93.899 Y95.313 E360.1798
G1 X93.899 Y96.727 E360.32089
G1 X126.099 Y128.928 E364.86473
G1 X126.099 Y130.342 E365.00582
G1 X93.899 Y98.142 E369.54959
G1 X93.899 Y99.556 E369.69068
G1 X126.099 Y131.756 E374.23444
G1 X126.099 Y133.17 E374.37553
G1 X93.899 Y100.97 E378.9193
G1 X93.899 Y102.384 E379.06039
G1 X126.099 Y134.585 E383.60423
G1 X126.099 Y135.999 E383.74532
G1 X93.899 Y103.799 E388.28909
G1 X93.899 Y105.213 E388.43018
G1 X126.099 Y137.413 E392.97394
G1 X126.099 Y138.827 E393.11503
G1 X93.899 Y106.627 E397.6588
G1 X93.899 Y108.041 E397.79989
G1 X126.099 Y140.241 E402.34366
G1 X126.099 Y141.656 E402.48485
G1 X93.899 Y109.455 E407.02869
G1 X93.899 Y110.87 E407.16988
G1 X126.099 Y143.07 E411.71364
G1 X126.099 Y144.484 E411.85473
G1 X93.899 Y112.284 E416.3985
G1 X93.899 Y113.698 E416.53959
G1 X126.099 Y145.898 E421.08336
G1 X126.099 Y147.312 E421.22445
G1 X93.899 Y115.112 E425.76822
G1 X93.899 Y116.526 E425.9093
G1 X126.099 Y148.727 E430.45314
G1 X126.099 Y150.141 E430.59423
G1 X93.899 Y117.941 E435.138
G1 X93.899 Y119.355 E435.27909
G1 X126.099 Y151.555 E439.82286
G1 X126.099 Y152.969 E439.96395
G1 X93.899 Y120.769 E444.50772
G1 X93.899 Y122.183 E444.6488
G1 X126.099 Y154.384 E449.19264
G1 X126.099 Y155.798 E449.33373
G1 X93.899 Y123.598 E453.8775
G1 X93.899 Y125.012 E454.01859
G1 X126.099 Y157.212 E458.56236
G1 X126.099 Y157.892 E458.63021
G1 X126.085 Y158.29 E458.66995
G1 X126.087 Y158.614 E458.70227
G1 X93.899 Y126.426 E463.24435
G1 X93.899 Y127.84 E463.38544
G1 X126.099 Y160.04 E467.92921
G1 X126.099 Y161.455 E468.0704
G1 X93.899 Y129.254 E472.61423
G1 X93.899 Y130.669 E472.75542
G1 X126.099 Y162.869 E477.29919
G1 X126.099 Y164.283 E477.44028
G1 X93.899 Y132.083 E481.98405
G1 X93.899 Y133.497 E482.12514
G1 X126.099 Y165.697 E486.66891
G1 X126.099 Y166.534 E486.75242
G1 X126.079 Y167.092 E486.80814
G1 X93.899 Y134.911 E491.34915
G1 X93.899 Y136.325 E491.49024
G1 X125.973 Y168.4 E496.0163
G1 X125.951 Y168.593 E496.03568
G1 X125.927 Y168.768 E496.05331
G1 X125.771 Y169.612 E496.13895
G1 X93.899 Y137.74 E500.63643
G1 X93.899 Y139.154 E500.77752
G1 X125.482 Y170.737 E505.23422
G1 X125.452 Y170.836 E505.24455
G1 X125.165 Y171.679 E505.3334
G1 X125.122 Y171.791 E505.34537
G1 X93.899 Y140.568 E509.75127
G1 X93.899 Y141.982 E509.89236
G1 X124.699 Y172.782 E514.23858
G1 X124.68 Y172.823 E514.24309
G1 X124.276 Y173.609 E514.33127
G1 X124.217 Y173.714 E514.34328
G1 X93.899 Y143.397 E518.62141
G1 X93.899 Y144.811 E518.7625
G1 X123.681 Y174.593 E522.96506
G1 X123.624 Y174.678 E522.97527
G1 X123.112 Y175.392 E523.06294
G1 X123.093 Y175.419 E523.06624
G1 X93.899 Y146.225 E527.18582
G1 X93.899 Y147.639 E527.32691
G1 X122.454 Y176.194 E531.35633
G1 X122.422 Y176.232 E531.36129
G1 X122.327 Y176.34 E531.37564
G1 X121.845 Y176.852 E531.44581
G1 X121.77 Y176.925 E531.45625
G1 X93.899 Y149.053 E535.38922
G1 X93.899 Y150.468 E535.53041
G1 X121.04 Y177.608 E539.36023
G1 X121.003 Y177.644 E539.36538
G1 X120.855 Y177.771 E539.38484
G1 X120.263 Y178.246 E539.46057
G1 X93.899 Y151.882 E543.18082
G1 X93.899 Y153.296 E543.3219
G1 X119.436 Y178.833 E546.92545
G1 X119.308 Y178.922 E546.94101
G1 X119.124 Y179.04 E546.96282
G1 X118.559 Y179.371 E547.02816
G1 X93.899 Y154.71 E550.50802
G1 X93.899 Y156.124 E550.64911
G1 X117.627 Y179.853 E553.99746
G1 X117.398 Y179.967 E554.02298
G1 X117.28 Y180.019 E554.03585
G1 X116.637 Y180.277 E554.10498
G1 X93.899 Y157.539 E557.31356
