;FLAVOR:Marlin
;TIME:10172
;Filament used: 6.68651m
;Layer height: 0.2
;MINX:92.836
;MINY:41.669
;MINZ:0.24
;MAXX:127.009
;MAXY:155.497
;MAXZ:83.49
;Generated with Cura_SteamEngine 4.9.1
M140 S60
M105
M190 S60
M104 S200
M105
M109 S200
M82 ;absolute extrusion mode
; Ender 3 Custom Start G-code
G92 E0 ; Reset Extruder
G28 ; Home all axes
G1 Z2.0 F3000 ; Move Z Axis up little to prevent scratching of Heat Bed
G1 X0.1 Y20 Z0.3 F5000.0 ; Move to start position
G1 X0.1 Y200.0 Z0.3 F1500.0 E15 ; Draw the first line
G1 X0.4 Y200.0 Z0.3 F5000.0 ; Move to side a little
G1 X0.4 Y20 Z0.3 F1500.0 E30 ; Draw the second line
G92 E0 ; Reset Extruder
G1 Z2.0 F3000 ; Move Z Axis up little to prevent scratching of Heat Bed
G1 X5 Y20 Z0.3 F5000.0 ; Move over to prevent blob squish
G92 E0
G92 E0
G1 F1500 E-6.5
;LAYER_COUNT:412
;LAYER:-6
M107
G0 F9000 X95.735 Y50.368 Z0.24
;TYPE:SUPPORT-INTERFACE
G1 F1500 E0
G1 F1125 X95.802 Y50.251 E0.01076
G1 X96.276 Y49.472 E0.08355
G1 X96.376 Y49.321 E0.09801
G1 X96.892 Y48.6 E0.16878
G1 X97 Y48.459 E0.18296
G1 X97.577 Y47.767 E0.25488
G1 X97.673 Y47.659 E0.26642
G1 X98.155 Y47.147 E0.32255
G1 X98.312 Y46.991 E0.34021
G1 X99.008 Y46.345 E0.41602
G1 X99.147 Y46.226 E0.43062
G1 X99.838 Y45.672 E0.50132
G1 X99.977 Y45.568 E0.51518
G1 X100.692 Y45.076 E0.58446
G1 X100.876 Y44.959 E0.60186
G1 X101.632 Y44.516 E0.67181
G1 X101.774 Y44.439 E0.6847
G1 X102.606 Y44.03 E0.75871
G1 X102.719 Y43.98 E0.76857
G1 X103.569 Y43.637 E0.84174
G1 X103.742 Y43.575 E0.85641
G1 X104.58 Y43.306 E0.92666
G1 X104.744 Y43.26 E0.94026
G1 X105.616 Y43.048 E1.01189
G1 X105.778 Y43.015 E1.02509
G1 X106.671 Y42.867 E1.09735
G1 X106.848 Y42.844 E1.11159
G1 X107.742 Y42.761 E1.18326
G1 X107.884 Y42.754 E1.19461
G1 X108.625 Y42.733 E1.25379
G1 X111.386 Y42.734 E1.47418
G1 X112.387 Y42.77 E1.55414
G1 X112.51 Y42.779 E1.56398
G1 X113.427 Y42.881 E1.63763
G1 X113.602 Y42.906 E1.65174
G1 X114.491 Y43.07 E1.7239
G1 X114.614 Y43.098 E1.73397
G1 X115.508 Y43.332 E1.80774
G1 X115.671 Y43.381 E1.82133
G1 X116.513 Y43.667 E1.89231
G1 X116.679 Y43.731 E1.90651
G1 X117.482 Y44.072 E1.97615
G1 X117.671 Y44.16 E1.99279
G1 X118.465 Y44.568 E2.06405
G1 X118.582 Y44.635 E2.07481
G1 X119.361 Y45.109 E2.1476
G1 X119.512 Y45.209 E2.16206
G1 X120.226 Y45.72 E2.23215
G1 X120.374 Y45.833 E2.24701
G1 X121.066 Y46.41 E2.31893
G1 X121.174 Y46.506 E2.33047
G1 X121.686 Y46.988 E2.3866
G1 X121.805 Y47.107 E2.40003
G1 X122.488 Y47.841 E2.48007
G1 X122.607 Y47.98 E2.49467
G1 X123.161 Y48.671 E2.56537
G1 X123.265 Y48.81 E2.57923
G1 X123.757 Y49.525 E2.64851
G1 X123.874 Y49.709 E2.66591
G1 X124.314 Y50.458 E2.73526
G1 X124.387 Y50.592 E2.74744
G1 X124.792 Y51.415 E2.82066
G1 X124.853 Y51.552 E2.83263
G1 X125.195 Y52.397 E2.90539
G1 X125.254 Y52.563 E2.91946
G1 X125.525 Y53.405 E2.99006
G1 X125.572 Y53.571 E3.00384
G1 X125.783 Y54.44 E3.07522
G1 X125.817 Y54.603 E3.08851
G1 X125.965 Y55.495 E3.16069
G1 X125.989 Y55.681 E3.17566
G1 X126.07 Y56.565 E3.24652
G1 X126.079 Y56.717 E3.25867
G1 X126.1 Y57.45 E3.31721
G1 X126.1 Y62.387 E3.7113
G1 X126.091 Y62.635 E3.73111
G1 X126.09 Y62.97 E3.75785
G1 X126.1 Y63.321 E3.78588
G1 X126.099 Y133.879 E9.41812
G1 X126.094 Y134.027 E9.42995
G1 X126.092 Y134.291 E9.45102
G1 X126.1 Y134.818 E9.49309
G1 X126.1 Y139.702 E9.88295
G1 X126.064 Y140.708 E9.96331
G1 X126.054 Y140.843 E9.97411
G1 X125.952 Y141.76 E10.04777
G1 X125.927 Y141.935 E10.06188
G1 X125.765 Y142.813 E10.13314
G1 X125.735 Y142.947 E10.14411
G1 X125.504 Y143.832 E10.21712
G1 X125.452 Y144.004 E10.23146
G1 X125.166 Y144.846 E10.30244
G1 X125.102 Y145.012 E10.31665
G1 X124.761 Y145.815 E10.38629
G1 X124.68 Y145.99 E10.40168
G1 X124.276 Y146.776 E10.47222
G1 X124.198 Y146.915 E10.48495
G1 X123.724 Y147.694 E10.55774
G1 X123.624 Y147.845 E10.57219
G1 X123.113 Y148.559 E10.64228
G1 X123 Y148.707 E10.65714
G1 X122.423 Y149.399 E10.72907
G1 X122.327 Y149.507 E10.7406
G1 X121.845 Y150.019 E10.79673
G1 X121.688 Y150.175 E10.8144
G1 X121.003 Y150.811 E10.88901
G1 X120.855 Y150.938 E10.90458
G1 X120.162 Y151.494 E10.9755
G1 X120.023 Y151.598 E10.98936
G1 X119.308 Y152.09 E11.05864
G1 X119.124 Y152.207 E11.07605
G1 X118.368 Y152.65 E11.14599
G1 X118.226 Y152.727 E11.15889
G1 X117.398 Y153.134 E11.23253
G1 X117.281 Y153.186 E11.24275
G1 X116.426 Y153.531 E11.31635
G1 X116.263 Y153.589 E11.33016
G1 X115.42 Y153.86 E11.40084
G1 X115.256 Y153.906 E11.41444
G1 X114.384 Y154.118 E11.48607
G1 X114.222 Y154.151 E11.49927
G1 X113.329 Y154.299 E11.57153
G1 X113.152 Y154.322 E11.58577
G1 X112.258 Y154.405 E11.65744
G1 X112.116 Y154.412 E11.66879
G1 X111.375 Y154.433 E11.72797
G1 X108.614 Y154.432 E11.94836
G1 X107.613 Y154.396 E12.02832
G1 X107.49 Y154.387 E12.03816
G1 X106.573 Y154.285 E12.11181
G1 X106.398 Y154.26 E12.12592
G1 X105.509 Y154.096 E12.19809
G1 X105.386 Y154.068 E12.20815
G1 X104.492 Y153.834 E12.28192
G1 X104.329 Y153.785 E12.29551
G1 X103.487 Y153.499 E12.36649
G1 X103.321 Y153.435 E12.38069
G1 X102.518 Y153.094 E12.45033
G1 X102.329 Y153.006 E12.46697
G1 X101.535 Y152.598 E12.53823
G1 X101.418 Y152.531 E12.549
G1 X100.639 Y152.057 E12.62179
G1 X100.488 Y151.957 E12.63624
G1 X99.774 Y151.446 E12.70633
G1 X99.626 Y151.333 E12.72119
G1 X98.934 Y150.756 E12.79311
G1 X98.826 Y150.66 E12.80465
G1 X98.314 Y150.178 E12.86078
G1 X98.154 Y150.017 E12.8789
G1 X97.51 Y149.323 E12.95447
G1 X97.393 Y149.186 E12.96886
G1 X96.843 Y148.5 E13.03904
G1 X96.727 Y148.344 E13.05456
G1 X96.243 Y147.641 E13.12269
G1 X96.126 Y147.457 E13.1401
G1 X95.683 Y146.701 E13.21004
G1 X95.606 Y146.559 E13.22293
G1 X95.197 Y145.727 E13.29694
G1 X95.147 Y145.614 E13.3068
G1 X94.798 Y144.75 E13.38119
G1 X94.742 Y144.592 E13.39457
G1 X94.47 Y143.744 E13.46565
G1 X94.428 Y143.594 E13.47809
G1 X94.212 Y142.706 E13.55104
G1 X94.183 Y142.563 E13.56269
G1 X94.033 Y141.657 E13.63599
G1 X94.011 Y141.485 E13.64983
G1 X93.928 Y140.586 E13.7219
G1 X93.921 Y140.449 E13.73285
G1 X93.9 Y139.716 E13.79139
G1 X93.901 Y134.766 E14.18652
G1 X93.909 Y134.531 E14.20529
G1 X93.91 Y134.196 E14.23203
G1 X93.9 Y133.845 E14.26006
G1 X93.901 Y63.286 E19.89238
G1 X93.906 Y63.138 E19.9042
G1 X93.908 Y62.874 E19.92528
G1 X93.9 Y62.347 E19.96735
G1 X93.9 Y57.464 E20.35713
G1 X93.936 Y56.458 E20.43749
G1 X93.946 Y56.323 E20.44829
G1 X94.047 Y55.408 E20.52177
G1 X94.073 Y55.233 E20.5359
G1 X94.235 Y54.353 E20.60732
G1 X94.265 Y54.219 E20.61828
G1 X94.496 Y53.333 E20.69137
G1 X94.548 Y53.162 E20.70564
G1 X94.834 Y52.32 E20.77662
G1 X94.898 Y52.154 E20.79082
G1 X95.239 Y51.351 E20.86046
G1 X95.32 Y51.176 E20.87586
G1 X95.735 Y50.368 E20.94837
G0 F9000 X96 Y49.925
G1 F1125 X96 Y147.241 E28.71655
G0 F9000 X97.6 Y149.419
G1 F1125 X97.6 Y47.741 E36.83293
G0 F9000 X99.2 Y46.183
G1 F1125 X99.2 Y150.977 E45.19804
G0 F9000 X100.8 Y152.154
G1 F1125 X100.8 Y45.007 E53.75097
G0 F9000 X102.4 Y44.131
G1 F1125 X102.4 Y153.039 E62.44448
G0 F9000 X104 Y153.673
G1 F1125 X104 Y43.492 E71.23961
G0 F9000 X105.6 Y43.051
G1 F1125 X105.6 Y154.112 E80.10497
G0 F9000 X107.2 Y154.354
G1 F1125 X107.2 Y42.811 E89.00882
G0 F9000 X108.8 Y42.734
G1 F1125 X108.8 Y154.432 E97.92504
G0 F9000 X110.4 Y154.432
G1 F1125 X110.4 Y42.734 E106.84125
G0 F9000 X112 Y42.757
G1 F1125 X112 Y154.416 E115.75436
G0 F9000 X113.6 Y154.255
G1 F1125 X113.6 Y42.906 E124.64272
G0 F9000 X115.2 Y43.252
G1 F1125 X115.2 Y153.92 E133.47671
G0 F9000 X116.8 Y153.381
G1 F1125 X116.8 Y43.783 E142.2253
G0 F9000 X118.4 Y44.535
G1 F1125 X118.4 Y152.632 E150.85407
G0 F9000 X120 Y151.614
G1 F1125 X120 Y45.559 E159.31984
G0 F9000 X121.6 Y46.908
G1 F1125 X121.6 Y150.257 E167.5696
G0 F9000 X123.2 Y148.438
G1 F1125 X123.2 Y48.724 E175.52921
G0 F9000 X124.8 Y51.433
G1 F1125 X124.8 Y145.724 E183.05592
G1 F1500 E176.55592
G0 F9000 X125.731 Y146.254
G0 X125.113 Y147.459
G0 X123.966 Y149.197
G0 X122.56 Y150.809
G0 X121.537 Y151.755
G0 X119.89 Y152.982
G0 X118.722 Y153.669
G0 X116.806 Y154.526
G0 X115.525 Y154.937
G0 X113.485 Y155.352
G0 X111.395 Y155.497
G0 X107.386 Y155.446
G0 X105.301 Y155.139
G0 X103.997 Y154.797
G0 X102.079 Y154.064
G0 X100.874 Y153.446
G0 X99.136 Y152.299
G0 X97.524 Y150.893
G0 X96.578 Y149.87
G0 X95.351 Y148.223
G0 X94.664 Y147.055
G0 X93.97 Y145.501
G0 X93.396 Y143.858
G0 X94.4 Y143.478
G1 F1500 E183.05592
G1 F1125 X94.4 Y53.701 E190.22231
G1 F1500 E183.72231
G0 F300 X94.4 Y53.701 Z0.54
G0 F9000 X93.473 Y53.037
G0 X93.913 Y51.75
G0 X94.795 Y49.87
G0 X95.504 Y48.711
G0 X96.774 Y47.067
G0 X98.306 Y45.545
G0 X99.363 Y44.699
G0 X101.115 Y43.586
G0 X102.31 Y42.998
G0 X104.275 Y42.286
G0 X105.584 Y41.967
G0 X107.661 Y41.701
G0 X112.44 Y41.707
G0 X113.766 Y41.854
G0 X115.793 Y42.306
G0 X117.083 Y42.746
G0 X118.963 Y43.628
G0 X120.122 Y44.337
G0 X121.453 Y45.365
G0 X122.418 Y46.217
G0 X121.804 Y47.106
;TIME_ELAPSED:136.351339
;LAYER:-5
;TYPE:SUPPORT
G1 F1500 E190.22231
G1 F1125 X121.685 Y46.987 E190.2391
G1 X121.173 Y46.505 E190.30927
G1 X121.065 Y46.41 E190.32362
G1 X120.373 Y45.833 E190.41352
G1 X120.225 Y45.72 E190.4321
G1 X119.511 Y45.208 E190.51977
G1 X119.36 Y45.108 E190.53784
G1 X118.581 Y44.634 E190.62883
G1 X118.464 Y44.567 E190.64228
G1 X117.729 Y44.189 E190.72475
G1 X124.633 Y51.094 E191.69905
G1 X124.791 Y51.415 E191.73475
G1 X124.852 Y51.552 E191.74971
G1 X125.193 Y52.397 E191.84063
G1 X125.253 Y52.562 E191.85815
G1 X125.522 Y53.397 E191.94568
G1 X115.438 Y43.313 E193.36864
G1 X114.613 Y43.098 E193.45371
G1 X114.49 Y43.069 E193.46632
G1 X113.62 Y42.909 E193.55459
G1 X125.916 Y55.205 E195.28969
G1 X125.964 Y55.495 E195.31902
G1 X125.988 Y55.681 E195.33773
G1 X126.069 Y56.565 E195.4263
G1 X126.078 Y56.717 E195.4415
G1 X126.08 Y56.784 E195.44819
G1 X112.055 Y42.758 E197.42733
G1 X111.385 Y42.733 E197.49423
G1 X110.616 Y42.733 E197.57097
G1 X126.099 Y58.216 E199.75578
G1 X126.099 Y59.631 E199.89697
G1 X109.202 Y42.733 E202.28139
G1 X108.624 Y42.733 E202.33907
G1 X107.883 Y42.754 E202.41303
G1 X107.811 Y42.758 E202.42023
G1 X126.099 Y61.045 E205.00079
G1 X126.099 Y62.387 E205.1347
G1 X126.096 Y62.457 E205.14169
G1 X106.529 Y42.89 E207.9028
G1 X105.777 Y43.014 E207.97885
G1 X105.615 Y43.047 E207.99535
G1 X105.34 Y43.115 E208.02361
G1 X126.099 Y63.873 E210.95286
G1 X126.099 Y65.287 E211.09395
G1 X104.229 Y43.418 E214.17997
G1 X103.741 Y43.574 E214.2311
G1 X103.568 Y43.636 E214.24943
G1 X103.188 Y43.791 E214.29038
G1 X126.099 Y66.702 E217.52337
G1 X126.099 Y68.116 E217.66446
G1 X102.208 Y44.225 E221.03574
G1 X101.773 Y44.439 E221.08411
G1 X101.631 Y44.515 E221.10018
G1 X101.286 Y44.718 E221.14012
G1 X126.099 Y69.53 E224.64143
G1 X126.099 Y70.944 E224.78252
G1 X100.418 Y45.264 E228.40632
G1 X99.975 Y45.568 E228.45993
G1 X99.837 Y45.672 E228.47717
G1 X99.601 Y45.861 E228.50734
G1 X126.099 Y72.358 E232.24642
G1 X126.099 Y73.773 E232.38761
G1 X98.833 Y46.507 E236.23514
G1 X98.311 Y46.99 E236.3061
G1 X98.154 Y47.147 E236.32826
G1 X98.108 Y47.196 E236.33496
G1 X126.099 Y75.187 E240.2848
G1 X126.099 Y76.601 E240.42588
G1 X97.434 Y47.936 E244.47083
G1 X96.999 Y48.459 E244.5387
G1 X96.891 Y48.6 E244.55642
G1 X96.804 Y48.721 E244.57129
G1 X126.099 Y78.015 E248.70507
G1 X126.099 Y79.43 E248.84625
G1 X96.224 Y49.555 E253.06194
G1 X95.801 Y50.251 E253.14321
G1 X95.734 Y50.367 E253.15657
G1 X95.696 Y50.441 E253.16487
G1 X126.099 Y80.844 E257.45507
G1 X126.099 Y82.258 E257.59615
G1 X95.223 Y51.383 E261.95302
G1 X94.897 Y52.154 E262.03655
G1 X94.832 Y52.32 E262.05433
G1 X94.81 Y52.384 E262.06109
G1 X126.099 Y83.672 E266.47623
G1 X126.099 Y85.086 E266.61732
G1 X94.463 Y53.451 E271.08143
G1 X94.264 Y54.219 E271.1606
G1 X94.233 Y54.353 E271.17432
G1 X94.19 Y54.592 E271.19855
G1 X126.099 Y86.501 E275.70125
G1 X126.099 Y87.915 E275.84234
G1 X94 Y55.816 E280.37186
G1 X93.945 Y56.323 E280.42274
G1 X93.934 Y56.458 E280.43626
G1 X93.91 Y57.141 E280.50445
G1 X126.099 Y89.329 E285.0466
G1 X126.099 Y90.743 E285.18769
G1 X93.899 Y58.544 E289.73138
G1 X93.899 Y59.958 E289.87247
G1 X126.099 Y92.157 E294.41617
G1 X126.099 Y93.572 E294.55736
G1 X93.899 Y61.372 E299.10113
G1 X93.899 Y62.347 E299.19841
G1 X93.905 Y62.793 E299.24292
G1 X126.099 Y94.986 E303.78577
G1 X126.099 Y96.4 E303.92686
G1 X93.9 Y64.201 E308.47049
G1 X93.9 Y65.615 E308.61158
G1 X126.099 Y97.814 E313.1552
G1 X126.099 Y99.229 E313.29639
G1 X93.9 Y67.03 E317.84002
G1 X93.9 Y68.444 E317.98111
G1 X126.099 Y100.643 E322.52473
G1 X126.099 Y102.057 E322.66582
G1 X93.9 Y69.858 E327.20945
G1 X93.9 Y71.272 E327.35054
G1 X126.099 Y103.471 E331.89417
G1 X126.099 Y104.885 E332.03526
G1 X93.9 Y72.687 E336.57881
G1 X93.9 Y74.101 E336.7199
G1 X126.099 Y106.3 E341.26353
G1 X126.099 Y107.714 E341.40462
G1 X93.9 Y75.515 E345.94824
G1 X93.9 Y76.929 E346.08933
G1 X126.099 Y109.128 E350.63296
G1 X126.099 Y110.542 E350.77405
G1 X93.9 Y78.343 E355.31768
G1 X93.9 Y79.758 E355.45887
G1 X126.099 Y111.956 E360.00242
G1 X126.099 Y113.371 E360.14361
G1 X93.9 Y81.172 E364.68724
G1 X93.9 Y82.586 E364.82833
G1 X126.099 Y114.785 E369.37195
G1 X126.099 Y116.199 E369.51304
G1 X93.9 Y84 E374.05667
G1 X93.9 Y85.414 E374.19776
G1 X126.099 Y117.613 E378.74139
G1 X126.099 Y119.027 E378.88248
G1 X93.9 Y86.829 E383.42603
G1 X93.9 Y88.243 E383.56712
G1 X126.099 Y120.442 E388.11075
G1 X126.099 Y121.856 E388.25184
G1 X93.9 Y89.657 E392.79547
G1 X93.9 Y91.071 E392.93655
G1 X126.099 Y123.27 E397.48018
G1 X126.099 Y124.684 E397.62127
G1 X93.9 Y92.486 E402.16483
G1 X93.9 Y93.9 E402.30592
G1 X126.099 Y126.099 E406.84954
G1 X126.099 Y127.513 E406.99063
G1 X93.9 Y95.314 E411.53426
G1 X93.9 Y96.728 E411.67535
G1 X126.099 Y128.927 E416.21898
G1 X126.099 Y130.341 E416.36007
G1 X93.9 Y98.142 E420.90369
G1 X93.9 Y99.557 E421.04488
G1 X126.099 Y131.755 E425.58844
G1 X126.099 Y133.17 E425.72963
G1 X93.9 Y100.971 E430.27325
G1 X93.9 Y102.385 E430.41434
G1 X126.096 Y134.582 E434.95762
G1 X126.099 Y134.816 E434.98097
G1 X126.099 Y135.999 E435.09901
G1 X93.9 Y103.799 E439.64271
G1 X93.9 Y105.213 E439.78379
G1 X126.099 Y137.413 E444.32749
G1 X126.099 Y138.827 E444.46858
G1 X93.9 Y106.628 E449.01221
G1 X93.9 Y108.042 E449.1533
G1 X126.082 Y140.224 E453.69453
G1 X126.064 Y140.707 E453.74275
G1 X126.053 Y140.842 E453.75627
G1 X125.977 Y141.533 E453.82563
G1 X93.9 Y109.456 E458.35204
G1 X93.9 Y110.87 E458.49313
G1 X125.777 Y142.747 E462.99132
G1 X125.765 Y142.812 E462.99792
G1 X125.734 Y142.945 E463.01154
G1 X125.504 Y143.831 E463.10288
G1 X125.49 Y143.875 E463.10749
G1 X93.9 Y112.285 E467.56518
G1 X93.9 Y113.699 E467.70627
G1 X125.133 Y144.932 E472.11358
G1 X125.102 Y145.011 E472.12205
G1 X124.761 Y145.814 E472.2091
G1 X124.711 Y145.924 E472.22115
G1 X93.9 Y115.113 E476.56892
G1 X93.9 Y116.527 E476.71001
G1 X124.23 Y146.857 E480.9899
G1 X124.197 Y146.914 E480.99647
G1 X123.723 Y147.693 E481.08746
G1 X123.695 Y147.737 E481.09266
G1 X93.9 Y117.941 E485.29713
G1 X93.9 Y119.356 E485.43832
G1 X123.108 Y148.564 E489.55988
G1 X122.999 Y148.705 E489.57766
G1 X122.471 Y149.341 E489.66014
G1 X93.9 Y120.77 E493.69182
G1 X93.9 Y122.184 E493.83291
G1 X121.789 Y150.073 E497.76835
G1 X121.688 Y150.174 E497.7826
G1 X121.058 Y150.757 E497.86825
G1 X93.9 Y123.598 E501.70061
G1 X93.9 Y125.012 E501.8417
G1 X120.283 Y151.395 E505.56462
G1 X120.161 Y151.493 E505.58024
G1 X120.023 Y151.597 E505.59748
G1 X119.458 Y151.985 E505.66587
G1 X93.9 Y126.427 E509.27238
G1 X93.9 Y127.841 E509.41347
G1 X118.581 Y152.522 E512.89622
G1 X118.367 Y152.649 E512.92105
G1 X118.226 Y152.725 E512.93704
G1 X117.652 Y153.008 E513.00089
G1 X93.9 Y129.255 E516.35263
G1 X93.9 Y130.669 E516.49372
G1 X116.664 Y153.433 E519.70596
G1 X116.425 Y153.53 E519.7317
G1 X116.263 Y153.588 E519.74887
G1 X115.613 Y153.797 E519.817
G1 X93.9 Y132.084 E522.88094
G1 X93.9 Y133.498 E523.02202
G1 X114.492 Y154.09 E525.92778
G1 X114.383 Y154.117 E525.93898
G1 X114.221 Y154.15 E525.95548
G1 X113.328 Y154.298 E526.0458
G1 X113.29 Y154.302 E526.04961
G1 X93.9 Y134.912 E528.78575
G1 X93.9 Y136.326 E528.92684
G1 X111.988 Y154.414 E531.47925
G1 X111.374 Y154.432 E531.54054
G1 X110.59 Y154.431 E531.61877
G1 X93.9 Y137.74 E533.97398
G1 X93.9 Y139.155 E534.11517
G1 X109.176 Y154.431 E536.27078
G1 X108.613 Y154.431 E536.32695
G1 X107.729 Y154.398 E536.41522
