;FLAVOR:Marlin
;TIME:7764
;Filament used: 6.33343m
;Layer height: 0.2
;MINX:65.2
;MINY:65.2
;MINZ:0.2
;MAXX:154.8
;MAXY:154.8
;MAXZ:3
;Generated with Cura_SteamEngine 4.9.1
M140 S60
M105
M190 S60
M104 S200
M105
M109 S200
M82 ;absolute extrusion mode
; Ender 3 Custom Start G-code
G92 E0 ; Reset Extruder
G28 ; Home all axes
G1 Z2.0 F3000 ; Move Z Axis up little to prevent scratching of Heat Bed
G1 X0.1 Y20 Z0.3 F5000.0 ; Move to start position
G1 X0.1 Y200.0 Z0.3 F1500.0 E15 ; Draw the first line
G1 X0.4 Y200.0 Z0.3 F5000.0 ; Move to side a little
G1 X0.4 Y20 Z0.3 F1500.0 E30 ; Draw the second line
G92 E0 ; Reset Extruder
G1 Z2.0 F3000 ; Move Z Axis up little to prevent scratching of Heat Bed
G1 X5 Y20 Z0.3 F5000.0 ; Move over to prevent blob squish
G92 E0
G92 E0
G1 F1500 E-6.5
;LAYER_COUNT:15
;LAYER:0
M107
;MESH:Level1.stl
G0 F6000 X144.981 Y154.4 Z0.2
;TYPE:WALL-INNER
G1 F1500 E0
G1 F1200 X75.019 Y154.4 E2.32695
G1 X73.865 Y154.33 E2.3654
G1 X72.752 Y154.126 E2.40303
G1 X71.665 Y153.787 E2.4409
G1 X70.629 Y153.322 E2.47867
G1 X69.662 Y152.738 E2.51625
G1 X68.767 Y152.035 E2.5541
G1 X67.965 Y151.233 E2.59182
G1 X67.262 Y150.338 E2.62968
G1 X66.678 Y149.371 E2.66725
G1 X66.213 Y148.335 E2.70502
G1 X65.874 Y147.248 E2.74289
G1 X65.67 Y146.135 E2.78052
G1 X65.6 Y144.988 E2.81874
G1 X65.6 Y75.012 E5.14616
G1 X65.67 Y73.865 E5.18438
G1 X65.874 Y72.752 E5.22201
G1 X66.213 Y71.665 E5.25988
G1 X66.678 Y70.629 E5.29765
G1 X67.262 Y69.662 E5.33522
G1 X67.965 Y68.767 E5.37308
G1 X68.767 Y67.965 E5.4108
G1 X69.662 Y67.262 E5.44865
G1 X70.629 Y66.678 E5.48623
G1 X71.665 Y66.213 E5.524
G1 X72.752 Y65.874 E5.56187
G1 X73.865 Y65.67 E5.5995
G1 X75.019 Y65.6 E5.63796
G1 X104.4 Y65.6 E6.61517
G1 X104.4 Y75.6 E6.94777
G1 X115.6 Y75.6 E7.32029
G1 X115.6 Y65.6 E7.65289
G1 X144.981 Y65.6 E8.6301
G1 X146.135 Y65.67 E8.66856
G1 X147.248 Y65.874 E8.70619
G1 X148.335 Y66.213 E8.74406
G1 X149.371 Y66.678 E8.78183
G1 X150.338 Y67.262 E8.8194
G1 X151.233 Y67.965 E8.85726
G1 X152.035 Y68.767 E8.89498
G1 X152.738 Y69.662 E8.93283
G1 X153.322 Y70.629 E8.97041
G1 X153.787 Y71.665 E9.00818
G1 X154.126 Y72.752 E9.04605
G1 X154.33 Y73.865 E9.08368
G1 X154.4 Y75.012 E9.1219
G1 X154.4 Y144.988 E11.44931
G1 X154.33 Y146.135 E11.48753
G1 X154.126 Y147.248 E11.52517
G1 X153.787 Y148.335 E11.56304
G1 X153.322 Y149.371 E11.60081
G1 X152.738 Y150.338 E11.63838
G1 X152.035 Y151.233 E11.67624
G1 X151.233 Y152.035 E11.71396
G1 X150.338 Y152.738 E11.75181
G1 X149.371 Y153.322 E11.78938
G1 X148.335 Y153.787 E11.82715
G1 X147.248 Y154.126 E11.86503
G1 X146.135 Y154.33 E11.90266
G1 X144.981 Y154.4 E11.94111
G0 F6000 X144.988 Y154.8
;TYPE:WALL-OUTER
G1 F1200 X75.012 Y154.8 E14.26852
G1 X73.818 Y154.728 E14.30831
G1 X72.652 Y154.514 E14.34774
G1 X71.523 Y154.162 E14.38707
G1 X70.446 Y153.678 E14.42634
G1 X69.431 Y153.065 E14.46578
G1 X68.501 Y152.335 E14.5051
G1 X67.665 Y151.499 E14.54443
G1 X66.935 Y150.569 E14.58375
G1 X66.322 Y149.554 E14.62319
G1 X65.838 Y148.477 E14.66246
G1 X65.486 Y147.348 E14.70179
G1 X65.272 Y146.182 E14.74122
G1 X65.2 Y144.988 E14.78101
G1 X65.2 Y75.012 E17.10842
G1 X65.272 Y73.818 E17.1482
G1 X65.486 Y72.652 E17.18763
G1 X65.838 Y71.523 E17.22697
G1 X66.322 Y70.446 E17.26624
G1 X66.935 Y69.431 E17.30568
G1 X67.665 Y68.501 E17.345
G1 X68.501 Y67.665 E17.38432
G1 X69.431 Y66.935 E17.42365
G1 X70.446 Y66.322 E17.46308
G1 X71.523 Y65.838 E17.50236
G1 X72.652 Y65.486 E17.54169
G1 X73.818 Y65.272 E17.58112
G1 X75.012 Y65.2 E17.6209
G1 X104.8 Y65.2 E18.61166
G1 X104.8 Y75.2 E18.94426
G1 X115.2 Y75.2 E19.29016
G1 X115.2 Y65.2 E19.62276
G1 X144.988 Y65.2 E20.61352
G1 X146.182 Y65.272 E20.6533
G1 X147.348 Y65.486 E20.69273
G1 X148.477 Y65.838 E20.73206
G1 X149.554 Y66.322 E20.77134
G1 X150.569 Y66.935 E20.81077
G1 X151.499 Y67.665 E20.8501
G1 X152.335 Y68.501 E20.88942
G1 X153.065 Y69.431 E20.92874
G1 X153.678 Y70.446 E20.96818
G1 X154.162 Y71.523 E21.00745
G1 X154.514 Y72.652 E21.04679
G1 X154.728 Y73.818 E21.08622
G1 X154.8 Y75.012 E21.126
G1 X154.8 Y144.988 E23.45341
G1 X154.728 Y146.182 E23.4932
G1 X154.514 Y147.348 E23.53263
G1 X154.162 Y148.477 E23.57196
G1 X153.678 Y149.554 E23.61123
G1 X153.065 Y150.569 E23.65067
G1 X152.335 Y151.499 E23.68999
G1 X151.499 Y152.335 E23.72932
G1 X150.569 Y153.065 E23.76864
G1 X149.554 Y153.678 E23.80808
G1 X148.477 Y154.162 E23.84735
G1 X147.348 Y154.514 E23.88668
G1 X146.182 Y154.728 E23.92611
G1 X144.988 Y154.8 E23.9659
G0 F6000 X144.975 Y154.361
G0 X144.958 Y154.01
;TYPE:SKIN
G1 F1200 X75.042 Y154.01 E26.29131
G1 X73.909 Y153.942 E26.32906
G1 X72.843 Y153.746 E26.36511
G1 X71.798 Y153.42 E26.40152
G1 X70.813 Y152.978 E26.43743
G1 X69.882 Y152.415 E26.47362
G1 X69.022 Y151.74 E26.50998
G1 X68.26 Y150.978 E26.54582
G1 X67.585 Y150.118 E26.58218
G1 X67.022 Y149.187 E26.61837
G1 X66.58 Y148.202 E26.65428
G1 X66.254 Y147.157 E26.69069
G1 X66.058 Y146.092 E26.7267
G1 X65.99 Y144.964 E26.76429
G1 X65.99 Y75.036 E29.0901
G1 X66.058 Y73.908 E29.12769
G1 X66.254 Y72.843 E29.16371
G1 X66.58 Y71.798 E29.20012
G1 X67.022 Y70.813 E29.23602
G1 X67.585 Y69.882 E29.27221
G1 X68.26 Y69.022 E29.30857
G1 X69.022 Y68.26 E29.34442
G1 X69.882 Y67.585 E29.38078
G1 X70.813 Y67.022 E29.41696
G1 X71.798 Y66.58 E29.45287
G1 X72.843 Y66.254 E29.48928
G1 X73.909 Y66.058 E29.52533
G1 X75.042 Y65.99 E29.56308
G1 X104.01 Y65.99 E30.52656
G1 X104.01 Y75.99 E30.85916
G1 X115.99 Y75.99 E31.25762
G1 X115.99 Y65.99 E31.59022
G1 X144.958 Y65.99 E32.5537
G1 X146.091 Y66.058 E32.59145
G1 X147.157 Y66.254 E32.6275
G1 X148.202 Y66.58 E32.66391
G1 X149.187 Y67.022 E32.69982
G1 X150.118 Y67.585 E32.73601
G1 X150.978 Y68.26 E32.77237
G1 X151.74 Y69.022 E32.80821
G1 X152.415 Y69.882 E32.84457
G1 X152.978 Y70.813 E32.88076
G1 X153.42 Y71.798 E32.91667
G1 X153.746 Y72.843 E32.95308
G1 X153.942 Y73.908 E32.98909
G1 X154.01 Y75.036 E33.02668
G1 X154.01 Y144.964 E35.35249
G1 X153.942 Y146.092 E35.39008
G1 X153.746 Y147.157 E35.4261
G1 X153.42 Y148.202 E35.46251
G1 X152.978 Y149.187 E35.49841
G1 X152.415 Y150.118 E35.5346
G1 X151.74 Y150.978 E35.57096
G1 X150.978 Y151.74 E35.6068
G1 X150.118 Y152.415 E35.64317
G1 X149.187 Y152.978 E35.67935
G1 X148.202 Y153.42 E35.71526
G1 X147.157 Y153.746 E35.75167
G1 X146.091 Y153.942 E35.78772
G1 X144.958 Y154.01 E35.82547
G1 F1500 E29.32547
G0 F6000 X144.958 Y154.29
G0 X75.031 Y154.229
G0 X73.887 Y154.16
G0 X72.787 Y153.958
G0 X72.189 Y153.772
G0 X70.467 Y153.094
G0 X70.694 Y152.718
G1 F1500 E35.82547
G1 F1200 X67.279 Y149.304 E35.98608
G0 F6000 X66.904 Y149.529
G0 X66.364 Y148.401
G0 X66.765 Y148.223
G1 F1200 X71.774 Y153.233 E36.22171
G0 F6000 X72.612 Y153.505
G1 F1200 X66.493 Y147.386 E36.50953
G0 F6000 X66.323 Y146.651
G1 F1200 X73.347 Y153.674 E36.83989
G0 F6000 X74.026 Y153.787
G1 F1200 X66.21 Y145.972 E37.20751
G0 F6000 X66.174 Y145.37
G1 F1200 X74.627 Y153.823 E37.60511
G0 F6000 X75.218 Y153.848
G1 F1200 X66.149 Y144.78 E38.03167
G0 F6000 X66.149 Y144.214
G1 F1200 X75.784 Y153.848 E38.48485
G0 F6000 X76.349 Y153.848
G1 F1200 X66.149 Y143.648 E38.96462
G0 F6000 X66.149 Y143.083
G1 F1200 X76.915 Y153.848 E39.471
G0 F6000 X77.481 Y153.848
G1 F1200 X66.149 Y142.517 E40.004
G0 F6000 X66.149 Y141.951
G1 F1200 X78.046 Y153.848 E40.5636
G0 F6000 X78.612 Y153.848
G1 F1200 X66.149 Y141.386 E41.14979
G0 F6000 X66.149 Y140.82
G1 F1200 X79.178 Y153.848 E41.76261
G0 F6000 X79.743 Y153.848
G1 F1200 X66.149 Y140.254 E42.40203
G0 F6000 X66.149 Y139.688
G1 F1200 X80.309 Y153.848 E43.06808
G0 F6000 X80.875 Y153.848
G1 F1200 X66.149 Y139.123 E43.76072
G0 F6000 X66.149 Y138.557
G1 F1200 X81.441 Y153.848 E44.47999
G0 F6000 X82.006 Y153.848
G1 F1200 X66.149 Y137.991 E45.22585
G0 F6000 X66.149 Y137.426
G1 F1200 X82.572 Y153.848 E45.99831
G0 F6000 X83.138 Y153.848
G1 F1200 X66.149 Y136.86 E46.7974
G0 F6000 X66.149 Y136.294
G1 F1200 X83.703 Y153.848 E47.62309
G0 F6000 X84.269 Y153.848
G1 F1200 X66.149 Y135.729 E48.47537
G0 F6000 X66.149 Y135.163
G1 F1200 X84.835 Y153.848 E49.35428
G0 F6000 X85.4 Y153.848
G1 F1200 X66.149 Y134.597 E50.25979
G0 F6000 X66.149 Y134.032
G1 F1200 X85.966 Y153.848 E51.1919
G0 F6000 X86.532 Y153.848
G1 F1200 X66.149 Y133.466 E52.15063
G0 F6000 X66.149 Y132.9
G1 F1200 X87.097 Y153.848 E53.13596
G0 F6000 X87.663 Y153.848
G1 F1200 X66.149 Y132.335 E54.14789
G0 F6000 X66.149 Y131.769
G1 F1200 X88.229 Y153.848 E55.18644
G0 F6000 X88.794 Y153.848
G1 F1200 X66.149 Y131.203 E56.25159
G0 F6000 X66.149 Y130.637
G1 F1200 X89.36 Y153.848 E57.34336
G0 F6000 X89.926 Y153.848
G1 F1200 X66.149 Y130.072 E58.46174
G0 F6000 X66.149 Y129.506
G1 F1200 X90.491 Y153.848 E59.60671
G0 F6000 X91.057 Y153.848
G1 F1200 X66.149 Y128.94 E60.77831
G0 F6000 X66.149 Y128.375
G1 F1200 X91.623 Y153.848 E61.9765
G0 F6000 X92.189 Y153.848
G1 F1200 X66.149 Y127.809 E63.20132
G0 F6000 X66.149 Y127.243
G1 F1200 X92.754 Y153.848 E64.45274
G0 F6000 X93.32 Y153.848
G1 F1200 X66.149 Y126.678 E65.73076
G0 F6000 X66.149 Y126.112
G1 F1200 X93.886 Y153.848 E67.03539
G0 F6000 X94.451 Y153.848
G1 F1200 X66.149 Y125.546 E68.36663
G0 F6000 X66.149 Y124.981
G1 F1200 X95.017 Y153.848 E69.72447
G0 F6000 X95.583 Y153.848
G1 F1200 X66.149 Y124.415 E71.10893
G0 F6000 X66.149 Y123.849
G1 F1200 X96.148 Y153.848 E72.52
G0 F6000 X96.714 Y153.848
G1 F1200 X66.149 Y123.284 E73.95766
G0 F6000 X66.149 Y122.718
G1 F1200 X97.28 Y153.848 E75.42194
G0 F6000 X97.845 Y153.848
G1 F1200 X66.149 Y122.152 E76.91282
G0 F6000 X66.149 Y121.587
G1 F1200 X98.411 Y153.848 E78.4303
G0 F6000 X98.977 Y153.848
G1 F1200 X66.149 Y121.021 E79.97441
G0 F6000 X66.149 Y120.455
G1 F1200 X99.542 Y153.848 E81.54511
G0 F6000 X100.108 Y153.848
G1 F1200 X66.149 Y119.889 E83.14244
G0 F6000 X66.149 Y119.324
G1 F1200 X100.674 Y153.848 E84.76637
G0 F6000 X101.24 Y153.848
G1 F1200 X66.149 Y118.758 E86.41692
G0 F6000 X66.149 Y118.192
G1 F1200 X101.805 Y153.848 E88.09407
G0 F6000 X102.371 Y153.848
G1 F1200 X66.149 Y117.627 E89.79781
G0 F6000 X66.149 Y117.061
G1 F1200 X102.937 Y153.848 E91.52819
G0 F6000 X103.502 Y153.848
G1 F1200 X66.149 Y116.495 E93.28516
G0 F6000 X66.149 Y115.93
G1 F1200 X104.068 Y153.848 E95.06873
G0 F6000 X104.634 Y153.848
G1 F1200 X66.149 Y115.364 E96.87892
G0 F6000 X66.149 Y114.798
G1 F1200 X105.199 Y153.848 E98.71571
G0 F6000 X105.765 Y153.848
G1 F1200 X66.149 Y114.233 E100.5791
G0 F6000 X66.149 Y113.667
G1 F1200 X106.331 Y153.848 E102.46912
G0 F6000 X106.896 Y153.848
G1 F1200 X66.149 Y113.101 E104.38573
G0 F6000 X66.149 Y112.536
G1 F1200 X107.462 Y153.848 E106.32894
G0 F6000 X108.028 Y153.848
G1 F1200 X66.149 Y111.97 E108.29878
G0 F6000 X66.149 Y111.404
G1 F1200 X108.593 Y153.848 E110.29522
G0 F6000 X109.159 Y153.848
G1 F1200 X66.149 Y110.838 E112.31827
G0 F6000 X66.149 Y110.273
G1 F1200 X109.725 Y153.848 E114.36793
G0 F6000 X110.29 Y153.848
G1 F1200 X66.149 Y109.707 E116.44419
G0 F6000 X66.149 Y109.141
G1 F1200 X110.856 Y153.848 E118.54707
G0 F6000 X111.422 Y153.848
G1 F1200 X66.149 Y108.576 E120.67655
G0 F6000 X66.149 Y108.01
G1 F1200 X111.988 Y153.848 E122.83265
G0 F6000 X112.553 Y153.848
G1 F1200 X66.149 Y107.444 E125.01535
G0 F6000 X66.149 Y106.879
G1 F1200 X113.119 Y153.848 E127.22466
G0 F6000 X113.685 Y153.848
G1 F1200 X66.149 Y106.313 E129.46058
G0 F6000 X66.149 Y105.747
G1 F1200 X114.25 Y153.848 E131.7231
G0 F6000 X114.816 Y153.848
G1 F1200 X66.149 Y105.182 E134.01223
G0 F6000 X66.149 Y104.616
G1 F1200 X115.382 Y153.848 E136.32797
G0 F6000 X115.947 Y153.848
G1 F1200 X66.149 Y104.05 E138.67032
G0 F6000 X66.149 Y103.485
G1 F1200 X116.513 Y153.848 E141.03926
G0 F6000 X117.079 Y153.848
G1 F1200 X66.149 Y102.919 E143.43483
G0 F6000 X66.149 Y102.353
G1 F1200 X117.644 Y153.848 E145.857
G0 F6000 X118.21 Y153.848
G1 F1200 X66.149 Y101.788 E148.30576
G0 F6000 X66.149 Y101.222
G1 F1200 X118.776 Y153.848 E150.78115
G0 F6000 X119.341 Y153.848
G1 F1200 X66.149 Y100.656 E153.28314
G0 F6000 X66.149 Y100.09
G1 F1200 X119.907 Y153.848 E155.81175
G0 F6000 X120.473 Y153.848
G1 F1200 X66.149 Y99.525 E158.36696
G0 F6000 X66.149 Y98.959
G1 F1200 X121.039 Y153.848 E160.9488
G0 F6000 X121.604 Y153.848
G1 F1200 X66.149 Y98.393 E163.55723
G0 F6000 X66.149 Y97.828
G1 F1200 X122.17 Y153.848 E166.19226
G0 F6000 X122.736 Y153.848
G1 F1200 X66.149 Y97.262 E168.85392
G0 F6000 X66.149 Y96.696
G1 F1200 X123.301 Y153.848 E171.54217
G0 F6000 X123.867 Y153.848
G1 F1200 X66.149 Y96.131 E174.25703
G0 F6000 X66.149 Y95.565
G1 F1200 X124.433 Y153.848 E176.9985
G0 F6000 X124.998 Y153.848
G1 F1200 X66.149 Y94.999 E179.76658
G0 F6000 X66.149 Y94.434
G1 F1200 X125.564 Y153.848 E182.56126
G0 F6000 X126.13 Y153.848
G1 F1200 X66.149 Y93.868 E185.38256
G0 F6000 X66.149 Y93.302
G1 F1200 X126.695 Y153.848 E188.23045
G0 F6000 X127.261 Y153.848
G1 F1200 X66.149 Y92.737 E191.10495
G0 F6000 X66.149 Y92.171
G1 F1200 X127.827 Y153.848 E194.00607
G0 F6000 X128.392 Y153.848
G1 F1200 X66.149 Y91.605 E196.93379
G0 F6000 X66.149 Y91.039
G1 F1200 X128.958 Y153.848 E199.88813
G0 F6000 X129.524 Y153.848
G1 F1200 X66.149 Y90.474 E202.86908
G0 F6000 X66.149 Y89.908
G1 F1200 X130.089 Y153.848 E205.87662
G0 F6000 X130.655 Y153.848
G1 F1200 X66.149 Y89.342 E208.91078
G0 F6000 X66.149 Y88.777
G1 F1200 X131.221 Y153.848 E211.97155
G0 F6000 X131.787 Y153.848
G1 F1200 X66.149 Y88.211 E215.05893
G0 F6000 X66.149 Y87.645
G1 F1200 X132.352 Y153.848 E218.17292
G0 F6000 X132.918 Y153.848
G1 F1200 X66.149 Y87.08 E221.3135
G0 F6000 X66.149 Y86.514
G1 F1200 X133.484 Y153.848 E224.48071
G0 F6000 X134.049 Y153.848
G1 F1200 X66.149 Y85.948 E227.67452
G0 F6000 X66.149 Y85.383
G1 F1200 X134.615 Y153.848 E230.89493
G0 F6000 X135.181 Y153.848
G1 F1200 X66.149 Y84.817 E234.14196
G0 F6000 X66.149 Y84.251
G1 F1200 X135.746 Y153.848 E237.41559
G0 F6000 X136.312 Y153.848
G1 F1200 X66.149 Y83.686 E240.71582
G0 F6000 X66.149 Y83.12
G1 F1200 X136.878 Y153.848 E244.04267
G0 F6000 X137.443 Y153.848
G1 F1200 X66.149 Y82.554 E247.39612
G0 F6000 X66.149 Y81.989
G1 F1200 X138.009 Y153.848 E250.77617
G0 F6000 X138.575 Y153.848
G1 F1200 X66.149 Y81.423 E254.18284
G0 F6000 X66.149 Y80.857
G1 F1200 X139.14 Y153.848 E257.61612
G0 F6000 X139.706 Y153.848
G1 F1200 X66.149 Y80.291 E261.07601
G0 F6000 X66.149 Y79.726
G1 F1200 X140.272 Y153.848 E264.56251
G0 F6000 X140.837 Y153.848
G1 F1200 X66.149 Y79.16 E268.0756
G0 F6000 X66.149 Y78.594
G1 F1200 X141.403 Y153.848 E271.61532
G0 F6000 X141.969 Y153.848
G1 F1200 X66.149 Y78.029 E275.18164
G0 F6000 X66.149 Y77.463
G1 F1200 X142.535 Y153.848 E278.77458
G0 F6000 X143.1 Y153.848
G1 F1200 X66.149 Y76.897 E282.39412
G0 F6000 X66.149 Y76.332
G1 F1200 X143.666 Y153.848 E286.04025
G0 F6000 X144.232 Y153.848
G1 F1200 X66.149 Y75.766 E289.71302
G0 F6000 X66.149 Y75.2
G1 F1200 X144.797 Y153.848 E293.41238
G0 F6000 X145.34 Y153.825
G1 F1200 X66.172 Y74.657 E297.1362
G0 F6000 X66.204 Y74.124
G1 F1200 X145.874 Y153.793 E300.8836
G0 F6000 X146.372 Y153.726
G1 F1200 X66.272 Y73.626 E304.65126
G0 F6000 X66.359 Y73.148
G1 F1200 X146.85 Y153.638 E308.43729
G0 F6000 X147.307 Y153.529
G1 F1200 X66.468 Y72.691 E312.23968
G0 F6000 X66.603 Y72.259
G1 F1200 X147.738 Y153.395 E316.05605
G0 F6000 X148.167 Y153.258
G1 F1200 X66.74 Y71.831 E319.88613
G0 F6000 X66.914 Y71.44
G1 F1200 X148.558 Y153.083 E323.72639
G0 F6000 X148.948 Y152.908
G1 F1200 X67.09 Y71.05 E327.57674
G0 F6000 X67.286 Y70.68
G1 F1200 X149.317 Y152.711 E331.43522
G0 F6000 X149.669 Y152.498
G1 F1200 X67.5 Y70.328 E335.30022
G0 F6000 X67.713 Y69.975
G1 F1200 X150.022 Y152.285 E339.17181
G0 F6000 X150.34 Y152.037
G1 F1200 X67.961 Y69.658 E343.04667
G0 F6000 X68.21 Y69.341
G1 F1200 X150.656 Y151.788 E346.9247
G0 F6000 X150.963 Y151.528
G1 F1200 X68.47 Y69.036 E350.80489
G0 F6000 X68.753 Y68.753
G1 F1200 X151.245 Y151.245 E354.68506
G0 F6000 X151.528 Y150.963
G1 F1200 X69.036 Y68.47 E358.56526
G0 F6000 X69.342 Y68.211
G1 F1200 X151.788 Y150.657 E362.44326
G0 F6000 X152.037 Y150.34
G1 F1200 X69.659 Y67.962 E366.31807
G0 F6000 X69.976 Y67.713
G1 F1200 X152.286 Y150.023 E370.18968
G0 F6000 X152.498 Y149.67
G1 F1200 X70.329 Y67.501 E374.05466
G0 F6000 X70.681 Y67.287
G1 F1200 X152.712 Y149.318 E377.91315
G0 F6000 X152.909 Y148.949
G1 F1200 X71.05 Y67.09 E381.76354
G0 F6000 X71.441 Y66.915
